G21         ; Set units to mm
G90         ; Absolute positioning


; Pass 0

; First Move
G0 X98.50 Y0.30 ; Generated by LaserWeb (lw.raster-to-gcode.js)
; Size       : 0 x 0 mm
; PPI        : x: 300 - y: 300
; PPM        : x: 0.0846666667 - y: 0.0846666667
; Tool diam. : 0.2 mm
; Feed rate  : 3000 mm/min
; Beam range : 0 to 1
; Beam power : 0 to 100 %
; Options    : trimLine, joinPixel

G1 F3000

G0 X98.50 Y0.30 S0.0000
G1 X98.60 S0.1137
X98.80 S0.1294
X98.90 S0.0510
G0 X99.10 Y0.50 S0.0000
G1 X99.00 S0.0118
X98.60 S1.0000
X98.40 S0.9412
X98.30 S0.2588
G0 X98.10 Y0.70 S0.0000
G1 X98.20 S0.1373
X98.40 S0.9294
X99.10 S1.0000
G0 X99.50 Y0.90 S0.0000
G1 X99.40 S0.0667
X99.00 S1.0000
X98.90 S0.4784
G0 X98.50 S0.0000
G1 X98.40 S0.1137
X98.10 S1.0000
G0 X97.90 Y1.10 S0.0000
G1 X98.20 S1.0000
X98.30 S0.4784
G0 X99.10 S0.0000
G1 X99.20 S0.4118
X99.50 S1.0000
G0 X99.70 Y1.30 S0.0000
G1 X99.60 S0.9961
X99.40 S1.0000
X99.30 S0.3725
G0 X98.10 S0.0000
G1 X98.00 S0.8392
X97.70 S1.0000
G0 X97.30 Y1.50 S0.0000
G1 X97.40 S0.2157
X97.80 S1.0000
X97.90 S0.6941
G0 X99.50 S0.0000
G1 X99.60 S0.4824
X100.00 S1.0000
X100.10 S0.0667
G0 Y1.70 S0.0000
G1 X99.80 S1.0000
X99.70 S0.3765
G0 X98.90 S0.0000
G1 X98.80 S0.2588
X98.60 S0.6627
X98.50 S0.5882
G0 X97.70 S0.0000
G1 X97.60 S0.3373
X97.40 S1.0000
X97.20 S0.9020
X97.10 S0.2314
G0 Y1.90 S0.0000
G1 X97.20 S0.3490
X97.50 S1.0000
G0 X98.90 S0.0000
G1 S0.3922
G0 X99.70 S0.0000
G1 X99.80 S0.0588
X100.10 S1.0000
G0 Y2.10 S0.0000
G1 X99.80 S1.0000
X99.70 S0.0588
G0 X98.90 S0.0000
G1 S0.3922
G0 X97.50 S0.0000
G1 X97.20 S1.0000
X97.10 S0.3490
G0 Y2.30 S0.0000
G1 X97.20 S0.3490
X97.50 S1.0000
G0 X98.50 S0.0000
G1 S0.2235
G0 X98.90 S0.0000
G1 S0.3922
G0 X99.70 S0.0000
G1 X99.80 S0.0588
X100.10 S1.0000
G0 Y2.50 S0.0000
G1 X99.80 S1.0000
X99.70 S0.0588
G0 X98.90 S0.0000
G1 S0.3922
G0 X97.50 S0.0000
G1 X97.20 S1.0000
X97.10 S0.3490
G0 Y2.70 S0.0000
G1 X97.20 S0.3490
X97.50 S1.0000
G0 X98.70 S0.0000
G1 X98.80 S0.3608
X98.90 S0.3922
G0 X99.70 S0.0000
G1 X99.80 S0.0588
X100.10 S1.0000
G0 Y2.90 S0.0000
G1 X99.80 S1.0000
X99.70 S0.0588
G0 X98.90 S0.0000
G1 X98.80 S0.3922
X98.70 S0.1608
G0 X97.50 S0.0000
G1 X97.20 S1.0000
X97.10 S0.3490
G0 Y3.10 S0.0000
G1 X97.20 S0.4784
X97.40 S1.0000
X97.50 S0.9843
G0 X98.50 S0.0000
G1 S0.2000
G0 X98.90 S0.0000
G1 S0.3922
G0 X99.70 S0.0000
G1 X99.80 S0.0588
X100.10 S1.0000
G0 X100.30 Y3.30 S0.0000
G1 X100.20 S0.8549
X99.90 S1.0000
G0 X98.90 S0.0000
G1 X98.80 S0.6078
X98.60 S0.7529
X98.50 S0.9373
G0 X97.50 S0.0000
G1 X97.40 S0.9255
X97.10 S1.0000
G0 Y3.50 S0.0000
G1 X97.40 S1.0000
X97.50 S0.9255
G0 X98.50 S0.0000
G1 X98.60 S0.8863
X98.80 S0.7529
X98.90 S0.5922
G0 X99.70 S0.0000
G1 X99.80 S0.0039
X100.20 S1.0000
X100.30 S0.7922
G0 Y3.70 S0.0000
G1 X100.20 S0.2471
X99.80 S1.0000
X99.70 S0.0431
G0 X98.90 S0.0000
G1 X98.80 S0.4549
X98.60 S0.5373
X98.50 S0.8863
G0 X97.50 S0.0000
G1 X97.40 S0.9255
X97.10 S1.0000
G0 Y3.90 S0.0000
G1 X97.40 S1.0000
X97.50 S0.9255
G0 X98.50 S0.0000
G1 X98.60 S0.8863
X98.80 S0.2667
X98.90 S0.6078
G0 X99.90 S0.0000
G1 X100.20 S1.0000
X100.30 S0.8549
G0 Y4.10 S0.0000
G1 X100.20 S0.8588
X100.00 S1.0000
X99.90 S0.9922
G0 X98.90 S0.0000
G1 X98.80 S0.6039
X98.60 S0.2471
X98.40 S0.8863
X98.30 S0.0078
G0 X97.50 S0.0000
G1 X97.40 S0.9137
X97.10 S1.0000
G0 Y4.30 S0.0000
G1 X97.30 S1.0000
G0 X98.50 S0.0000
G1 X98.60 S0.1137
X98.70 S0.2471
G0 X99.10 S0.0000
G1 S0.0275
G0 X99.90 S0.0000
G1 X100.00 S0.4235
X100.30 S1.0000
G0 Y4.50 S0.0000
G1 X100.00 S1.0000
X99.90 S0.4235
G0 X99.10 S0.0000
G1 S0.0275
G0 X98.70 S0.0000
G1 X98.60 S0.2471
X98.50 S0.1137
G0 X97.30 S0.0000
G1 X97.10 S1.0000
G0 X96.90 Y4.70 S0.0000
G1 X97.00 S0.9882
X97.30 S1.0000
G0 X98.30 S0.0000
G1 S0.5216
G0 X98.70 S0.0000
G1 X98.80 S0.2471
X99.00 S0.0392
X99.10 S0.0275
G0 X99.90 S0.0000
G1 X100.00 S0.4235
X100.30 S1.0000
G0 X100.70 Y4.90 S0.0000
G1 X100.60 S0.4627
X100.20 S1.0000
X100.10 S0.8980
G0 X99.10 S0.0000
G1 X99.00 S0.0275
X98.80 S0.3922
X98.70 S0.2471
G0 X98.30 S0.0000
G1 X98.20 S0.7412
X98.10 S0.0745
G0 X97.30 S0.0000
G1 X97.20 S0.6706
X97.00 S1.0000
X96.90 S0.9922
G0 Y5.10 S0.0000
G1 X97.20 S1.0000
X97.30 S0.2902
G0 X98.30 S0.0000
G1 X98.40 S0.5686
X98.60 S0.7490
X98.80 S0.8667
X99.00 S0.3922
X99.10 S0.9725
G0 X100.30 S0.0000
G1 X100.80 S1.0000
X101.00 S0.9608
X101.10 S0.3333
G0 X101.30 Y5.30 S0.0000
G1 X100.60 S1.0000
X100.50 S0.8157
G0 X99.50 S0.0000
G1 X99.40 S0.1294
X99.20 S0.1843
X99.00 S0.0039
X98.80 S0.8863
X98.60 S1.0000
X98.40 S0.8353
X98.20 S0.4784
X98.10 S0.1843
G0 X97.30 S0.0000
G1 X97.20 S0.2353
X96.80 S1.0000
X96.70 S0.1137
G0 X96.50 Y5.50 S0.0000
G1 X96.60 S0.2627
X96.80 S0.8314
X97.10 S1.0000
G0 X98.10 S0.0000
G1 X98.20 S0.1608
X98.30 S0.4784
G0 X98.70 S0.0000
G1 X98.90 S1.0000
G0 X99.50 S0.0000
G1 X99.60 S0.4549
X99.70 S0.5451
G0 X100.90 S0.0000
G1 X101.00 S0.5804
X101.40 S1.0000
X101.60 S0.8549
X101.70 S0.1765
G0 X101.90 Y5.70 S0.0000
G1 X101.80 S0.8706
X101.40 S1.0000
X101.20 S0.9608
X101.10 S0.0549
G0 X99.90 S0.0000
G1 S0.4353
G0 X99.50 S0.0000
G1 S0.6314
G0 X99.10 S0.0000
G1 X99.00 S0.8863
X98.80 S0.9451
X98.70 S1.0000
G0 X98.30 S0.0000
G1 X98.20 S0.4784
X98.10 S1.0000
G0 X97.10 S0.0000
G1 X97.00 S0.6510
X96.40 S1.0000
X96.30 S0.8196
G0 X95.70 Y5.90 S0.0000
G1 X95.80 S0.2235
X96.40 S1.0000
X96.60 S0.9294
X96.80 S0.8275
X96.90 S0.0078
G0 X97.90 S0.0000
G1 X98.00 S0.2745
X98.20 S0.7686
X98.30 S0.6196
G0 X98.70 S0.0000
G1 X98.80 S0.4510
X99.00 S0.5569
X99.20 S0.2863
X99.40 S0.3333
X99.50 S0.4118
G0 X100.10 S0.0000
G1 S0.5686
G0 X101.50 S0.0000
G1 X101.60 S0.8118
X102.20 S1.0000
X102.30 S0.0627
G0 X102.50 Y6.10 S0.0000
G1 X102.40 S0.5529
X101.80 S1.0000
X101.70 S0.2510
G0 X100.30 S0.0000
G1 S0.4039
G0 X99.70 S0.0000
G1 S1.0000
G0 X99.10 S0.0000
G1 X99.00 S1.0000
X98.80 S0.6078
X98.70 S1.0000
G0 X98.30 S0.0000
G1 X98.20 S1.0000
X98.00 S0.6902
X97.80 S0.3686
X97.70 S0.5176
G0 X96.50 S0.0000
G1 X96.40 S0.2706
X95.60 S1.0000
X95.40 S0.8000
X95.30 S0.0549
G0 X95.10 Y6.30 S0.0000
G1 X96.00 S1.0000
X96.10 S0.5412
G0 X97.50 S0.0000
G1 X97.60 S0.9961
X97.70 S0.0039
G0 X98.10 S0.0000
G1 X98.20 S0.1608
X98.30 S1.0000
G0 X98.70 S0.0000
G1 S1.0000
G0 X99.70 S0.0000
G1 X99.80 S0.0627
X99.90 S0.4235
G0 X100.50 S0.0000
G1 X100.60 S0.0039
X100.70 S0.9961
G0 X102.10 S0.0000
G1 X102.60 S1.0000
X102.70 S0.9961
G0 X103.10 Y6.50 S0.0000
G1 X103.00 S0.8627
X102.40 S1.0000
X102.30 S0.4902
G0 X101.30 S0.0000
G1 X101.20 S0.0157
X101.00 S0.4745
X100.90 S0.1490
G0 X100.30 S0.0000
G1 X100.20 S0.0510
X100.10 S0.5020
G0 X99.70 S0.0000
G1 S0.0196
G0 X99.30 S0.0000
G1 S0.2392
G0 X98.90 S0.0000
G1 X98.80 S0.2196
X98.60 S1.0000
X98.40 S0.0745
X98.20 S1.0000
X98.10 S0.1020
G0 X97.70 S0.0000
G1 X97.60 S0.8431
X97.40 S0.9529
X97.20 S0.8157
X97.10 S0.1255
G0 X95.70 S0.0000
G1 X95.60 S0.1216
X95.40 S0.8353
X94.60 S1.0000
X94.50 S0.2314
G0 X94.30 Y6.70 S0.0000
G1 X94.40 S0.7961
X95.00 S1.0000
X95.20 S0.4784
X95.30 S0.2549
G0 X96.90 S0.0000
G1 X97.00 S0.7098
X97.20 S0.7490
X97.40 S0.2824
X97.60 S0.3333
X97.70 S0.1569
G0 X98.10 S0.0000
G1 X98.20 S0.1608
X98.30 S1.0000
G0 X98.70 S0.0000
G1 S1.0000
G0 X99.10 S0.0000
G1 X99.20 S0.0196
X99.40 S0.9059
X99.50 S0.2196
G0 X100.30 S0.0000
G1 X100.40 S0.6157
X100.60 S0.1412
X100.70 S0.6588
G0 X101.30 S0.0000
G1 S0.2706
G0 X102.50 S0.0000
G1 X102.60 S0.0353
X103.40 S1.0000
X103.50 S0.7176
G0 X104.10 Y6.90 S0.0000
G1 X104.00 S0.0784
X103.20 S1.0000
X103.10 S0.9373
G0 X101.70 S0.0000
G1 X101.60 S0.3490
X101.50 S0.2902
G0 X100.90 S0.0000
G1 X100.80 S0.0196
X100.60 S0.1216
X100.40 S0.5333
X100.30 S0.1333
G0 X99.70 S0.0000
G1 X99.60 S0.0824
X99.40 S0.9765
X99.30 S0.6118
G0 X98.70 S0.0000
G1 S0.9804
G0 X98.30 S0.0000
G1 X98.20 S1.0000
X98.10 S0.1451
G0 X97.30 S0.0000
G1 X97.20 S0.2902
X97.00 S0.4000
X96.80 S1.0000
X96.60 S0.9490
X96.50 S0.0824
G0 X94.70 S0.0000
G1 X94.60 S0.9176
X93.80 S1.0000
X93.70 S0.0824
G0 X93.30 Y7.10 S0.0000
G1 X93.40 S0.2078
X93.60 S0.9059
X94.20 S1.0000
X94.40 S0.8784
X94.50 S0.2000
G0 X96.10 S0.0000
G1 X96.20 S0.2039
X96.40 S0.9451
X96.60 S0.5529
X96.80 S0.4863
X97.00 S1.0000
X97.20 S0.5529
X97.30 S0.1608
G0 X97.70 S0.0000
G1 X97.80 S0.3137
X98.00 S0.4431
X98.20 S0.1608
X98.30 S1.0000
G0 X98.70 S0.0000
G1 S0.8627
G0 X99.30 S0.0000
G1 X99.40 S0.1843
X99.60 S0.1373
X99.80 S1.0000
X100.00 S0.7647
X100.10 S0.0980
G0 X100.90 S0.0000
G1 X101.00 S0.5725
X101.20 S0.6706
X101.30 S0.4275
G0 X101.90 S0.0000
G1 S0.5490
G0 X103.30 S0.0000
G1 X103.40 S0.5529
X104.20 S1.0000
X104.30 S0.7843
G0 X104.50 Y7.30 S0.0000
G1 X104.40 S0.8549
X104.00 S1.0000
X103.80 S0.7294
X103.70 S0.4353
G0 X102.10 S0.0000
G1 S0.5176
G0 X101.70 S0.0000
G1 X101.60 S0.7412
X101.40 S0.5529
X101.20 S0.8157
X101.10 S0.6706
G0 X100.30 S0.0000
G1 X100.20 S0.6902
X99.80 S1.0000
X99.70 S0.1922
G0 X98.70 S0.0000
G1 X98.60 S0.3922
X98.40 S0.0902
X98.20 S1.0000
X98.10 S0.1608
G0 X97.50 S0.0000
G1 X97.40 S0.1765
X97.30 S0.5765
G0 X96.90 S0.0000
G1 X96.80 S0.9882
X96.70 S0.4235
G0 X96.30 S0.0000
G1 X96.20 S0.0196
X96.00 S0.1020
X95.80 S1.0000
X95.70 S0.6588
G0 X94.10 S0.0000
G1 X94.00 S0.1922
X93.20 S1.0000
X93.10 S0.8275
G0 X92.90 Y7.50 S0.0000
G1 X93.00 S0.7843
X93.40 S1.0000
X93.50 S0.8627
G0 X95.10 S0.0000
G1 X95.20 S0.1216
X95.40 S0.2431
X95.60 S1.0000
X95.80 S0.6745
X96.00 S0.1686
X96.20 S1.0000
X96.40 S0.8510
X96.50 S0.7373
G0 X96.90 S0.0000
G1 X97.00 S0.0078
X97.20 S0.8314
X97.30 S0.5922
G0 X97.70 S0.0000
G1 S0.0745
G0 X98.10 S0.0000
G1 X98.20 S0.1608
X98.30 S1.0000
G0 X98.70 S0.0000
G1 S1.0000
G0 X100.30 S0.0000
G1 X100.40 S0.8314
X100.60 S0.5765
X100.70 S0.1451
G0 X101.30 S0.0000
G1 X101.40 S0.7961
X101.60 S0.8314
X101.80 S0.9451
X102.00 S0.9569
X102.10 S0.4980
G0 X102.50 S0.0000
G1 S0.7451
G0 X104.10 S0.0000
G1 X104.20 S0.0235
X104.40 S0.8980
X104.80 S1.0000
X104.90 S0.6039
G0 X105.10 Y7.70 S0.0000
G1 X105.00 S0.6078
X104.60 S1.0000
X104.50 S0.8667
G0 X102.90 S0.0000
G1 X102.80 S0.5294
X102.70 S0.4706
G0 X102.30 S0.0000
G1 X102.20 S0.7647
X102.00 S0.4941
X101.90 S0.9569
G0 X100.90 S0.0000
G1 X100.80 S0.4078
X100.60 S1.0000
X100.50 S0.2392
G0 X99.70 S0.0000
G1 S0.5020
G0 X98.70 S0.0000
G1 S1.0000
G0 X98.30 S0.0000
G1 X98.10 S1.0000
G0 X96.90 S0.0000
G1 X96.80 S0.5373
X96.70 S0.3333
G0 X96.30 S0.0000
G1 X96.20 S0.5294
X96.00 S0.2157
X95.80 S1.0000
X95.60 S0.9137
X95.40 S0.7882
X95.20 S0.4706
X95.00 S1.0000
X94.90 S0.5294
G0 X93.30 S0.0000
G1 X93.20 S0.2510
X93.00 S0.9451
X92.80 S1.0000
X92.70 S0.7098
G0 X92.50 Y7.90 S0.0000
G1 X92.60 S0.8980
X92.90 S1.0000
G0 X94.50 S0.0000
G1 X94.60 S0.5725
X94.80 S1.0000
X95.00 S0.1059
X95.20 S0.0275
X95.40 S0.9922
X95.60 S1.0000
X95.80 S0.2745
X95.90 S0.8941
G0 X96.30 S0.0000
G1 X96.40 S0.8039
X96.60 S0.7647
X96.70 S0.4000
G0 X97.90 S0.0000
G1 X98.00 S0.7137
X98.20 S1.0000
X98.30 S0.4784
G0 X98.70 S0.0000
G1 S0.7804
G0 X99.50 S0.0000
G1 X99.60 S0.0745
X99.70 S1.0000
G0 X100.70 S0.0000
G1 X100.80 S0.0902
X101.00 S0.3098
X101.10 S0.9373
G0 X101.90 S0.0000
G1 X102.00 S0.0039
X102.20 S0.0627
X102.40 S0.2353
X102.60 S0.0902
X102.70 S0.4941
G0 X103.10 S0.0000
G1 S0.2745
G0 X104.70 S0.0000
G1 X104.80 S0.1059
X105.20 S1.0000
X105.30 S0.7176
G0 X105.50 Y8.10 S0.0000
G1 X105.40 S0.5843
X105.20 S1.0000
X105.10 S0.9569
G0 X103.90 S0.0000
G1 X103.80 S0.0863
X103.60 S0.1804
X103.40 S0.7412
X103.20 S0.1098
X103.00 S0.6392
X102.80 S0.6314
X102.60 S0.2588
X102.50 S0.0941
G0 X101.50 S0.0000
G1 X101.40 S0.5882
X101.30 S0.7412
G0 X99.70 S0.0000
G1 S0.6980
G0 X99.30 S0.0000
G1 S0.1725
G0 X98.90 S0.0000
G1 X98.80 S0.3922
X98.40 S1.0000
X98.20 S0.6471
X98.10 S1.0000
G0 X96.30 S0.0000
G1 S0.7412
G0 X95.90 S0.0000
G1 X95.80 S0.2588
X95.70 S0.1373
G0 X95.10 S0.0000
G1 X95.00 S1.0000
X94.80 S0.8353
X94.60 S1.0000
X94.40 S0.1647
X94.20 S0.9294
X94.10 S0.2588
G0 X92.70 S0.0000
G1 X92.60 S0.9020
X92.40 S1.0000
X92.30 S0.7451
G0 X92.10 Y8.30 S0.0000
G1 X92.20 S0.7294
X92.40 S1.0000
X92.50 S0.9882
G0 X93.70 S0.0000
G1 X93.80 S0.6157
X94.00 S0.6588
X94.20 S0.9490
X94.40 S1.0000
X94.60 S0.6039
X94.70 S0.3804
G0 X95.70 S0.0000
G1 X95.80 S0.9294
X96.00 S0.3843
X96.10 S0.4902
G0 X98.10 S0.0000
G1 X98.20 S0.9373
X98.40 S0.3843
X98.60 S0.9294
X98.80 S1.0000
X98.90 S0.3922
G0 X99.30 S0.0000
G1 X99.40 S0.3843
X99.50 S0.7333
G0 X101.70 S0.0000
G1 X101.80 S0.4588
X101.90 S0.0275
G0 X102.70 S0.0000
G1 X102.80 S0.1961
X103.00 S1.0000
X103.20 S0.6980
X103.40 S0.7412
X103.60 S0.0353
X103.80 S0.5451
X104.00 S0.2549
X104.10 S0.6000
G0 X105.30 S0.0000
G1 X105.60 S1.0000
X105.70 S0.6471
G0 X105.90 Y8.50 S0.0000
G1 X105.80 S0.7020
X105.40 S1.0000
X105.30 S0.0039
G0 X104.30 S0.0000
G1 S0.3922
G0 X103.90 S0.0000
G1 X103.80 S0.9804
X103.50 S0.0196
G0 X102.50 S0.0000
G1 X102.40 S0.8549
X102.20 S0.9843
X102.00 S1.0000
X101.80 S0.9569
X101.70 S0.0078
G0 X101.10 S0.0000
G1 S0.4000
G0 X99.90 S0.0000
G1 X99.80 S0.5686
X99.60 S0.9804
X99.50 S0.7020
G0 X98.90 S0.0000
G1 X98.80 S0.3922
X98.70 S1.0000
G0 X98.10 S0.0000
G1 S1.0000
G0 X97.70 S0.0000
G1 X97.60 S0.0118
X97.40 S0.9804
X97.30 S0.9961
G0 X95.70 S0.0000
G1 X95.40 S0.0196
X95.30 S1.0000
G0 X94.90 S0.0000
G1 X94.80 S0.0118
X94.70 S0.9765
G0 X94.30 S0.0000
G1 X94.20 S0.0157
X94.00 S0.0980
X93.80 S0.9804
X93.60 S0.0196
X93.40 S0.9961
X93.30 S0.4588
G0 X92.30 S0.0000
G1 X92.00 S1.0000
X91.90 S0.9137
G0 X91.70 Y8.70 S0.0000
G1 X91.80 S0.7176
X92.00 S1.0000
X92.10 S0.8980
G0 X93.10 S0.0000
G1 X93.20 S1.0000
X93.40 S0.8157
X93.60 S1.0000
X93.70 S0.5294
G0 X94.70 S0.0000
G1 X94.80 S0.9961
X94.90 S0.4588
G0 X96.90 S0.0000
G1 X97.00 S0.0078
X97.20 S0.5490
X97.30 S0.8118
G0 X98.10 S0.0000
G1 X98.20 S1.0000
X98.30 S0.6549
G0 X98.70 S0.0000
G1 X98.80 S1.0000
X99.00 S0.3922
X99.10 S0.0275
G0 X99.70 S0.0000
G1 X99.80 S0.6549
X100.00 S1.0000
X100.10 S0.4863
G0 X100.70 S0.0000
G1 S0.2980
G0 X101.30 S0.0000
G1 X101.40 S0.6275
X101.60 S0.2078
X101.70 S0.2118
G0 X102.30 S0.0000
G1 X102.40 S0.5020
X102.60 S0.7020
X102.80 S0.6784
X102.90 S0.0510
G0 X103.30 S0.0000
G1 X103.40 S0.3804
X103.60 S0.0392
X103.80 S0.7608
X104.00 S0.1137
X104.20 S1.0000
X104.40 S0.6118
X104.60 S0.4941
X104.70 S0.3451
G0 X105.70 S0.0000
G1 X105.80 S0.9725
X106.00 S1.0000
X106.10 S0.5725
G0 Y8.90 S0.0000
G1 X105.90 S1.0000
G0 X104.90 S0.0000
G1 S0.5216
G0 X104.30 S0.0000
G1 X104.20 S0.5451
X104.00 S0.0275
X103.80 S0.1961
X103.70 S0.2980
G0 X103.10 S0.0000
G1 X103.00 S0.9373
X102.80 S1.0000
X102.70 S0.6431
G0 X101.30 S0.0000
G1 X101.20 S0.6745
X101.10 S0.2863
G0 X100.50 S0.0000
G1 X100.40 S0.3451
X100.20 S0.9569
X100.00 S0.2980
X99.90 S0.1255
G0 X99.10 S0.0000
G1 X99.00 S0.0078
X98.80 S0.1176
X98.70 S1.0000
G0 X98.30 S0.0000
G1 X98.20 S1.0000
X98.10 S0.4078
G0 X97.70 S0.0000
G1 S0.7020
G0 X97.30 S0.0000
G1 X97.20 S0.0863
X97.00 S0.1020
X96.90 S0.7020
G0 X96.50 S0.0000
G1 S0.0784
G0 X94.70 S0.0000
G1 X94.60 S0.2941
X94.40 S0.4431
X94.30 S0.7020
G0 X93.70 S0.0000
G1 S0.7020
G0 X93.30 S0.0000
G1 X93.20 S0.6706
X93.00 S0.3412
X92.90 S0.9216
G0 X91.90 S0.0000
G1 X91.60 S1.0000
X91.50 S0.7647
G0 X91.30 Y9.10 S0.0000
G1 X91.40 S0.8549
X91.60 S1.0000
X91.70 S0.9608
G0 X92.70 S0.0000
G1 X92.80 S1.0000
X93.00 S0.7412
X93.10 S0.8353
G0 X93.50 S0.0000
G1 X93.60 S0.7725
X93.80 S0.0118
X94.00 S0.5843
X94.10 S0.0784
G0 X95.30 S0.0000
G1 X95.40 S0.0078
X95.60 S0.0353
X95.70 S0.0549
G0 X96.10 S0.0000
G1 X96.20 S0.9333
X96.40 S0.0667
