G21         ; Set units to mm
G90         ; Absolute positioning


; Pass 0

; First Move
G0 X23.34 Y-17.76 
; Generated by LaserWeb (lw.raster-to-gcode.js)
; Size       : 0 x 0 mm
; PPI        : x: 300 - y: 300
; PPM        : x: 0.0846666667 - y: 0.0846666667
; Tool diam. : 0.2 mm
; Feed rate  : 4999 mm/min
; Beam range : 0 to 1
; Beam power : 0 to 100 %
; Options    : trimLine, joinPixel

G1 F4999

G0 X23.34 Y-17.76 S0.0000
G1 X23.44 S0.0118
X23.64 S0.0667
X25.04 S0.5020
X25.24 S0.0745
X25.34 S0.0157
G0 X38.94 S0.0000
G1 X39.04 S0.0471
X39.24 S0.3216
X40.64 S0.5020
X40.74 S0.0471
G0 X54.34 S0.0000
G1 X54.44 S0.0353
X54.64 S0.1059
X56.04 S0.5020
X56.24 S0.2314
X56.34 S0.0235
G0 X69.94 S0.0000
G1 X70.04 S0.0471
X70.24 S0.4980
X71.64 S0.5020
X71.74 S0.0431
G0 X85.34 S0.0000
G1 X85.44 S0.0196
X85.64 S0.1961
X87.04 S0.5020
X87.24 S0.3608
X87.34 S0.0235
G0 X87.74 Y-17.56 S0.0000
G1 X87.64 S0.0824
X87.44 S0.4549
X85.24 S1.0000
X85.04 S0.3882
X84.94 S0.0392
G0 X72.14 S0.0000
G1 X72.04 S0.2824
X71.84 S0.6392
X69.84 S1.0000
X69.64 S0.9412
X69.54 S0.2510
G0 X56.74 S0.0000
G1 X56.64 S0.0549
X56.44 S0.4706
X54.24 S1.0000
X54.04 S0.5255
X53.94 S0.0706
G0 X41.34 S0.0000
G1 X41.24 S0.0471
X41.04 S0.4510
X38.84 S1.0000
X38.64 S0.7765
X38.54 S0.1725
G0 X25.74 S0.0000
G1 X25.64 S0.0118
X25.44 S0.4314
X25.24 S0.8588
X23.24 S1.0000
X23.04 S0.5804
X22.94 S0.1137
G0 X22.74 Y-17.36 S0.0000
G1 X22.84 S0.5059
X23.04 S0.9961
X23.64 S1.0000
X25.04 S0.9922
X25.64 S1.0000
X25.84 S0.9137
X25.94 S0.4667
G0 X38.14 S0.0000
G1 X38.24 S0.1490
X38.44 S0.8667
X39.04 S1.0000
X39.24 S0.9961
X40.64 S0.9922
X41.24 S1.0000
X41.44 S0.8941
X41.54 S0.2314
G0 X53.74 S0.0000
G1 X53.84 S0.6039
X54.04 S0.9608
X54.64 S1.0000
X56.04 S0.9922
X56.24 S0.9961
X56.64 S1.0000
X56.84 S0.9490
X56.94 S0.5608
G0 X69.14 S0.0000
G1 X69.24 S0.4039
X69.44 S0.9020
X70.04 S1.0000
X71.64 S0.9922
X72.24 S1.0000
X72.44 S0.8784
X72.54 S0.0667
G0 X84.74 S0.0000
G1 X84.84 S0.5882
X85.04 S0.9373
X85.44 S1.0000
X85.64 S0.9961
X87.04 S0.9922
X87.24 S0.9961
X87.64 S1.0000
X87.84 S0.9686
X87.94 S0.3373
G0 X88.34 Y-17.16 S0.0000
G1 X88.24 S0.1137
X88.04 S0.9882
X87.64 S1.0000
X87.44 S0.9412
X87.24 S0.6157
X87.14 S0.2039
G0 X85.54 S0.0000
G1 X85.44 S0.1843
X85.24 S0.5333
X85.04 S0.9529
X84.44 S1.0000
X84.34 S0.2549
G0 X72.94 S0.0000
G1 X72.84 S0.0039
X72.64 S0.2941
X72.24 S1.0000
X72.04 S0.9843
X71.84 S0.8824
X71.74 S0.3765
G0 X70.14 S0.0000
G1 X70.04 S0.0392
X69.84 S0.3882
X69.64 S0.7686
X69.44 S0.9843
X69.04 S1.0000
X68.94 S0.5176
G0 X57.34 S0.0000
G1 X57.24 S0.2588
X56.64 S1.0000
X56.44 S0.9333
X56.24 S0.5176
X56.14 S0.1412
G0 X54.54 S0.0000
G1 X54.44 S0.2902
X54.24 S0.5804
X54.04 S0.9529
X53.44 S1.0000
X53.34 S0.0980
G0 X41.94 S0.0000
G1 X41.84 S0.0392
X41.64 S0.5686
X41.24 S1.0000
X41.04 S0.9765
X40.84 S0.7647
X40.74 S0.3490
G0 X39.14 S0.0000
G1 X39.04 S0.0902
X38.84 S0.3176
X38.64 S0.8235
X38.44 S0.9922
X38.04 S1.0000
X37.84 S0.8353
X37.74 S0.0078
G0 X26.34 S0.0000
G1 X26.24 S0.1529
X25.64 S1.0000
X25.44 S0.9451
X25.24 S0.6510
X25.14 S0.2471
G0 X23.54 S0.0000
G1 X23.44 S0.3059
X23.24 S0.6549
X23.04 S0.9216
X22.64 S1.0000
X22.44 S0.8549
X22.34 S0.1216
G0 X22.14 Y-16.96 S0.0000
G1 X22.24 S0.3686
X22.44 S0.9765
X22.64 S0.9490
X22.84 S0.9373
X23.04 S0.4863
X23.14 S0.0471
G0 X25.34 S0.0000
G1 X25.44 S0.0039
X25.64 S0.0471
X25.84 S0.6118
X26.04 S0.9686
X26.24 S1.0000
X26.44 S0.9922
X26.54 S0.2353
G0 X37.54 S0.0000
G1 X37.64 S0.1490
X37.84 S0.9373
X38.04 S1.0000
X38.24 S0.9922
X38.44 S0.7725
X38.64 S0.2471
X38.74 S0.0118
G0 X40.94 S0.0000
G1 X41.04 S0.0039
X41.24 S0.1333
X41.44 S0.7843
X41.64 S0.9961
X41.84 S1.0000
X42.04 S0.8745
X42.14 S0.0392
G0 X53.14 S0.0000
G1 X53.24 S0.3961
X53.64 S1.0000
X53.84 S0.9686
X54.04 S0.5922
X54.14 S0.0902
G0 X56.54 S0.0000
G1 X56.64 S0.0471
X56.84 S0.5098
X57.04 S0.9569
X57.24 S1.0000
X57.44 S0.9922
X57.54 S0.5020
G0 X68.54 S0.0000
G1 X68.64 S0.0745
X68.84 S0.7804
X69.04 S1.0000
X69.24 S0.9922
X69.44 S0.7412
X69.64 S0.1725
X69.74 S0.0078
G0 X71.94 S0.0000
G1 X72.04 S0.0196
X72.24 S0.1843
X72.44 S0.7490
X72.84 S1.0000
X73.04 S0.6980
X73.14 S0.0314
G0 X83.94 S0.0000
G1 X84.04 S0.0039
X84.24 S0.6980
X84.64 S1.0000
X84.84 S0.9569
X85.04 S0.5412
X85.14 S0.0588
G0 X87.54 S0.0000
G1 X87.64 S0.0275
X87.84 S0.6392
X88.04 S0.9647
X88.24 S1.0000
X88.44 S0.9961
X88.54 S0.3490
G0 X88.74 Y-16.76 S0.0000
G1 X88.64 S0.7922
X88.44 S1.0000
X88.24 S0.9961
X88.04 S0.5922
X87.94 S0.1020
G0 X84.74 S0.0000
G1 X84.64 S0.0588
X84.44 S0.4863
X84.24 S0.9882
X84.04 S1.0000
X83.94 S0.7098
G0 X73.14 S0.0000
G1 X73.04 S0.9569
X72.84 S1.0000
X72.64 S0.9765
X72.44 S0.3569
X72.34 S0.0196
G0 X69.34 S0.0000
G1 X69.24 S0.0078
X69.04 S0.1922
X68.84 S0.9137
X68.64 S1.0000
X68.44 S0.9490
X68.34 S0.2745
G0 X57.74 S0.0000
G1 X57.64 S0.7176
X57.44 S1.0000
X57.24 S0.9961
X57.04 S0.6392
X56.94 S0.0627
G0 X53.74 S0.0000
G1 X53.64 S0.0902
X53.44 S0.5922
X53.24 S1.0000
X53.04 S0.9961
X52.94 S0.3725
G0 X42.34 S0.0000
G1 X42.24 S0.1843
X42.04 S0.9490
X41.84 S1.0000
X41.64 S0.9059
X41.44 S0.2627
X41.34 S0.0196
G0 X38.34 S0.0000
G1 X38.24 S0.0118
X38.04 S0.2235
X37.84 S0.8314
X37.64 S1.0000
X37.44 S0.9725
X37.34 S0.4824
G0 X26.74 S0.0000
G1 X26.64 S0.6039
X26.44 S1.0000
X26.24 S0.9922
X26.04 S0.4980
X25.94 S0.1098
G0 X22.74 S0.0000
G1 X22.64 S0.0549
X22.44 S0.5765
X22.24 S0.9843
X22.04 S1.0000
X21.94 S0.6549
G0 X21.54 Y-16.56 S0.0000
G1 X21.64 S0.0353
X21.84 S0.8745
X22.04 S1.0000
X22.24 S0.9333
X22.34 S0.2431
G0 X26.34 S0.0000
G1 X26.44 S0.1529
X26.64 S0.9569
X26.84 S0.8980
X27.04 S0.8902
X27.14 S0.0431
G0 X37.14 S0.0000
G1 X37.24 S0.4118
X37.44 S1.0000
X37.64 S0.9922
X37.84 S0.6784
X37.94 S0.0275
G0 X41.94 S0.0000
G1 X42.04 S0.6431
X42.44 S1.0000
X42.54 S0.2235
G0 X52.74 S0.0000
G1 X52.84 S0.3333
X53.04 S1.0000
X53.24 S0.9647
X53.34 S0.1765
G0 X57.34 S0.0000
G1 X57.44 S0.3137
X57.64 S0.9373
X57.84 S1.0000
X58.04 S0.9020
X58.14 S0.0588
G0 X68.14 S0.0000
G1 X68.24 S0.3020
X68.44 S1.0000
X68.64 S0.9922
X68.74 S0.7373
G0 X72.74 S0.0000
G1 X72.84 S0.0510
X73.04 S0.7686
X73.44 S1.0000
X73.54 S0.2941
G0 X83.74 S0.0000
G1 X83.84 S0.6392
X84.04 S1.0000
X84.24 S0.9137
X84.34 S0.3451
G0 X88.34 S0.0000
G1 X88.44 S0.2039
X88.64 S0.9333
X88.84 S0.9255
X89.04 S0.7137
X89.14 S0.0118
G0 Y-16.36 S0.0000
G1 X89.04 S0.7725
X88.84 S1.0000
X88.64 S0.8118
X88.54 S0.1686
G0 X84.14 S0.0000
G1 X84.04 S0.1020
X83.84 S0.7569
X83.64 S1.0000
X83.44 S0.6941
X83.34 S0.0078
G0 X73.74 S0.0000
G1 X73.64 S0.2980
X73.24 S1.0000
X73.04 S0.4235
X72.94 S0.0235
G0 X68.74 S0.0000
G1 X68.64 S0.0078
X68.44 S0.3922
X68.24 S0.9843
X68.04 S0.9922
X67.94 S0.3216
G0 X58.14 S0.0000
G1 X58.04 S0.9333
X57.84 S1.0000
X57.64 S0.9176
X57.54 S0.1137
G0 X53.14 S0.0000
G1 X53.04 S0.1647
X52.84 S0.8471
X52.64 S0.9961
X52.44 S0.6392
X52.34 S0.0039
G0 X42.74 S0.0000
G1 X42.64 S0.1451
X42.44 S0.9804
X42.24 S0.9961
X42.04 S0.4039
X41.94 S0.0157
G0 X37.74 S0.0000
G1 X37.64 S0.0078
X37.44 S0.5490
X37.24 S0.9922
X37.04 S1.0000
X36.94 S0.4353
G0 X27.34 S0.0000
G1 X27.24 S0.0118
X27.04 S0.8588
X26.84 S1.0000
X26.64 S0.8392
X26.54 S0.0941
G0 X22.14 S0.0000
G1 X22.04 S0.0863
X21.84 S0.9176
X21.64 S1.0000
X21.44 S0.8353
X21.34 S0.0078
G0 Y-16.16 S0.0000
G1 X21.44 S0.9333
X21.64 S1.0000
X21.84 S0.9059
X21.94 S0.0039
G0 X26.74 S0.0000
G1 X26.84 S0.0235
X27.04 S0.6941
X27.24 S1.0000
X27.34 S0.9725
G0 X36.94 S0.0000
G1 X37.04 S0.9922
X37.24 S0.9882
X37.34 S0.2353
G0 X42.34 S0.0000
G1 X42.44 S0.3098
X42.84 S1.0000
X42.94 S0.2078
G0 X52.34 S0.0000
G1 X52.44 S0.7922
X52.64 S1.0000
X52.84 S0.9490
X52.94 S0.0118
G0 X57.74 S0.0000
G1 X57.84 S0.0039
X58.04 S0.7412
X58.24 S1.0000
X58.34 S0.6980
G0 X67.74 S0.0000
G1 X67.84 S0.0353
X68.04 S0.9961
X68.24 S1.0000
X68.34 S0.1294
G0 X73.34 S0.0000
G1 X73.44 S0.2471
X73.84 S1.0000
X73.94 S0.3412
G0 X83.34 S0.0000
G1 X83.44 S0.9804
X83.64 S1.0000
X83.84 S0.8118
X83.94 S0.0118
G0 X88.74 S0.0000
G1 X88.84 S0.0314
X89.04 S0.8627
X89.24 S1.0000
X89.34 S0.8078
G0 X89.74 Y-15.96 S0.0000
G1 X89.64 S0.0078
X89.44 S0.6784
X89.24 S0.9961
X89.04 S0.8118
X88.94 S0.0314
G0 X83.54 S0.0000
G1 X83.44 S0.8000
X83.24 S0.9961
X83.04 S0.9922
X82.94 S0.0706
G0 X74.14 S0.0000
G1 X74.04 S0.2275
X73.84 S1.0000
X73.64 S0.9647
X73.54 S0.4235
G0 X68.14 S0.0000
G1 X68.04 S0.1686
X67.84 S0.9569
X67.64 S1.0000
X67.54 S0.0824
G0 X58.74 S0.0000
G1 X58.64 S0.0078
X58.44 S0.6667
X58.24 S1.0000
X58.04 S0.7922
X57.94 S0.0392
G0 X52.74 S0.0000
G1 X52.64 S0.0196
X52.44 S0.7843
X52.24 S1.0000
X52.04 S0.8392
X51.94 S0.0235
G0 X43.14 S0.0000
G1 X43.04 S0.2196
X42.84 S1.0000
X42.64 S0.9647
X42.54 S0.3608
G0 X37.14 S0.0000
G1 X37.04 S0.3451
X36.84 S0.9765
X36.64 S0.9882
X36.54 S0.1373
G0 X27.54 S0.0000
G1 X27.44 S0.5333
X27.24 S1.0000
X27.14 S0.6471
G0 X21.74 S0.0000
G1 X21.64 S0.0627
X21.44 S0.7569
X21.24 S1.0000
X21.04 S0.8353
X20.94 S0.0353
G0 Y-15.76 S0.0000
G1 X21.04 S0.8431
X21.24 S1.0000
X21.44 S0.7647
X21.54 S0.0196
G0 X27.14 S0.0000
G1 X27.24 S0.0196
X27.44 S0.7255
X27.64 S0.9137
X27.74 S0.5725
G0 X36.34 S0.0000
G1 X36.44 S0.1176
X36.64 S0.9608
X36.84 S1.0000
X36.94 S0.3647
G0 X42.74 S0.0000
G1 X42.84 S0.1294
X43.04 S0.9922
X43.24 S0.9804
X43.34 S0.1294
G0 X51.94 S0.0000
G1 X52.04 S0.7882
X52.24 S1.0000
X52.44 S0.8275
X52.54 S0.0039
G0 X58.14 S0.0000
G1 X58.24 S0.0353
X58.44 S0.8314
X58.64 S1.0000
X58.74 S0.7176
G0 X67.34 S0.0000
G1 X67.44 S0.0863
X67.64 S0.9373
X67.84 S0.9843
X67.94 S0.2078
G0 X73.74 S0.0000
G1 X73.84 S0.1647
X74.24 S1.0000
X74.34 S0.3373
G0 X82.94 S0.0000
G1 X83.04 S0.7529
X83.24 S1.0000
X83.44 S0.7843
X83.54 S0.0275
G0 X89.14 S0.0000
G1 X89.24 S0.0078
X89.44 S0.8667
X89.64 S0.9412
X89.74 S0.5176
G0 X89.94 Y-15.56 S0.0000
G1 X89.84 S0.3569
X89.64 S1.0000
X89.44 S0.8706
X89.34 S0.0627
G0 X83.34 S0.0000
G1 X83.24 S0.0039
X83.04 S0.8471
X82.84 S1.0000
X82.74 S0.6627
G0 X74.54 S0.0000
G1 X74.44 S0.3059
X74.24 S1.0000
X74.04 S0.9961
X73.94 S0.5333
G0 X67.74 S0.0000
G1 X67.64 S0.2353
X67.44 S0.9922
X67.24 S1.0000
X67.14 S0.0235
G0 X58.94 S0.0000
G1 X58.84 S0.6824
X58.64 S1.0000
X58.44 S0.8471
X58.34 S0.0157
G0 X52.34 S0.0000
G1 X52.24 S0.0353
X52.04 S0.9412
X51.84 S1.0000
X51.74 S0.3608
G0 X43.54 S0.0000
G1 X43.44 S0.0157
X43.04 S1.0000
X42.94 S0.3804
G0 X36.74 S0.0000
G1 X36.64 S0.3529
X36.44 S0.9922
X36.24 S1.0000
X36.14 S0.0353
G0 X27.94 S0.0000
G1 X27.84 S0.0863
X27.64 S1.0000
X27.44 S0.9294
X27.34 S0.0431
G0 X21.34 S0.0000
G1 X21.24 S0.0078
X21.04 S0.7647
X20.84 S1.0000
X20.64 S0.9843
X20.54 S0.0118
G0 X4.14 Y-15.36 S0.0000
G1 X4.24 S0.1137
X4.44 S0.3647
X4.64 S0.4157
X6.44 S1.0000
X6.64 S0.9961
X6.84 S0.4157
X7.04 S0.3843
X7.24 S0.1137
X7.34 S0.0784
G0 X20.54 S0.0000
G1 X20.64 S0.7216
X20.84 S1.0000
X21.04 S0.8392
X21.14 S0.0157
G0 X27.54 S0.0000
G1 X27.64 S0.1176
X27.84 S0.9176
X28.04 S1.0000
X28.14 S0.1922
G0 X35.94 S0.0000
G1 X36.04 S0.0275
X36.24 S0.9686
X36.44 S0.9569
X36.54 S0.4824
G0 X43.14 S0.0000
G1 X43.24 S0.4118
X43.44 S0.7490
X43.64 S0.8863
X43.74 S0.0039
G0 X51.54 S0.0000
G1 X51.64 S0.3412
X51.84 S1.0000
X52.04 S0.8745
X52.14 S0.0471
G0 X58.54 S0.0000
G1 X58.64 S0.2118
X58.84 S0.9608
X59.04 S1.0000
X59.14 S0.2510
G0 X66.94 S0.0000
G1 X67.04 S0.0039
X67.24 S1.0000
X67.44 S0.9961
X67.64 S0.4078
X67.74 S0.0039
G0 X74.14 S0.0000
G1 X74.24 S0.4706
X74.44 S1.0000
X74.64 S0.9412
X74.74 S0.0784
G0 X82.54 S0.0000
G1 X82.64 S0.6824
X82.84 S1.0000
X83.04 S0.8196
X83.14 S0.0039
G0 X89.54 S0.0000
G1 X89.64 S0.0667
X89.84 S0.7686
X90.04 S0.9647
X90.14 S0.2902
G0 X103.34 S0.0000
G1 X103.44 S0.0902
X103.64 S0.1137
X104.04 S0.4157
X105.84 S1.0000
X106.04 S0.8392
X106.44 S0.4157
X106.64 S0.1137
X106.74 S0.0235
G0 X107.14 Y-15.16 S0.0000
G1 X107.04 S0.6314
X106.84 S0.8471
X106.64 S0.9176
X103.44 S1.0000
X103.24 S0.9804
X103.04 S0.8980
X102.84 S0.7333
X102.74 S0.5176
G0 X90.14 S0.0000
G1 X90.04 S0.9451
X89.84 S1.0000
X89.74 S0.2510
G0 X82.94 S0.0000
G1 X82.84 S0.1569
X82.64 S0.9569
X82.44 S0.9922
X82.34 S0.3412
G0 X74.74 S0.0000
G1 X74.64 S0.7765
X74.44 S1.0000
X74.24 S0.8627
X74.14 S0.0078
G0 X67.54 S0.0000
G1 X67.44 S0.0157
X67.24 S0.5922
X67.04 S1.0000
X66.94 S0.7490
G0 X59.34 S0.0000
G1 X59.24 S0.2118
X59.04 S0.9882
X58.84 S0.9961
X58.74 S0.1765
G0 X51.94 S0.0000
G1 X51.84 S0.1922
X51.64 S0.9922
X51.44 S0.9765
X51.34 S0.1176
G0 X43.74 S0.0000
G1 X43.64 S0.6353
X43.44 S0.9686
X43.24 S0.7922
X43.14 S0.0196
G0 X36.54 S0.0000
G1 X36.44 S0.0235
X36.24 S0.6431
X36.04 S1.0000
X35.94 S0.8157
G0 X28.34 S0.0000
G1 X28.24 S0.1686
X28.04 S0.9725
X27.84 S0.9804
X27.74 S0.1294
G0 X20.94 S0.0000
G1 X20.84 S0.1647
X20.64 S0.9922
X20.44 S1.0000
X20.34 S0.5333
G0 X7.94 S0.0000
G1 X7.84 S0.4588
X7.64 S0.7020
X7.44 S0.8980
X7.24 S0.9686
X4.04 S1.0000
X3.84 S0.8980
X3.64 S0.6784
X3.54 S0.1765
G0 X2.94 Y-14.96 S0.0000
G1 X3.04 S0.0667
X3.24 S0.4941
X4.04 S1.0000
X4.24 S0.9961
X4.44 S0.9608
X4.64 S0.9294
X4.84 S0.7412
X6.44 S0.6824
X6.64 S0.7020
X6.84 S0.9255
X7.04 S0.9294
X7.44 S0.9961
X8.44 S1.0000
X8.64 S0.8863
X8.84 S0.1490
X8.94 S0.0235
G0 X20.14 S0.0000
G1 X20.24 S0.1137
X20.44 S0.9529
X20.64 S0.9922
X20.74 S0.4549
G0 X27.94 S0.0000
G1 X28.04 S0.3686
X28.24 S0.9882
X28.44 S0.9020
X28.54 S0.0157
G0 X35.74 S0.0000
G1 X35.84 S0.4118
X36.04 S1.0000
X36.24 S0.9451
X36.34 S0.0902
G0 X43.34 S0.0000
G1 X43.44 S0.0196
X43.84 S0.9373
X43.94 S0.1686
G0 X51.14 S0.0000
G1 X51.24 S0.0039
X51.64 S1.0000
X51.74 S0.3686
G0 X58.94 S0.0000
G1 X59.04 S0.5059
X59.44 S1.0000
X59.54 S0.0431
G0 X66.74 S0.0000
G1 X66.84 S0.4824
X67.04 S1.0000
X67.14 S0.7529
G0 X74.34 S0.0000
G1 X74.44 S0.0353
X74.64 S0.8941
X74.84 S1.0000
X74.94 S0.7294
G0 X82.14 S0.0000
G1 X82.24 S0.1059
X82.44 S1.0000
X82.64 S0.9490
X82.74 S0.2314
G0 X89.94 S0.0000
G1 X90.04 S0.2784
X90.24 S0.9843
X90.44 S0.9922
X90.54 S0.0314
G0 X101.74 S0.0000
G1 X101.84 S0.0392
X102.04 S0.1765
X102.24 S0.6588
X103.24 S1.0000
X103.64 S0.9961
X103.84 S0.9294
X104.04 S0.9333
X105.84 S0.6824
X106.04 S0.8157
X106.24 S0.9255
X106.44 S0.9373
X106.64 S0.9961
X107.44 S1.0000
X107.64 S0.8863
X107.74 S0.0196
G0 X107.94 Y-14.76 S0.0000
G1 X107.84 S0.3686
X107.64 S0.9569
X107.24 S1.0000
X107.04 S0.9608
X106.84 S0.8902
X106.64 S0.5804
X106.44 S0.2157
X106.24 S0.0471
X106.04 S0.0196
X105.94 S0.0118
G0 X103.94 S0.0000
G1 X103.84 S0.0196
X103.64 S0.0235
X103.44 S0.2118
X103.24 S0.3647
X103.04 S0.5882
X102.84 S0.8902
X102.64 S0.9333
X102.24 S0.9961
X101.84 S1.0000
X101.64 S0.9686
X101.44 S0.4863
X101.34 S0.0275
G0 X90.74 S0.0000
G1 X90.64 S0.0118
X90.44 S0.7529
X90.24 S1.0000
X90.04 S0.6275
X89.94 S0.0118
G0 X82.74 S0.0000
G1 X82.64 S0.0039
X82.44 S0.4941
X82.24 S0.9961
X82.04 S0.9647
X81.94 S0.0431
G0 X75.14 S0.0000
G1 X75.04 S0.3137
X74.84 S0.9765
X74.64 S0.9647
X74.54 S0.2431
G0 X67.14 S0.0000
G1 X67.04 S0.0431
X66.84 S0.9765
X66.64 S1.0000
X66.54 S0.0471
G0 X59.74 S0.0000
G1 X59.64 S0.0039
X59.44 S0.6941
X59.24 S0.9843
X59.04 S0.6863
X58.94 S0.0039
G0 X51.74 S0.0000
G1 X51.64 S0.0078
X51.44 S0.6314
X51.24 S1.0000
X51.04 S0.8039
X50.94 S0.0078
G0 X44.14 S0.0000
G1 X44.04 S0.2471
X43.84 S1.0000
X43.64 S0.9373
X43.54 S0.1569
G0 X36.14 S0.0000
G1 X36.04 S0.0706
X35.84 S0.9020
X35.64 S1.0000
X35.54 S0.4314
G0 X28.54 S0.0000
G1 X28.44 S0.8706
X28.24 S1.0000
X28.14 S0.4902
G0 X20.74 S0.0000
G1 X20.64 S0.0039
X20.44 S0.7294
X20.24 S0.9333
X20.04 S0.9373
X19.94 S0.0235
G0 X9.34 S0.0000
G1 X9.24 S0.0549
X9.04 S0.4510
X8.84 S0.8039
X8.24 S1.0000
X8.04 S0.9961
X7.84 S0.9490
X7.64 S0.8471
X7.44 S0.6000
X7.24 S0.3294
X7.04 S0.2039
X6.84 S0.0353
X6.64 S0.0196
X6.54 S0.0039
G0 X4.74 S0.0000
G1 X4.64 S0.0039
X4.44 S0.0196
X4.24 S0.1020
X4.04 S0.2039
X3.84 S0.5725
X3.64 S0.8549
X3.44 S0.9725
X3.04 S1.0000
X2.84 S0.9882
X2.74 S0.4078
G0 X2.34 Y-14.56 S0.0000
G1 X2.44 S0.2235
X2.64 S0.9216
X3.04 S1.0000
X3.24 S0.9333
X3.44 S0.3804
X3.64 S0.1137
X3.74 S0.0157
G0 X7.74 S0.0000
G1 X7.84 S0.0157
X8.04 S0.0745
X8.24 S0.1804
X8.44 S0.4902
X8.64 S0.8157
X9.24 S1.0000
X9.44 S0.9765
X9.64 S0.8196
X9.74 S0.5686
G0 X19.74 S0.0000
G1 X19.84 S0.0039
X20.04 S0.8392
X20.24 S1.0000
X20.44 S0.8078
X20.54 S0.0314
G0 X28.14 S0.0000
G1 X28.24 S0.0235
X28.44 S0.6941
X28.64 S1.0000
X28.74 S0.5569
G0 X35.34 S0.0000
G1 X35.44 S0.1451
X35.64 S0.9725
X35.84 S0.9961
X35.94 S0.2902
G0 X43.74 S0.0000
G1 X43.84 S0.2431
X44.04 S1.0000
X44.24 S0.9843
X44.34 S0.0392
G0 X50.94 S0.0000
G1 X51.04 S0.7922
X51.24 S1.0000
X51.44 S0.6706
X51.54 S0.0118
G0 X59.14 S0.0000
G1 X59.24 S0.0353
X59.44 S0.8549
X59.64 S1.0000
X59.74 S0.3725
G0 X66.34 S0.0000
G1 X66.44 S0.0471
X66.64 S0.9529
X66.84 S0.9765
X66.94 S0.2196
G0 X74.74 S0.0000
G1 X74.84 S0.5765
X75.04 S1.0000
X75.24 S0.9725
X75.34 S0.0510
G0 X81.94 S0.0000
G1 X82.04 S0.7529
X82.24 S1.0000
X82.44 S0.8157
X82.54 S0.0118
G0 X90.14 S0.0000
G1 X90.24 S0.0118
X90.44 S0.6471
X90.64 S1.0000
X90.74 S0.7686
G0 X100.94 S0.0000
G1 X101.04 S0.1294
X101.24 S0.7490
X101.44 S0.9451
X102.04 S1.0000
X102.24 S0.8980
X102.44 S0.4667
X102.64 S0.2627
X102.84 S0.0549
X102.94 S0.0196
G0 X106.94 S0.0000
G1 X107.04 S0.0196
X107.24 S0.0902
X107.44 S0.3686
X107.64 S0.8824
X108.04 S1.0000
X108.14 S0.6039
G0 X108.54 Y-14.36 S0.0000
G1 X108.44 S0.0941
X108.04 S1.0000
X107.84 S0.9020
X107.64 S0.4353
X107.54 S0.0078
G0 X101.94 S0.0000
G1 X101.84 S0.0706
X101.64 S0.5922
X101.44 S0.8824
X101.24 S0.9961
X100.84 S1.0000
X100.64 S0.9294
X100.44 S0.2431
X100.34 S0.0039
G0 X90.94 S0.0000
G1 X90.84 S0.0784
X90.64 S1.0000
X90.44 S0.9725
X90.34 S0.0824
G0 X82.34 S0.0000
G1 X82.24 S0.0588
X82.04 S0.9373
X81.84 S1.0000
X81.74 S0.4980
G0 X75.34 S0.0000
G1 X75.04 S1.0000
X74.94 S0.8275
G0 X66.94 S0.0000
G1 X66.84 S0.0039
X66.64 S0.5843
X66.44 S1.0000
X66.24 S0.7176
X66.14 S0.0118
G0 X59.94 S0.0000
G1 X59.84 S0.2275
X59.64 S1.0000
X59.44 S0.9608
X59.34 S0.1451
G0 X51.34 S0.0000
G1 X51.24 S0.0824
X51.04 S0.9765
X50.84 S1.0000
X50.74 S0.3216
G0 X44.34 S0.0000
G1 X44.24 S0.9451
X44.04 S1.0000
X43.94 S0.5176
G0 X35.74 S0.0000
G1 X35.64 S0.7020
X35.44 S1.0000
X35.24 S0.7608
X35.14 S0.0078
G0 X28.94 S0.0000
G1 X28.84 S0.1686
X28.64 S1.0000
X28.44 S0.9725
X28.34 S0.0588
G0 X20.34 S0.0000
G1 X20.24 S0.1294
X20.04 S0.9765
X19.84 S1.0000
X19.74 S0.4235
G0 X10.14 S0.0000
G1 X10.04 S0.1725
X9.84 S0.8000
X9.44 S1.0000
X9.24 S0.9961
X9.04 S0.9333
X8.84 S0.6863
X8.74 S0.0902
G0 X2.94 S0.0000
G1 X2.84 S0.3216
X2.64 S0.9333
X2.24 S1.0000
X2.14 S0.1843
G0 X1.94 Y-14.16 S0.0000
G1 X2.04 S0.1216
X2.24 S0.9843
X2.44 S0.9922
X2.64 S0.7176
X2.74 S0.0784
G0 X8.94 S0.0000
G1 X9.04 S0.0039
X9.24 S0.0549
X9.44 S0.2706
X9.64 S0.7255
X9.84 S0.9882
X10.24 S1.0000
X10.44 S0.6157
X10.54 S0.1882
G0 X19.54 S0.0000
G1 X19.64 S0.0039
X19.84 S0.9216
X20.04 S1.0000
X20.14 S0.3843
G0 X28.54 S0.0000
G1 X28.64 S0.3216
X28.84 S0.9961
X29.04 S0.9922
X29.14 S0.1765
G0 X35.14 S0.0000
G1 X35.24 S0.8431
X35.44 S1.0000
X35.64 S0.6941
X35.74 S0.0157
G0 X43.94 S0.0000
G1 X44.04 S0.0196
X44.24 S0.7686
X44.44 S1.0000
X44.54 S0.6431
G0 X50.54 S0.0000
G1 X50.64 S0.0196
X50.84 S0.9569
X51.04 S0.9961
X51.14 S0.2941
G0 X59.54 S0.0000
G1 X59.64 S0.2902
X59.84 S0.9804
X60.04 S1.0000
X60.14 S0.0157
G0 X66.14 S0.0000
G1 X66.24 S0.7451
X66.44 S1.0000
X66.64 S0.8784
X66.74 S0.0078
G0 X74.94 S0.0000
G1 X75.04 S0.0510
X75.24 S0.9059
X75.44 S1.0000
X75.54 S0.3686
G0 X81.54 S0.0000
G1 X81.64 S0.2588
X81.84 S0.9922
X82.04 S0.9843
X82.14 S0.1961
G0 X90.54 S0.0000
G1 X90.64 S0.3059
X90.84 S0.9647
X91.04 S0.9529
X91.14 S0.0824
G0 X100.14 S0.0000
G1 X100.24 S0.2706
X100.44 S0.9098
X100.84 S1.0000
X101.04 S0.9843
X101.24 S0.7490
X101.44 S0.3098
X101.54 S0.0196
G0 X107.94 S0.0000
G1 X108.04 S0.0353
X108.24 S0.8824
X108.44 S1.0000
X108.64 S0.9765
X108.74 S0.0980
G0 X108.94 Y-13.96 S0.0000
G1 X108.84 S0.1137
X108.64 S0.9804
X108.44 S1.0000
X108.24 S0.4863
X108.14 S0.0039
G0 X100.94 S0.0000
G1 X100.84 S0.0275
X100.64 S0.6392
X100.44 S0.9961
X100.04 S1.0000
X99.84 S0.9098
X99.74 S0.4196
G0 X91.14 S0.0000
G1 X91.04 S0.7804
X90.84 S1.0000
X90.64 S0.6863
X90.54 S0.0078
G0 X81.94 S0.0000
G1 X81.84 S0.5451
X81.54 S1.0000
G0 X75.74 S0.0000
G1 X75.64 S0.2745
X75.44 S0.9961
X75.24 S0.9529
X75.14 S0.0667
G0 X66.54 S0.0000
G1 X66.44 S0.0431
X66.24 S0.8902
X66.04 S1.0000
X65.94 S0.7804
G0 X60.34 S0.0000
G1 X60.24 S0.0431
X60.04 S0.9176
X59.84 S1.0000
X59.64 S0.5176
X59.54 S0.0039
G0 X50.94 S0.0000
G1 X50.84 S0.3451
X50.64 S1.0000
X50.54 S0.9647
G0 X44.74 S0.0000
G1 X44.64 S0.4314
X44.44 S1.0000
X44.24 S0.8784
X44.14 S0.0353
G0 X35.54 S0.0000
G1 X35.44 S0.0824
X35.24 S0.9294
X35.04 S1.0000
X34.94 S0.4471
G0 X29.34 S0.0000
G1 X29.24 S0.2000
X29.04 S0.9922
X28.84 S0.9961
X28.74 S0.3843
G0 X19.94 S0.0000
G1 X19.84 S0.4824
X19.64 S1.0000
X19.54 S0.8863
G0 X10.94 S0.0000
G1 X10.84 S0.0980
X10.64 S0.8824
X10.24 S1.0000
X10.04 S0.9882
X9.84 S0.5529
X9.74 S0.0314
G0 X2.34 S0.0000
G1 X2.24 S0.4196
X2.04 S1.0000
X1.94 S0.9412
G0 X1.54 Y-13.76 S0.0000
G1 X1.64 S0.0314
X1.84 S0.8471
X2.04 S0.9961
X2.14 S0.4863
G0 X10.14 S0.0000
G1 X10.24 S0.0157
X10.44 S0.8118
X10.64 S0.9412
X10.84 S0.9725
X11.04 S1.0000
X11.24 S0.5529
X11.34 S0.1216
G0 X19.14 S0.0000
G1 X19.24 S0.0118
X19.44 S0.8039
X19.64 S1.0000
X19.74 S0.7569
G0 X28.94 S0.0000
G1 X29.04 S0.6627
X29.24 S1.0000
X29.44 S0.7725
X29.54 S0.0118
G0 X34.74 S0.0000
G1 X34.84 S0.2902
X35.04 S0.9961
X35.24 S0.9529
X35.34 S0.1529
G0 X44.34 S0.0000
G1 X44.44 S0.1843
X44.64 S0.9686
X44.84 S1.0000
X44.94 S0.2039
G0 X50.14 S0.0000
G1 X50.24 S0.0196
X50.44 S0.7412
X50.64 S1.0000
X50.84 S0.7176
X50.94 S0.0118
G0 X59.74 S0.0000
G1 X59.84 S0.0039
X60.04 S0.6824
X60.24 S1.0000
X60.44 S0.9922
X60.54 S0.0510
G0 X65.54 S0.0000
G1 X65.64 S0.0078
X65.84 S0.6588
X66.04 S0.9882
X66.24 S0.9294
X66.34 S0.0706
G0 X75.34 S0.0000
G1 X75.44 S0.2431
X75.84 S0.9922
X75.94 S0.0667
G0 X81.14 S0.0000
G1 X81.24 S0.0118
X81.44 S0.7059
X81.64 S1.0000
X81.74 S0.6235
G0 X90.94 S0.0000
G1 X91.04 S0.7373
X91.24 S1.0000
X91.34 S0.7098
G0 X99.34 S0.0000
G1 X99.44 S0.2118
X99.64 S0.8863
X100.04 S1.0000
X100.24 S0.9216
X100.44 S0.7451
X100.54 S0.0863
G0 X108.54 S0.0000
G1 X108.64 S0.2549
X108.84 S0.9843
X109.04 S1.0000
X109.14 S0.1020
G0 X109.34 Y-13.56 S0.0000
G1 X109.24 S0.1216
X109.04 S0.9725
X108.84 S0.9961
X108.74 S0.3137
G0 X100.14 S0.0000
G1 X100.04 S0.0667
X99.84 S0.4784
X99.64 S0.9961
X99.24 S1.0000
X99.14 S0.8784
G0 X91.54 S0.0000
G1 X91.44 S0.7686
X91.24 S1.0000
X91.04 S0.8118
X90.94 S0.0275
G0 X81.74 S0.0000
G1 X81.64 S0.0078
X81.44 S0.6235
X81.24 S1.0000
X81.04 S0.7294
X80.94 S0.2824
G0 X76.14 S0.0000
G1 X76.04 S0.7176
X75.84 S0.9412
X75.64 S0.9922
X75.54 S0.2549
G0 X66.14 S0.0000
G1 X66.04 S0.1529
X65.84 S0.9490
X65.64 S1.0000
X65.54 S0.7529
G0 X60.54 S0.0000
G1 X60.44 S0.9255
X60.24 S1.0000
X60.04 S0.6157
X59.94 S0.0039
G0 X50.74 S0.0000
G1 X50.64 S0.0235
X50.44 S0.7333
X50.24 S1.0000
X50.04 S0.7882
X49.94 S0.4784
G0 X45.14 S0.0000
G1 X45.04 S0.6235
X44.84 S1.0000
X44.64 S0.9843
X44.54 S0.1843
G0 X35.14 S0.0000
G1 X35.04 S0.1373
X34.84 S0.9647
X34.64 S1.0000
X34.54 S0.5373
G0 X29.54 S0.0000
G1 X29.44 S0.8980
X29.24 S1.0000
X29.04 S0.7804
X28.94 S0.0275
G0 X19.74 S0.0000
G1 X19.64 S0.0078
X19.44 S0.8392
X19.24 S1.0000
X19.14 S0.8706
G0 X11.54 S0.0000
G1 X11.44 S0.5059
X11.24 S0.9882
X11.04 S0.9843
X10.84 S0.9882
X10.64 S0.6078
X10.54 S0.1059
G0 X2.14 S0.0000
G1 X2.04 S0.0039
X1.84 S0.4118
X1.64 S1.0000
X1.54 S0.8863
G0 X1.34 Y-13.36 S0.0000
G1 X1.44 S0.5647
X1.64 S1.0000
X1.74 S0.7529
G0 X10.94 S0.0000
G1 X11.04 S0.2314
X11.24 S0.9059
X11.44 S1.0000
X11.64 S0.9961
X11.84 S1.0000
X11.94 S0.0275
G0 X18.74 S0.0000
G1 X18.84 S0.0078
X19.04 S0.8627
X19.24 S1.0000
X19.44 S0.9608
X19.54 S0.0549
G0 X29.14 S0.0000
G1 X29.24 S0.0196
X29.44 S0.7961
X29.64 S1.0000
X29.84 S0.8863
X29.94 S0.0196
G0 X34.14 S0.0000
G1 X34.24 S0.0039
X34.44 S0.8118
X34.64 S1.0000
X34.84 S0.9647
X34.94 S0.3294
G0 X44.74 S0.0000
G1 X44.84 S0.2157
X45.04 S0.9765
X45.24 S1.0000
X45.44 S0.9020
X45.54 S0.0431
G0 X49.74 S0.0000
G1 X49.84 S0.3647
X50.04 S1.0000
X50.24 S0.9961
X50.44 S0.7490
X50.54 S0.0118
G0 X60.14 S0.0000
G1 X60.24 S0.0235
X60.44 S0.7725
X60.64 S1.0000
X60.84 S0.9216
X60.94 S0.1608
G0 X65.14 S0.0000
G1 X65.24 S0.0039
X65.44 S0.4431
X65.64 S0.9961
X65.84 S0.9882
X65.94 S0.3255
G0 X75.74 S0.0000
G1 X75.84 S0.3020
X76.04 S0.9961
X76.24 S1.0000
X76.44 S0.6863
X76.54 S0.0157
G0 X80.74 S0.0000
G1 X80.84 S0.2863
X81.24 S1.0000
X81.34 S0.6039
G0 X91.14 S0.0000
G1 X91.24 S0.1176
X91.44 S0.9490
X91.64 S1.0000
X91.74 S0.3333
G0 X98.74 S0.0000
G1 X98.84 S0.1647
X99.44 S1.0000
X99.64 S0.8863
X99.74 S0.1098
G0 X108.74 S0.0000
G1 X108.84 S0.0118
X109.04 S0.7490
X109.24 S0.9961
X109.34 S0.6118
G0 X109.54 Y-13.16 S0.0000
G1 X109.44 S0.2157
X109.24 S1.0000
X109.04 S0.9922
X108.94 S0.1137
G0 X99.34 S0.0000
G1 X99.24 S0.3451
X99.04 S0.8706
X98.64 S1.0000
X98.44 S0.6431
X98.34 S0.0510
G0 X91.94 S0.0000
G1 X91.84 S0.4392
X91.64 S1.0000
X91.44 S0.9451
X91.34 S0.1373
G0 X81.14 S0.0000
G1 X81.04 S0.6392
X80.84 S0.9725
X80.64 S1.0000
X80.44 S0.6118
X80.34 S0.0549
G0 X76.74 S0.0000
G1 X76.64 S0.0667
X76.44 S0.9882
X76.24 S1.0000
X76.04 S0.8980
X75.94 S0.3255
G0 X65.74 S0.0000
G1 X65.64 S0.2510
X65.44 S0.9216
X65.04 S1.0000
X64.94 S0.1137
G0 X61.34 S0.0000
G1 X61.24 S0.0549
X61.04 S0.6588
X60.64 S1.0000
X60.44 S0.6667
X60.34 S0.0039
G0 X50.34 S0.0000
G1 X50.24 S0.0039
X50.04 S0.7137
X49.84 S0.9843
X49.64 S1.0000
X49.54 S0.4627
G0 X45.74 S0.0000
G1 X45.64 S0.2157
X45.24 S1.0000
X45.04 S0.8471
X44.94 S0.2196
G0 X34.74 S0.0000
G1 X34.64 S0.2196
X34.44 S0.9725
X34.04 S1.0000
X33.94 S0.0980
G0 X30.14 S0.0000
G1 X30.04 S0.4000
X29.84 S1.0000
X29.64 S0.9961
X29.44 S0.7059
X29.34 S0.0431
G0 X19.34 S0.0000
G1 X19.24 S0.0392
X19.04 S0.8471
X18.84 S1.0000
X18.74 S0.8000
G0 X12.34 S0.0000
G1 X12.24 S0.0235
X12.04 S0.5686
X11.84 S1.0000
X11.64 S0.9922
X11.44 S0.9176
X11.34 S0.4196
G0 X1.74 S0.0000
G1 X1.64 S0.0510
X1.44 S0.8902
X1.24 S1.0000
X1.14 S0.4235
G0 X0.94 Y-12.96 S0.0000
G1 X1.04 S0.0196
X1.24 S0.9059
X1.44 S1.0000
X1.54 S0.4157
G0 X11.54 S0.0000
G1 X11.64 S0.1176
X11.84 S0.5765
X12.04 S0.9451
X12.24 S1.0000
X12.44 S0.8431
X12.54 S0.0588
G0 X18.54 S0.0000
G1 X18.64 S0.8863
X18.84 S0.9765
X19.04 S0.9569
X19.14 S0.1529
G0 X29.74 S0.0000
G1 X29.84 S0.5098
X30.24 S1.0000
X30.44 S0.8235
X30.54 S0.0039
G0 X33.74 S0.0000
G1 X33.84 S0.3843
X34.04 S0.9804
X34.24 S1.0000
X34.44 S0.8471
X34.54 S0.1725
G0 X45.14 S0.0000
G1 X45.24 S0.0745
X45.44 S0.8471
X45.64 S1.0000
X45.84 S0.9804
X45.94 S0.6314
G0 X49.14 S0.0000
G1 X49.24 S0.1216
X49.44 S0.8275
X49.64 S1.0000
X49.84 S0.9922
X50.04 S0.3490
X50.14 S0.0157
G0 X60.54 S0.0000
G1 X60.64 S0.0157
X60.84 S0.6118
X61.04 S0.9961
X61.24 S1.0000
X61.44 S0.9098
X61.54 S0.1961
G0 X64.74 S0.0000
G1 X64.84 S0.5686
X65.24 S1.0000
X65.44 S0.9608
X65.54 S0.1098
G0 X76.14 S0.0000
G1 X76.24 S0.1137
X76.44 S0.9137
X76.64 S1.0000
X76.84 S0.9569
X76.94 S0.2824
G0 X80.14 S0.0000
G1 X80.24 S0.0078
X80.44 S0.9294
X80.64 S1.0000
X80.84 S0.9451
X81.04 S0.4627
X81.14 S0.0039
G0 X91.54 S0.0000
G1 X91.64 S0.1333
X91.84 S0.9333
X92.04 S0.8431
X92.14 S0.7686
G0 X98.14 S0.0000
G1 X98.24 S0.0353
X98.44 S0.8941
X98.64 S1.0000
X98.84 S0.9686
X99.04 S0.5529
X99.14 S0.0471
G0 X108.94 S0.0000
G1 X109.04 S0.0039
X109.24 S0.3529
X109.44 S0.8627
X109.54 S0.9608
G0 X109.74 Y-12.76 S0.0000
G1 X109.64 S0.8431
X109.44 S1.0000
X109.24 S0.8235
X109.14 S0.0118
G0 X98.94 S0.0000
G1 X98.84 S0.0078
X98.64 S0.3412
X98.44 S0.8706
X98.04 S1.0000
X97.94 S0.2235
G0 X92.54 S0.0000
G1 X92.44 S0.0745
X92.24 S1.0000
X92.04 S0.9255
X91.84 S0.9098
X91.74 S0.1255
G0 X80.74 S0.0000
G1 X80.64 S0.2667
X80.44 S0.8784
X80.04 S1.0000
X79.84 S0.6353
X79.64 S0.0745
X79.54 S0.0039
G0 X77.54 S0.0000
G1 X77.44 S0.0745
X77.24 S0.4078
X77.04 S0.9608
X76.84 S1.0000
X76.64 S0.9961
X76.44 S0.7373
X76.34 S0.0745
G0 X65.34 S0.0000
G1 X65.24 S0.0196
X65.04 S0.5882
X64.84 S0.9922
X64.44 S1.0000
X64.24 S0.4157
X64.14 S0.0706
G0 X62.14 S0.0000
G1 X62.04 S0.0039
X61.84 S0.0941
X61.64 S0.7294
X61.44 S1.0000
X61.24 S0.9373
X61.04 S0.8784
X60.84 S0.3569
X60.74 S0.0039
G0 X49.94 S0.0000
G1 X49.84 S0.0039
X49.64 S0.2353
X49.44 S0.9176
X49.04 S1.0000
X48.84 S0.8235
X48.64 S0.1059
X48.54 S0.0157
G0 X46.54 S0.0000
G1 X46.44 S0.0667
X46.24 S0.3608
X45.84 S1.0000
X45.64 S0.9843
X45.44 S0.6627
X45.34 S0.0431
G0 X34.34 S0.0000
G1 X34.24 S0.0392
X34.04 S0.6863
X33.84 S1.0000
X33.64 S0.9608
X33.44 S1.0000
X33.24 S0.4196
X33.14 S0.0471
G0 X31.14 S0.0000
G1 X31.04 S0.0157
X30.84 S0.3373
X30.64 S0.9529
X30.24 S1.0000
X30.04 S0.9176
X29.94 S0.2941
G0 X18.94 S0.0000
G1 X18.84 S0.0471
X18.64 S0.8157
X18.44 S1.0000
X18.24 S0.8275
X18.14 S0.1412
G0 X12.94 S0.0000
G1 X12.84 S0.0118
X12.64 S0.4784
X12.24 S1.0000
X12.04 S0.8980
X11.94 S0.2784
G0 X1.54 S0.0000
G1 X1.44 S0.0157
X1.24 S0.8353
X1.04 S1.0000
X0.94 S0.9961
G0 X0.74 Y-12.56 S0.0000
G1 X0.84 S0.0275
X1.24 S1.0000
X1.34 S0.3922
G0 X12.14 S0.0000
G1 X12.24 S0.0510
X12.44 S0.7686
X12.84 S1.0000
X13.04 S0.8627
X13.14 S0.0118
G0 X17.94 S0.0000
G1 X18.04 S0.4431
X18.24 S0.9843
X18.44 S0.9961
X18.64 S0.8588
X18.74 S0.0706
G0 X30.14 S0.0000
G1 X30.24 S0.0196
X30.44 S0.6745
X30.64 S0.9922
X31.04 S1.0000
X31.24 S0.9529
X31.44 S0.4863
X31.64 S0.2275
X31.74 S0.0784
G0 X32.54 S0.0000
G1 X32.64 S0.0784
X32.84 S0.3647
X33.04 S0.8471
X33.24 S0.9765
X33.44 S1.0000
X33.64 S0.9647
X33.84 S0.9216
X34.04 S0.4196
X34.14 S0.0039
G0 X45.54 S0.0000
G1 X45.64 S0.0039
X45.84 S0.2745
X46.04 S0.9059
X46.44 S1.0000
X46.64 S0.9961
X46.84 S0.6275
X47.04 S0.2627
X47.14 S0.0784
G0 X47.94 S0.0000
G1 X48.04 S0.0431
X48.24 S0.0784
X48.44 S0.4745
X48.64 S0.9529
X49.04 S1.0000
X49.24 S0.9922
X49.44 S0.8196
X49.54 S0.0353
G0 X61.14 S0.0000
G1 X61.24 S0.0784
X61.44 S0.6549
X61.64 S0.9882
X62.04 S1.0000
X62.24 S0.9451
X62.44 S0.4863
X62.64 S0.1098
X62.74 S0.0314
G0 X63.54 S0.0000
G1 X63.64 S0.0784
X63.84 S0.3529
X64.04 S0.6980
X64.24 S0.9961
X64.64 S1.0000
X64.84 S0.9137
X64.94 S0.1922
G0 X76.54 S0.0000
G1 X76.64 S0.0078
X76.84 S0.3725
X77.04 S0.9373
X77.64 S1.0000
X77.84 S0.7725
X78.04 S0.2549
X78.14 S0.0784
G0 X78.94 S0.0000
G1 X79.04 S0.0275
X79.24 S0.3137
X79.44 S0.5098
X79.64 S0.9490
X80.04 S1.0000
X80.24 S0.9882
X80.44 S0.6824
X80.54 S0.0157
G0 X91.94 S0.0000
G1 X92.04 S0.0196
X92.24 S0.7490
X92.64 S1.0000
X92.74 S0.3686
G0 X97.54 S0.0000
G1 X97.64 S0.0039
X97.84 S0.6235
X98.04 S0.9922
X98.24 S0.9961
X98.44 S0.6588
X98.54 S0.0157
G0 X109.34 S0.0000
G1 X109.44 S0.4824
X109.64 S1.0000
X109.84 S0.9569
X109.94 S0.0157
G0 Y-12.36 S0.0000
G1 X109.84 S0.2235
X109.64 S1.0000
X109.44 S0.9804
X109.34 S0.1255
G0 X98.34 S0.0000
G1 X98.24 S0.0196
X98.04 S0.3098
X97.84 S0.9569
X97.64 S1.0000
X97.44 S0.9176
X97.34 S0.2824
G0 X92.94 S0.0000
G1 X92.84 S0.7294
X92.64 S0.9882
X92.44 S1.0000
X92.24 S0.5373
X92.14 S0.0275
G0 X80.34 S0.0000
G1 X80.24 S0.0078
X80.04 S0.1608
X79.84 S0.7765
X79.04 S1.0000
X78.84 S0.9451
X78.24 S0.9137
X77.44 S1.0000
X77.24 S0.9451
X77.04 S0.5490
X76.94 S0.0745
G0 X64.74 S0.0000
G1 X64.64 S0.0431
X64.44 S0.4157
X64.24 S0.9529
X63.44 S1.0000
X62.84 S0.9137
X62.64 S0.9490
X62.04 S1.0000
X61.84 S0.9961
X61.64 S0.7294
X61.44 S0.3137
X61.34 S0.0078
G0 X49.34 S0.0000
G1 X49.24 S0.0157
X49.04 S0.2431
X48.84 S0.5922
X48.64 S0.9922
X48.04 S1.0000
X47.84 S0.9608
X47.24 S0.9137
X46.44 S1.0000
X46.24 S0.9333
X46.04 S0.4196
X45.94 S0.0588
G0 X33.74 S0.0000
G1 X33.64 S0.0549
X33.44 S0.4157
X33.24 S0.9176
X32.44 S1.0000
X31.84 S0.9137
X31.04 S1.0000
X30.84 S0.9569
X30.64 S0.6314
X30.44 S0.2275
X30.34 S0.0078
G0 X18.54 S0.0000
G1 X18.44 S0.0078
X18.24 S0.6000
X18.04 S0.9529
X17.84 S0.9961
X17.64 S0.8118
X17.54 S0.1020
G0 X13.34 S0.0000
G1 X13.24 S0.1765
X13.04 S0.8627
X12.84 S1.0000
X12.64 S0.9686
X12.44 S0.3686
X12.34 S0.0118
G0 X1.34 S0.0000
G1 X1.24 S0.0157
X1.04 S0.9608
X0.84 S1.0000
X0.74 S0.3451
G0 Y-12.16 S0.0000
G1 X0.84 S0.8196
X1.04 S1.0000
X1.14 S0.5961
G0 X12.74 S0.0000
G1 X12.84 S0.0784
X13.04 S0.8824
X13.44 S1.0000
X13.64 S0.4353
X13.74 S0.0745
G0 X17.14 S0.0000
G1 X17.24 S0.0314
X17.44 S0.4588
X17.84 S1.0000
X18.04 S0.9373
X18.14 S0.3412
G0 X30.94 S0.0000
G1 X31.04 S0.0235
X31.24 S0.5490
X31.44 S0.8510
X31.64 S0.9765
X31.84 S0.9922
X32.44 S1.0000
X32.64 S0.9804
X32.84 S0.9529
X33.04 S0.7686
X33.14 S0.3137
G0 X46.34 S0.0000
G1 X46.44 S0.0078
X46.64 S0.1098
X46.84 S0.7725
X47.04 S0.9412
X47.24 S0.9804
X47.84 S1.0000
X48.04 S0.9922
X48.24 S0.9373
X48.44 S0.8588
X48.64 S0.4863
X48.74 S0.0353
G0 X61.94 S0.0000
G1 X62.04 S0.0392
X62.24 S0.6471
X62.44 S0.8627
X62.64 S0.9804
X62.84 S0.9922
X63.44 S1.0000
X63.64 S0.9843
X63.84 S0.8627
X64.04 S0.7412
X64.24 S0.2039
X64.34 S0.0078
G0 X77.34 S0.0000
G1 X77.44 S0.0118
X77.64 S0.2431
X77.84 S0.8157
X78.04 S0.9255
X78.24 S0.9843
X78.84 S1.0000
X79.04 S0.9922
X79.24 S0.9725
X79.44 S0.8431
X79.64 S0.5176
X79.74 S0.0549
G0 X92.54 S0.0000
G1 X92.64 S0.1765
X92.84 S0.9608
X93.24 S1.0000
X93.44 S0.4667
X93.54 S0.0549
G0 X96.94 S0.0000
G1 X97.04 S0.1020
X97.24 S0.5961
X97.64 S1.0000
X97.84 S0.7412
X97.94 S0.0902
G0 X109.54 S0.0000
G1 X109.64 S0.8196
X109.84 S1.0000
X109.94 S0.6235
G0 X110.14 Y-11.96 S0.0000
G1 X110.04 S0.0627
X109.64 S1.0000
X109.54 S0.3020
G0 X97.74 S0.0000
G1 X97.64 S0.0196
X97.44 S0.4275
X97.24 S0.9569
X97.04 S1.0000
X96.84 S0.9961
X96.64 S0.7333
X96.44 S0.1608
X96.34 S0.0118
G0 X94.14 S0.0000
G1 X93.84 S0.0235
X93.64 S0.5333
X93.44 S0.9529
X93.24 S1.0000
X93.04 S0.9725
X92.84 S0.7961
X92.74 S0.1294
G0 X79.14 S0.0000
G1 X79.04 S0.0745
X78.84 S0.2549
X78.24 S0.3686
X78.04 S0.1333
X77.94 S0.0471
G0 X63.74 S0.0000
G1 X63.64 S0.0431
X63.44 S0.1569
X62.84 S0.3686
X62.64 S0.2510
X62.44 S0.0784
X62.34 S0.0118
G0 X48.34 S0.0000
G1 X48.24 S0.0078
X48.04 S0.0784
X47.84 S0.2824
X47.44 S0.3686
X47.24 S0.3725
X47.04 S0.0863
X46.94 S0.0549
G0 X32.74 S0.0000
G1 X32.64 S0.0588
X32.44 S0.0863
X31.84 S0.3686
X31.64 S0.2039
X31.44 S0.0784
X31.34 S0.0039
G0 X17.94 S0.0000
G1 X17.84 S0.0745
X17.64 S0.6745
X17.44 S0.9922
X17.24 S1.0000
X17.04 S0.9333
X16.84 S0.5765
X16.64 S0.2941
X16.54 S0.0157
G0 X14.34 S0.0000
G1 X14.24 S0.0196
X14.04 S0.0235
X13.84 S0.6627
X13.64 S0.9647
X13.44 S1.0000
X13.24 S0.9922
X13.04 S0.6745
X12.94 S0.0745
G0 X1.14 S0.0000
G1 X1.04 S0.2706
X0.84 S0.9961
X0.64 S1.0000
X0.54 S0.0078
G0 Y-11.76 S0.0000
G1 X0.64 S0.3569
X0.84 S1.0000
X1.04 S0.9686
X1.14 S0.0235
G0 X7.54 S0.0000
G1 X7.64 S0.0078
X7.74 S0.1412
G0 X13.34 S0.0000
G1 X13.44 S0.1255
X13.64 S0.7569
X13.84 S0.9843
X14.04 S0.9569
X14.24 S1.0000
X14.44 S0.9882
X14.64 S0.7451
X14.84 S0.9098
X15.04 S0.5412
X15.14 S0.4392
G0 X15.94 S0.0000
G1 X16.04 S0.5412
X16.24 S0.6667
X16.44 S0.9529
X16.64 S0.9882
X17.24 S1.0000
X17.44 S0.9059
X17.54 S0.0902
G0 X92.94 S0.0000
G1 X93.04 S0.0039
X93.24 S0.2118
X93.44 S0.8706
X94.24 S1.0000
X94.44 S0.9529
X94.64 S0.7490
X94.74 S0.5412
G0 X95.54 S0.0000
G1 X95.64 S0.0078
X95.84 S0.5412
X96.24 S0.9529
X96.44 S0.9765
X97.04 S1.0000
X97.24 S0.7882
X97.34 S0.0431
G0 X109.54 S0.0000
G1 X109.64 S0.1490
X110.04 S1.0000
X110.14 S0.1098
G0 Y-11.56 S0.0000
G1 X110.04 S0.7294
X109.84 S1.0000
X109.74 S0.9098
G0 X96.94 S0.0000
G1 X96.84 S0.1843
X96.64 S0.7647
X96.44 S0.9529
X94.04 S1.0000
X93.84 S0.9647
X93.64 S0.8392
X93.54 S0.4275
G0 X17.14 S0.0000
G1 X17.04 S0.3882
X16.84 S0.8235
X16.64 S0.9412
X16.04 S1.0000
X15.84 S0.9882
X14.24 S1.0000
X14.04 S0.9647
X13.84 S0.7255
X13.74 S0.2353
G0 X7.74 S0.0000
G1 X7.64 S0.6941
X7.54 S0.0667
G0 X1.14 S0.0000
G1 X1.04 S0.0118
X0.84 S0.9059
X0.64 S1.0000
X0.54 S0.7843
G0 Y-11.36 S0.0000
G1 X0.64 S0.7843
X0.84 S1.0000
X0.94 S0.8510
G0 X7.54 S0.0000
G1 X7.64 S0.0667
X7.84 S1.0000
X7.94 S0.1686
G0 X14.14 S0.0000
G1 X14.24 S0.0824
X14.44 S0.3059
X14.64 S0.7333
X14.84 S0.8078
X15.04 S0.9882
X15.24 S0.9922
X15.44 S1.0000
X15.64 S0.9804
X15.84 S0.9961
X16.04 S0.9608
X16.24 S0.9294
X16.44 S0.7922
X16.64 S0.3020
X16.84 S0.1137
X16.94 S0.0078
G0 X93.74 S0.0000
G1 X93.84 S0.0196
X94.04 S0.0824
X94.24 S0.2980
X94.44 S0.7804
X94.64 S0.9020
X94.84 S0.9843
X95.64 S1.0000
X95.84 S0.9843
X96.04 S0.8706
X96.24 S0.6471
X96.44 S0.2941
X96.64 S0.0784
X96.74 S0.0039
G0 X109.74 S0.0000
G1 X109.84 S0.6118
X110.14 S1.0000
G0 Y-11.16 S0.0000
G1 X110.04 S0.9961
X109.84 S1.0000
X109.74 S0.6118
G0 X95.54 S0.0000
G1 X95.44 S0.2745
X94.94 S0.2980
G0 X15.94 S0.0000
G1 X15.84 S0.0157
X15.24 S0.2980
X15.14 S0.0980
G0 X7.94 S0.0000
G1 X7.84 S0.7255
X7.64 S1.0000
X7.54 S0.0196
G0 X0.94 S0.0000
G1 X0.84 S0.1137
X0.44 S1.0000
X0.34 S0.0118
G0 Y-10.96 S0.0000
G1 X0.44 S0.0118
X0.84 S1.0000
X0.94 S0.1529
G0 X7.34 S0.0000
G1 X7.44 S0.0353
G0 X7.74 S0.0000
G1 X7.84 S0.7373
X7.94 S1.0000
G0 X109.74 S0.0000
G1 X109.84 S0.4549
X110.14 S1.0000
G0 Y-10.76 S0.0000
G1 X109.84 S1.0000
X109.74 S0.1098
G0 X8.14 S0.0000
G1 X8.04 S0.0863
X7.84 S1.0000
X7.64 S0.7373
X7.44 S0.5647
X7.34 S0.4431
G0 X0.94 S0.0000
G1 X0.84 S0.0275
X0.64 S0.9922
X0.44 S1.0000
X0.34 S0.1216
G0 Y-10.56 S0.0000
G1 X0.44 S0.1373
X0.64 S1.0000
X0.74 S0.9922
G0 X7.54 S0.0000
G1 X7.64 S0.9804
X7.84 S0.3490
X8.04 S1.0000
X8.14 S0.4118
G0 X109.74 S0.0000
G1 X109.84 S0.1098
X110.14 S1.0000
G0 X110.34 Y-10.36 S0.0000
G1 X110.24 S0.0078
X109.84 S1.0000
X109.74 S0.1098
G0 X8.14 S0.0000
G1 X8.04 S0.9098
X7.84 S1.0000
X7.64 S0.4314
X7.54 S0.5608
G0 X0.74 S0.0000
G1 X0.64 S0.9922
X0.44 S1.0000
X0.34 S0.1373
G0 Y-10.16 S0.0000
G1 X0.44 S0.9176
X0.64 S1.0000
X0.74 S0.8431
G0 X7.54 S0.0000
G1 X7.64 S0.0235
X7.84 S0.8157
X8.04 S1.0000
X8.14 S0.9765
G0 X109.74 S0.0000
G1 X109.84 S0.0314
X110.04 S0.9255
X110.24 S1.0000
X110.34 S0.0863
G0 Y-9.96 S0.0000
G1 X110.24 S0.0863
X110.04 S1.0000
X109.84 S0.9176
X109.74 S0.0275
G0 X8.34 S0.0000
G1 X8.24 S0.3137
X7.84 S1.0000
X7.74 S0.5882
G0 X0.74 S0.0000
G1 X0.64 S0.7412
X0.34 S1.0000
G0 Y-9.76 S0.0000
G1 X0.64 S1.0000
X0.74 S0.7373
G0 X7.74 S0.0000
G1 X7.84 S0.1529
X8.24 S1.0000
X8.34 S0.6510
G0 X109.74 S0.0000
G1 X109.84 S0.0275
X110.04 S0.9176
X110.24 S1.0000
X110.34 S0.0863
G0 Y-9.56 S0.0000
G1 X110.24 S0.0863
X110.04 S1.0000
X109.84 S0.9176
X109.74 S0.0275
G0 X8.54 S0.0000
G1 X8.44 S0.0667
X8.04 S1.0000
X7.94 S0.8980
G0 X0.74 S0.0000
G1 X0.64 S0.7373
X0.34 S1.0000
G0 Y-9.36 S0.0000
G1 X0.44 S0.1373
X0.64 S1.0000
X0.74 S0.9961
G0 X7.94 S0.0000
G1 X8.04 S0.1725
X8.24 S0.9882
X8.44 S1.0000
X8.54 S0.7961
G0 X109.74 S0.0000
G1 X109.84 S0.0275
X110.04 S0.9216
X110.24 S1.0000
X110.34 S0.0863
G0 Y-9.16 S0.0000
G1 X110.24 S0.0118
X110.04 S1.0000
X109.84 S0.9922
X109.74 S0.1059
G0 X8.74 S0.0000
G1 X8.64 S0.1059
X8.44 S0.9765
X8.24 S1.0000
X8.14 S0.1686
G0 X0.74 S0.0000
G1 X0.64 S0.9922
X0.44 S1.0000
X0.34 S0.1373
G0 Y-8.96 S0.0000
G1 X0.44 S0.1373
X0.64 S1.0000
X0.74 S0.9922
G0 X7.54 S0.0000
G1 X7.64 S0.0314
X7.84 S0.3098
X8.04 S0.1922
X8.24 S0.0039
X8.44 S0.7216
X8.64 S1.0000
X8.84 S0.9922
X9.04 S0.1608
X9.14 S0.0157
G0 X109.74 S0.0000
G1 X109.84 S0.1098
X110.14 S1.0000
G0 Y-8.76 S0.0000
G1 X109.84 S1.0000
X109.74 S0.1098
G0 X9.54 S0.0000
G1 X9.44 S0.1373
X9.24 S0.8118
X9.04 S0.8784
X8.84 S0.4510
X8.64 S0.8902
X8.44 S0.8824
X8.24 S0.2745
X8.04 S0.9843
X7.84 S1.0000
X7.64 S0.6510
X7.54 S1.0000
G0 X0.74 S0.0000
G1 X0.64 S0.9922
X0.44 S1.0000
X0.34 S0.1373
G0 Y-8.56 S0.0000
G1 X0.44 S0.1373
X0.64 S1.0000
X0.84 S0.9961
X0.94 S0.0706
G0 X7.34 S0.0000
G1 X7.44 S0.1922
X7.64 S0.3882
X7.84 S0.0824
X8.44 S1.0000
X8.64 S0.0980
X8.84 S0.8941
X9.04 S1.0000
X9.24 S0.5529
X9.44 S0.8627
X9.54 S0.9608
G0 X44.14 S0.0000
G1 X44.24 S0.2627
G0 X109.74 S0.0000
G1 X109.84 S0.1373
X110.14 S1.0000
G0 Y-8.36 S0.0000
G1 X110.04 S0.8196
X109.84 S1.0000
X109.74 S0.6353
G0 X9.54 S0.0000
G1 X9.44 S0.8784
X9.24 S0.1216
X9.04 S1.0000
X8.84 S0.9843
X8.64 S0.1451
X8.44 S0.4000
X8.24 S1.0000
X8.04 S0.9961
X7.84 S0.2706
X7.64 S1.0000
X7.44 S0.9529
X7.34 S0.1569
G0 X0.94 S0.0000
G1 X0.84 S0.1529
X0.44 S1.0000
X0.34 S0.0118
G0 Y-8.16 S0.0000
G1 X0.44 S0.0078
X0.64 S0.9843
X0.84 S1.0000
X0.94 S0.2510
G0 X7.34 S0.0000
G1 X7.44 S0.7608
X7.64 S0.9529
X7.84 S0.9765
X8.04 S0.9843
X8.24 S0.3961
X8.44 S0.8196
X8.54 S0.8157
G0 X8.94 S0.0000
G1 X9.04 S0.2118
X9.24 S0.9843
X9.44 S0.8353
X9.64 S0.1804
X9.84 S0.0039
X9.94 S0.0745
G0 X109.74 S0.0000
G1 X109.84 S0.6118
X110.14 S1.0000
G0 Y-7.96 S0.0000
G1 X109.84 S1.0000
X109.74 S0.6118
G0 X10.14 S0.0000
G1 X10.04 S0.1529
X9.84 S1.0000
X9.64 S0.0510
X9.44 S0.4706
X9.24 S0.8667
X9.04 S0.1373
X8.84 S0.3725
X8.64 S0.8196
X8.44 S0.4000
X8.24 S0.3686
X8.04 S0.1529
X7.84 S0.2784
X7.64 S0.3451
X7.44 S0.9725
X7.34 S0.7608
G0 X0.94 S0.0000
G1 X0.84 S0.8549
X0.64 S1.0000
X0.54 S0.7843
G0 Y-7.76 S0.0000
G1 X0.64 S0.7451
X0.84 S0.9569
X1.04 S0.8902
X1.14 S0.0039
G0 X7.34 S0.0000
G1 X7.44 S0.4235
X7.64 S0.6275
X7.84 S0.3294
X8.04 S0.8784
X8.24 S0.9451
X8.44 S0.8627
X8.64 S0.1412
X8.84 S1.0000
X9.04 S0.9686
X9.24 S0.0039
X9.44 S0.1882
X9.64 S1.0000
X9.74 S0.3529
G0 X10.14 S0.0000
G1 X10.24 S0.9804
X10.44 S0.3059
X10.54 S0.0275
G0 X64.14 S0.0000
G1 X64.24 S0.0196
X64.44 S0.3686
X64.84 S0.3725
X65.04 S0.3843
X65.14 S0.2078
G0 X65.94 S0.0000
G1 X66.04 S0.2627
X66.84 S0.3725
X66.94 S0.1882
G0 X67.34 S0.0000
G1 X67.44 S0.2392
G0 X109.74 S0.0000
G1 X109.84 S0.8314
X110.04 S1.0000
X110.14 S0.8863
G0 Y-7.56 S0.0000
G1 X110.04 S0.6941
X109.84 S1.0000
X109.74 S0.9804
G0 X68.14 S0.0000
G1 X68.04 S0.0078
X67.84 S0.3059
X67.64 S0.4588
X67.44 S0.5176
X67.34 S0.9137
G0 X66.94 S0.0000
G1 X66.84 S0.9843
X66.24 S0.9765
X66.04 S0.3255
X65.84 S0.1725
X65.64 S0.8745
X65.44 S0.6431
X65.24 S0.2627
X65.04 S0.2549
X64.84 S0.4627
X64.64 S0.4314
X64.44 S0.1020
X64.34 S0.0980
G0 X63.94 S0.0000
G1 X63.84 S0.0078
X63.64 S0.3725
X63.44 S0.3569
X63.34 S0.5020
G0 X46.14 S0.0000
G1 X46.04 S0.0078
X45.94 S0.5098
G0 X43.14 S0.0000
G1 X43.04 S0.0118
X42.84 S0.1569
X42.64 S0.3176
X42.44 S0.0235
X42.34 S0.0078
G0 X40.54 S0.0000
G1 X40.44 S0.0431
X40.34 S0.2196
G0 X10.54 S0.0000
G1 X10.44 S0.2863
X10.24 S1.0000
X10.04 S0.5137
X9.84 S0.0078
X9.64 S0.9843
X9.54 S0.7647
G0 X9.14 S0.0000
G1 X9.04 S0.7961
X8.84 S0.0941
X8.64 S0.1725
X8.44 S0.1373
X8.24 S0.3647
X8.04 S0.5843
X7.84 S1.0000
X7.64 S0.8392
X7.44 S0.0471
X7.34 S0.4157
G0 X1.14 S0.0000
G1 X1.04 S0.0235
X0.84 S0.9686
X0.64 S1.0000
X0.54 S0.3569
G0 Y-7.36 S0.0000
G1 X0.64 S0.1686
X0.84 S1.0000
X1.04 S0.9882
X1.14 S0.1804
G0 X7.34 S0.0000
G1 X7.44 S0.6078
X7.64 S0.9608
X7.84 S0.5490
X8.24 S1.0000
X8.44 S0.9765
X8.64 S0.7961
X8.84 S0.7843
X9.24 S1.0000
X9.44 S0.4627
X9.64 S0.1490
X9.84 S1.0000
X10.04 S0.4784
X10.24 S0.0196
X10.44 S0.9490
X10.54 S0.6314
G0 X40.74 S0.0000
G1 X40.84 S0.2510
G0 X41.34 S0.0000
G1 X41.44 S0.2118
X41.64 S0.0824
X42.04 S0.4078
X42.24 S0.0157
X42.44 S0.5176
X42.64 S0.7686
X42.84 S0.5922
X43.04 S0.2627
X43.14 S0.0275
G0 X43.94 S0.0000
G1 X44.04 S0.4078
X44.44 S0.5255
X44.64 S0.1608
X44.84 S0.2275
X44.94 S0.0824
G0 X48.14 S0.0000
G1 X48.24 S0.4431
G0 X62.34 S0.0000
G1 X62.44 S0.4706
X62.64 S0.0353
X62.74 S0.0118
G0 X63.34 S0.0000
G1 X63.44 S0.0471
X63.64 S0.5725
X63.84 S0.4902
X63.94 S0.3804
G0 X64.34 S0.0000
G1 X64.44 S0.3294
X64.54 S0.4510
G0 X65.14 S0.0000
G1 X65.24 S0.1843
X65.44 S0.4706
X65.64 S0.4745
X65.84 S0.4784
X65.94 S0.6078
G0 X66.94 S0.0000
G1 X67.04 S0.4157
G0 X67.34 S0.0000
G1 X67.44 S0.2353
X67.64 S0.4039
X68.04 S1.0000
X68.24 S0.9569
X68.34 S0.5137
G0 X109.54 S0.0000
G1 X109.64 S0.1686
X110.04 S1.0000
X110.14 S0.1490
G0 Y-7.16 S0.0000
G1 X110.04 S0.0706
X109.64 S1.0000
X109.54 S0.4118
G0 X69.14 S0.0000
G1 X69.04 S0.0706
X68.94 S0.4000
G0 X68.54 S0.0000
G1 X68.44 S0.1059
X68.24 S0.2510
X68.04 S0.9137
X67.84 S0.5333
X67.64 S0.2510
X67.44 S0.6549
X67.34 S0.3255
G0 X66.74 S0.0000
G1 X66.64 S0.0588
X66.44 S0.7490
X66.24 S0.5608
X66.04 S0.1059
X65.84 S0.6431
X65.74 S0.0784
G0 X65.14 S0.0000
G1 X65.04 S0.0588
X64.84 S0.3490
X64.64 S0.7529
X64.44 S0.7490
X64.34 S0.6863
G0 X63.14 S0.0000
G1 X63.04 S0.6431
X62.84 S0.4314
X62.64 S0.1882
X62.54 S0.0941
G0 X62.14 S0.0000
G1 X62.04 S0.3137
X61.84 S0.3922
X61.74 S0.0314
G0 X48.14 S0.0000
G1 X48.04 S0.0980
X47.94 S0.5412
G0 X46.94 S0.0000
G1 X46.64 S0.0824
X46.44 S0.2392
X46.24 S0.0471
X46.04 S0.0588
X45.84 S0.2510
X45.64 S0.0431
X45.44 S0.1294
X45.24 S0.7490
X45.04 S0.7255
X44.84 S0.2510
X44.64 S0.2980
X44.44 S0.9569
X44.04 S1.0000
X43.84 S0.8000
X43.64 S0.1333
X43.44 S0.6235
X43.24 S0.3373
X43.04 S0.1961
X42.84 S0.9059
X42.64 S0.7569
X42.44 S0.8039
X42.34 S0.0627
G0 X41.74 S0.0000
G1 X41.64 S0.1961
X41.44 S0.7333
X41.24 S0.7490
X41.04 S0.0078
X40.84 S0.2510
X40.64 S0.2745
X40.44 S0.1020
X40.34 S0.0235
G0 X10.94 S0.0000
G1 X10.84 S0.0196
X10.64 S0.5647
X10.44 S0.7765
X10.24 S0.1373
X10.04 S0.1255
X9.84 S1.0000
X9.74 S0.6627
G0 X9.34 S0.0000
G1 X9.24 S0.8039
X9.04 S1.0000
X8.84 S0.9725
X8.64 S0.5529
X8.54 S0.0902
G0 X8.14 S0.0000
G1 X8.04 S0.1137
X7.84 S0.3529
X7.64 S0.6000
X7.44 S0.9804
X7.34 S0.7608
G0 X1.14 S0.0000
G1 X1.04 S0.2627
X0.84 S0.9961
X0.74 S1.0000
G0 Y-6.96 S0.0000
G1 X0.84 S0.8235
X1.04 S1.0000
X1.14 S0.5843
G0 X7.34 S0.0000
G1 X7.44 S0.5059
X7.64 S0.9804
X7.84 S0.3490
X8.04 S0.8431
X8.14 S0.1373
G0 X8.54 S0.0000
G1 X8.64 S0.9137
X8.84 S0.8235
X9.04 S0.2510
X9.24 S0.4157
X9.34 S0.1294
G0 X9.74 S0.0000
G1 X9.84 S0.0118
X10.04 S0.8431
X10.24 S0.8863
X10.44 S0.0235
X10.64 S0.8314
X10.84 S1.0000
X10.94 S0.8863
G0 X38.74 S0.0000
G1 X38.84 S0.1176
X39.04 S0.0157
X39.24 S0.1216
X39.34 S0.0039
G0 X39.74 S0.0000
G1 X39.84 S0.2235
X40.04 S0.4314
X40.24 S0.0275
X40.44 S0.3176
X40.54 S0.6941
G0 X40.94 S0.0000
G1 X41.04 S0.4706
X41.24 S0.5804
X41.44 S0.7686
X41.64 S0.4000
X41.84 S0.2941
X41.94 S0.4784
G0 X42.34 S0.0000
G1 X42.44 S0.0118
X42.84 S0.4196
X43.04 S0.5020
X43.24 S0.7569
X43.44 S0.9647
X43.64 S0.6588
X43.84 S0.0510
X44.04 S0.3529
X44.24 S0.2549
X44.44 S0.7569
X44.64 S1.0000
X44.84 S0.9294
X45.04 S0.8706
X45.24 S0.6000
X45.44 S0.8196
X45.64 S0.2471
X45.84 S0.6471
X46.04 S0.2902
X46.24 S0.0706
X46.44 S0.4353
X46.64 S0.8706
X46.84 S0.6471
X46.94 S0.1020
G0 X47.34 S0.0000
G1 X47.44 S0.5137
G0 X48.54 S0.0000
G1 X48.64 S0.2039
G0 X62.34 S0.0000
G1 X62.44 S0.2235
X62.64 S0.4039
X62.74 S0.0549
G0 X63.34 S0.0000
G1 X63.44 S0.0510
X63.64 S0.6510
X64.04 S0.2902
X64.24 S0.0157
X64.44 S0.0824
X65.04 S0.1294
X65.14 S0.0706
G0 X66.14 S0.0000
G1 X66.24 S0.1294
X66.44 S0.1490
X66.64 S0.4196
X66.84 S0.8627
X67.04 S0.2902
X67.24 S0.6157
X67.44 S0.0549
X67.54 S0.3961
G0 X67.94 S0.0000
G1 X68.04 S0.1255
X68.24 S0.3137
X68.44 S0.5216
X68.54 S0.6471
G0 X68.94 S0.0000
G1 X69.04 S0.0392
X69.14 S0.6000
G0 X84.54 S0.0000
G1 X84.64 S0.5059
G0 X87.14 S0.0000
G1 X87.24 S0.5804
X87.44 S0.2667
X87.54 S0.0235
G0 X109.54 S0.0000
G1 X109.64 S0.6510
X109.94 S1.0000
G0 Y-6.76 S0.0000
G1 X109.84 S0.5804
X109.64 S1.0000
X109.54 S0.8667
G0 X89.84 S0.0000
G1 X89.74 S0.0235
G0 X89.14 S0.0000
G1 X89.04 S0.0549
X88.84 S0.5255
X88.64 S0.5333
X88.54 S0.0078
G0 X87.54 S0.0000
G1 X87.44 S0.0235
X87.24 S0.5255
X87.14 S0.0431
G0 X85.34 S0.0000
G1 X85.24 S0.0039
X85.14 S0.1647
G0 X70.34 S0.0000
G1 X70.24 S0.0431
X70.04 S0.4667
X69.84 S0.0235
X69.64 S0.1647
X69.44 S0.7686
X69.24 S0.5255
X69.04 S0.0039
X68.84 S0.2627
X68.64 S0.2824
X68.54 S0.2431
G0 X68.14 S0.0000
G1 X68.04 S0.3490
X67.84 S0.5922
X67.64 S0.7725
X67.44 S0.0510
X67.34 S0.0627
G0 X66.54 S0.0000
G1 X66.44 S0.1529
X66.24 S0.2353
X66.04 S0.5294
X65.44 S1.0000
X65.24 S0.8000
X65.14 S0.0039
G0 X64.74 S0.0000
G1 X64.64 S0.5176
X64.54 S0.5255
G0 X64.14 S0.0000
G1 X64.04 S0.6549
X63.84 S0.7529
X63.64 S1.0000
X63.44 S0.7608
X63.24 S0.9529
X63.14 S0.3176
G0 X62.14 S0.0000
G1 X62.04 S0.0039
X61.84 S0.2941
X61.74 S0.2235
G0 X48.84 S0.0000
G1 X48.74 S0.0039
G0 X47.74 S0.0000
G1 X47.64 S0.1020
X47.54 S0.0863
G0 X46.74 S0.0000
G1 X46.64 S0.1490
X46.44 S0.4863
X46.24 S0.7529
X46.04 S0.4667
X45.84 S0.2824
X45.64 S0.3882
X45.44 S0.0235
X45.24 S0.5333
X45.04 S0.4118
X44.84 S0.4784
X44.64 S0.5333
X44.54 S0.3725
G0 X43.54 S0.0000
G1 X43.44 S0.0039
X43.14 S0.0078
G0 X42.74 S0.0000
G1 X42.64 S0.9843
X42.44 S0.9922
X42.24 S0.8314
X42.04 S0.0431
X41.84 S0.0039
X41.64 S0.0078
X41.44 S0.2000
X41.24 S0.5255
X41.04 S0.5098
X40.94 S0.0078
G0 X40.54 S0.0000
G1 X40.44 S0.5294
X40.24 S0.4980
X40.04 S0.4667
X39.84 S0.3451
X39.64 S0.3686
X39.54 S0.5176
G0 X38.34 S0.0000
G1 X38.24 S0.5412
X38.14 S0.5843
G0 X11.14 S0.0000
G1 X11.04 S0.1725
X10.84 S0.9922
X10.64 S1.0000
X10.44 S0.5412
X10.24 S0.0980
X10.04 S1.0000
X9.94 S0.3373
G0 X9.54 S0.0000
G1 X9.44 S0.5451
X9.24 S0.9961
X9.04 S0.0353
X8.64 S1.0000
X8.44 S0.8784
X8.24 S0.0039
X8.04 S0.1137
X7.84 S0.1529
X7.64 S0.4510
X7.44 S1.0000
X7.34 S0.0039
G0 X1.14 S0.0000
G1 X1.04 S0.9608
X0.84 S1.0000
X0.74 S0.3490
G0 Y-6.56 S0.0000
G1 X0.84 S0.3451
X1.04 S1.0000
X1.24 S0.9529
X1.34 S0.0039
G0 X7.74 S0.0000
G1 X7.84 S0.1255
X8.04 S1.0000
X8.24 S0.8745
X8.44 S0.4353
X8.64 S0.1843
X9.04 S1.0000
X9.24 S0.0353
X9.44 S1.0000
X9.54 S0.4078
G0 X10.14 S0.0000
G1 X10.24 S0.9255
X10.44 S0.9059
X10.64 S0.0275
X10.84 S0.8000
X11.04 S0.8549
X11.24 S0.3882
X11.34 S0.0431
G0 X37.74 S0.0000
G1 X37.84 S0.0745
G0 X38.34 S0.0000
G1 X38.44 S0.4039
X38.64 S0.0431
X38.84 S0.1216
X39.04 S0.0039
X39.24 S0.5098
X39.44 S0.3020
X39.64 S0.2157
X39.84 S0.7020
X39.94 S0.3608
G0 X40.74 S0.0000
G1 X40.84 S0.2196
X41.04 S0.2745
X41.14 S0.0980
G0 X41.74 S0.0000
G1 X41.84 S0.5020
X42.04 S0.0549
X42.24 S0.3294
X42.44 S0.9765
X42.64 S0.8863
X42.84 S0.7922
X43.04 S1.0000
X43.14 S0.5569
G0 X43.54 S0.0000
G1 X43.64 S0.5216
X43.84 S1.0000
X44.24 S0.7412
X44.44 S0.9255
X44.64 S0.4863
X44.74 S0.1176
G0 X45.54 S0.0000
G1 X45.64 S0.5137
X46.24 S0.6431
X46.64 S0.7725
X46.84 S0.8157
X47.04 S0.2941
X47.24 S0.0078
X47.44 S0.2275
X47.64 S0.0980
X47.84 S0.0039
X48.04 S0.3647
X48.24 S0.2627
X48.44 S0.8118
X48.54 S0.1176
G0 X62.14 S0.0000
G1 X62.24 S0.1961
G0 X62.74 S0.0000
G1 X62.84 S0.0980
X63.04 S0.3412
X63.24 S0.5216
X63.34 S0.0902
G0 X64.34 S0.0000
G1 X64.44 S0.6314
X64.64 S0.3569
X64.84 S0.9451
X65.04 S0.9020
X65.24 S0.8157
X65.44 S0.0078
X65.64 S0.3098
X65.74 S0.1373
G0 X66.34 S0.0000
G1 X66.44 S0.1451
X66.84 S0.2588
X67.04 S0.3490
X67.24 S0.2118
X67.44 S0.0549
X67.64 S0.5804
X67.84 S0.9569
X68.24 S0.3569
X68.44 S0.4510
X68.64 S0.0039
X68.84 S0.6078
X69.04 S0.8392
X69.24 S0.3804
X69.34 S0.1020
G0 X69.74 S0.0000
G1 X69.84 S0.0627
X70.04 S0.3176
X70.24 S0.0039
X70.44 S0.7490
X70.64 S0.0627
X70.74 S0.5961
G0 X83.94 S0.0000
G1 X84.04 S0.0471
X84.24 S0.2824
X84.44 S0.6784
X84.64 S0.1255
X84.84 S0.0471
X85.04 S0.2588
X85.14 S0.1176
G0 X86.34 S0.0000
G1 X86.44 S0.2235
X86.64 S0.9020
X86.84 S0.5804
X86.94 S0.2588
G0 X87.74 S0.0000
G1 X87.84 S0.0824
X88.04 S0.2588
X88.24 S0.2549
X88.34 S0.0588
G0 X88.94 S0.0000
G1 X89.04 S0.1216
X89.24 S0.4078
X89.34 S0.3059
G0 X89.74 S0.0000
G1 X89.84 S0.0941
X90.04 S0.2667
X90.24 S0.4431
X90.34 S0.2314
G0 X109.34 S0.0000
G1 X109.44 S0.1725
X109.64 S0.9882
X109.84 S0.9961
X109.94 S0.2000
G0 X109.74 Y-6.36 S0.0000
G1 X109.64 S0.9569
X109.44 S1.0000
X109.34 S0.4549
G0 X91.14 S0.0000
G1 X91.04 S0.0745
X90.84 S0.5804
X90.64 S0.0863
X90.44 S0.2549
X90.24 S0.9529
X90.04 S0.1098
X89.84 S0.2039
X89.64 S0.1255
X89.44 S0.1373
X89.24 S0.9137
X89.04 S0.8588
X88.94 S0.1490
G0 X88.54 S0.0000
G1 X88.44 S0.5804
X88.24 S0.1333
X88.04 S0.2902
X87.84 S0.1529
X87.64 S0.2000
X87.44 S0.3137
X87.24 S0.6000
X87.04 S0.0902
X86.84 S0.0275
X86.64 S0.2902
X86.54 S0.0941
G0 X85.84 S0.0000
G1 X85.74 S0.4941
G0 X84.84 S0.0000
G1 X84.74 S0.0667
G0 X84.34 S0.0000
G1 X84.24 S0.0863
X84.04 S0.0706
X83.94 S0.0667
G0 X83.54 S0.0000
G1 X83.44 S0.0824
X83.34 S0.0510
G0 X70.74 S0.0000
G1 X70.64 S0.2745
X70.44 S0.5804
X70.24 S0.2627
X70.04 S0.0039
X69.84 S0.5569
X69.64 S0.7647
X69.44 S0.1137
X69.24 S0.7137
X69.04 S0.6235
X68.94 S0.1137
G0 X68.54 S0.0000
G1 X68.44 S0.1412
X68.24 S0.8392
X68.04 S0.2314
X67.84 S0.1647
X67.64 S0.1333
X67.44 S0.4549
X67.24 S0.7412
X67.04 S0.7137
X66.84 S0.6980
X66.64 S0.7412
X66.44 S0.2902
X66.24 S0.0588
X66.04 S0.8353
X65.64 S0.8667
X65.44 S0.6667
X65.24 S0.4039
X65.04 S0.2196
X64.84 S0.2902
X64.64 S0.3176
X64.44 S0.1333
X64.24 S0.2941
X64.04 S0.7020
X63.84 S0.3608
X63.64 S0.4588
X63.44 S0.2824
X63.24 S0.9137
X63.04 S0.4000
X62.84 S0.6078
X62.64 S0.4275
X62.54 S0.5725
G0 X62.14 S0.0000
G1 X62.04 S0.6314
X61.84 S0.5608
X61.74 S0.2784
G0 X61.34 S0.0000
G1 X61.24 S0.0039
X61.14 S0.3020
G0 X60.84 S0.0000
G1 X60.74 S0.3059
G0 X48.44 S0.0000
G1 X48.34 S0.0980
G0 X47.74 S0.0000
G1 X47.64 S0.5843
X47.44 S0.6863
X47.34 S0.1647
G0 X46.74 S0.0000
G1 X46.64 S0.1255
X46.44 S0.0902
X46.34 S0.2314
G0 X45.74 S0.0000
G1 X45.64 S0.4784
X45.44 S0.5922
X45.04 S0.8667
X44.84 S0.6941
X44.64 S0.1294
X44.44 S0.3294
X44.24 S0.4196
X44.04 S0.8784
X43.64 S1.0000
X43.54 S0.8824
G0 X43.14 S0.0000
G1 X43.04 S0.5725
X42.84 S0.7098
X42.64 S0.7373
X42.44 S0.8745
X42.24 S0.8235
X42.04 S0.3020
X41.94 S0.2902
G0 X41.54 S0.0000
G1 X41.44 S0.1020
X41.24 S0.4078
X41.04 S0.7098
X40.84 S0.1412
X40.64 S0.2431
X40.44 S0.3725
X40.34 S0.3333
G0 X39.94 S0.0000
G1 X39.84 S0.0353
X39.74 S0.0745
G0 X39.34 S0.0000
G1 X39.24 S0.1098
X39.04 S0.2549
X38.84 S0.8667
X38.74 S0.3804
G0 X38.34 S0.0000
G1 X38.24 S0.3843
X38.14 S0.3294
G0 X37.84 S0.0000
G1 X37.74 S0.1020
G0 X37.34 S0.0000
G1 X37.24 S0.1255
X37.14 S0.0941
G0 X11.34 S0.0000
G1 X11.24 S0.0196
X10.84 S1.0000
X10.64 S0.2000
X10.44 S0.6078
X10.24 S1.0000
X10.14 S0.1804
G0 X9.54 S0.0000
G1 X9.44 S0.4314
X9.24 S0.8667
X9.04 S0.0196
X8.84 S1.0000
X8.64 S0.4235
X8.44 S0.0039
X8.24 S0.7216
X8.04 S0.9765
X7.84 S1.0000
X7.74 S0.0471
G0 X1.34 S0.0000
G1 X1.24 S0.1686
X1.04 S0.9961
X0.84 S1.0000
X0.74 S0.1451
G0 X0.94 Y-6.16 S0.0000
G1 X1.04 S0.9569
X1.24 S1.0000
X1.34 S0.6667
G0 X7.54 S0.0000
G1 X7.64 S0.0353
X7.84 S0.2706
X8.04 S0.7843
X8.24 S1.0000
X8.34 S0.4275
G0 X9.14 S0.0000
G1 X9.24 S0.6196
X9.44 S1.0000
X9.64 S0.4824
X9.74 S0.3804
G0 X10.34 S0.0000
G1 X10.44 S0.8667
X10.64 S1.0000
X10.84 S0.0902
X11.04 S0.5804
X11.24 S1.0000
X11.34 S0.8941
G0 X36.74 S0.0000
G1 X36.84 S0.2980
G0 X37.94 S0.0000
G1 X38.04 S0.4235
X38.24 S0.4627
X38.44 S0.0078
X38.54 S0.4980
G0 X39.14 S0.0000
G1 X39.24 S0.2275
X39.44 S0.4706
X39.64 S0.7137
X39.84 S0.6431
X39.94 S0.4275
G0 X40.34 S0.0000
G1 X40.44 S0.1333
X40.64 S0.6431
X40.84 S0.2627
X41.04 S0.7098
X41.24 S0.6980
X41.34 S0.4980
G0 X41.74 S0.0000
G1 X42.04 S0.6000
X42.24 S0.4196
X42.44 S0.9529
X42.64 S0.1529
X42.84 S0.5725
X43.04 S0.2196
X43.24 S0.2078
X43.44 S0.0118
X43.64 S0.3490
X43.84 S0.6275
X44.04 S0.6431
X44.84 S0.0471
X45.04 S0.5255
X45.24 S0.7765
X45.64 S0.6431
X45.84 S0.8510
X46.04 S0.9922
X46.24 S0.3647
X46.44 S0.0235
X46.64 S0.0353
X46.84 S0.4353
X47.04 S0.6431
X47.24 S0.9804
X47.44 S0.6745
X47.64 S0.2039
X47.84 S0.0039
X48.04 S0.9608
X48.24 S0.2667
X48.44 S0.4510
X48.64 S0.3451
X48.84 S0.5333
X48.94 S0.2275
G0 X49.34 S0.0000
G1 X49.44 S0.0980
G0 X60.74 S0.0000
G1 X60.84 S0.0549
X61.04 S0.1373
X61.24 S0.3804
X61.44 S0.2980
X61.64 S0.4392
X61.84 S0.7490
X61.94 S0.5725
G0 X62.34 S0.0000
G1 X62.44 S0.1098
X62.64 S0.5725
X62.84 S0.0157
X62.94 S0.5137
G0 X63.34 S0.0000
G1 X63.44 S0.1804
X63.64 S0.9529
X63.84 S0.7608
X64.04 S0.8784
X64.24 S0.4000
X64.44 S0.7451
X64.64 S0.0078
X64.84 S0.0510
X65.04 S0.7333
X65.24 S0.3569
X65.44 S0.1137
X65.64 S0.6000
X65.84 S0.6863
X66.24 S1.0000
X66.44 S0.9255
X66.54 S0.0157
G0 X66.94 S0.0000
G1 X67.04 S0.3843
X67.24 S0.6000
X67.44 S0.9529
X67.64 S0.0941
X67.84 S0.9176
X68.04 S0.4000
X68.24 S0.0784
X68.44 S0.3137
X68.64 S0.9255
X68.84 S0.3686
X69.04 S0.2431
X69.24 S0.0078
X69.44 S0.6431
X69.64 S0.6745
X69.84 S0.3922
X70.04 S0.9569
X70.24 S0.7137
X70.44 S0.0745
X70.64 S0.2078
X70.84 S0.6235
X71.04 S0.4549
X71.24 S0.0431
X71.34 S0.1804
G0 X71.94 S0.0000
G1 X72.04 S0.0118
G0 X82.74 S0.0000
G1 X82.84 S0.0353
X83.04 S0.0471
X83.24 S0.2039
X83.44 S0.8471
X83.64 S0.1294
X83.74 S0.2157
G0 X84.14 S0.0000
G1 X84.24 S0.0157
G0 X84.74 S0.0000
G1 X84.84 S0.4980
X85.04 S0.3608
X85.14 S0.2078
G0 X85.54 S0.0000
G1 X85.64 S0.0039
X85.84 S0.0471
X86.04 S0.6000
X86.24 S0.7216
X86.44 S0.4000
X86.54 S0.2392
G0 X87.34 S0.0000
G1 X87.44 S0.3020
X87.54 S0.3569
G0 X88.34 S0.0000
G1 X88.44 S0.5373
X88.54 S0.2314
G0 X89.14 S0.0000
G1 X89.24 S0.5373
X89.34 S0.3255
G0 X89.94 S0.0000
G1 X90.04 S0.0431
X90.14 S0.1882
G0 X90.54 S0.0000
G1 X90.64 S0.5216
X90.84 S0.0078
X91.04 S0.8902
X91.24 S0.0863
X91.44 S0.9255
X91.64 S0.9569
X91.84 S0.2196
X91.94 S0.0039
G0 X109.14 S0.0000
G1 X109.24 S0.0078
X109.44 S0.7804
X109.64 S1.0000
X109.74 S0.8431
G0 Y-5.96 S0.0000
G1 X109.64 S0.4745
X109.44 S1.0000
X109.24 S0.8588
X109.14 S0.0353
G0 X92.34 S0.0000
G1 X92.24 S0.0118
X92.04 S0.0196
X91.84 S0.5686
X91.64 S0.5176
X91.44 S0.6588
X91.24 S0.2314
X91.04 S0.3882
X90.84 S0.5255
X90.64 S0.4706
X90.54 S0.0039
G0 X89.94 S0.0000
G1 X89.84 S0.4078
X89.64 S0.0392
X89.44 S0.1255
X89.24 S0.0353
X89.04 S0.0706
X88.84 S0.0627
X88.64 S0.3412
X88.44 S0.2392
X88.24 S0.0471
X88.04 S0.2353
X87.84 S0.6000
X87.64 S0.8667
X87.44 S0.1608
X87.24 S0.0118
X87.04 S0.6706
X86.84 S0.6078
X86.64 S0.8353
X86.44 S0.0039
X86.24 S0.3294
X86.04 S0.0588
X85.84 S0.3569
X85.64 S0.8353
X85.44 S0.5765
X85.24 S0.0314
X85.04 S0.1333
X84.84 S0.5059
X84.64 S0.0314
X84.44 S0.3020
X84.24 S0.3765
X84.04 S0.9608
X83.84 S0.8353
X83.64 S0.0157
X83.44 S0.6706
X83.24 S0.8275
X83.04 S0.1059
X82.94 S0.0588
G0 X82.54 S0.0000
G1 X82.44 S0.2824
X82.34 S0.1961
G0 X71.94 S0.0000
G1 X71.84 S0.0157
X71.64 S0.2980
X71.44 S0.2471
X71.24 S0.4157
X71.04 S0.0627
X70.64 S0.0039
X70.44 S0.6784
X70.24 S0.8588
X70.04 S0.9686
X69.84 S0.2118
X69.64 S0.0078
X69.44 S0.0275
X69.24 S0.3412
X69.04 S0.2549
X68.84 S0.9922
X68.64 S0.5608
X68.44 S0.0627
X68.24 S0.6745
X68.04 S0.9765
X67.84 S0.9686
X67.64 S0.7569
X67.44 S0.6196
X67.24 S0.0392
X67.04 S0.0706
X66.84 S0.4745
X66.64 S0.6549
X66.44 S0.3176
X66.24 S0.5843
X66.04 S0.7294
X65.84 S0.0627
X65.64 S0.0588
X65.44 S0.4980
X65.04 S0.9373
X64.84 S0.7843
X64.64 S0.4980
X64.44 S0.5608
X64.34 S0.0196
G0 X63.74 S0.0000
G1 X63.64 S0.1451
X62.94 S0.0706
G0 X62.54 S0.0000
G1 X62.44 S0.0392
X62.24 S0.0588
X62.04 S0.2627
X61.94 S0.0078
G0 X61.54 S0.0000
G1 X61.44 S0.5686
X61.34 S0.2471
G0 X60.94 S0.0000
G1 X60.84 S0.5725
X60.74 S0.2471
G0 X60.34 S0.0000
G1 X60.24 S0.3843
X60.14 S0.1569
G0 X50.24 S0.0000
G1 X50.14 S0.0275
G0 X49.54 S0.0000
G1 X49.44 S0.0353
X49.34 S0.0471
G0 X48.94 S0.0000
G1 X48.84 S0.0667
X48.64 S0.2588
X48.44 S0.0392
X48.24 S0.0118
X48.04 S0.0980
X47.84 S0.0118
X47.64 S0.0980
X47.44 S0.4667
X47.24 S0.9608
X47.04 S0.7098
X46.84 S0.6000
X46.64 S1.0000
X46.44 S0.9216
X46.24 S0.1333
X46.04 S0.2784
X45.84 S0.4745
X45.64 S0.0627
X45.44 S0.9098
X45.24 S0.8353
X45.04 S0.6118
X44.84 S0.8863
X44.64 S0.0941
X44.44 S0.1333
X44.24 S0.0667
X44.04 S0.4588
X43.84 S0.6431
X43.64 S0.8039
X43.44 S0.1216
X43.24 S0.4549
X43.04 S0.7843
X42.84 S0.5725
X42.64 S0.0627
X42.44 S0.0314
X42.24 S0.0706
X42.04 S0.0078
X41.84 S0.0235
X41.64 S0.3843
X41.44 S0.2588
X41.24 S0.0275
X41.04 S0.5529
X40.84 S0.7961
X40.64 S0.4471
X40.44 S0.1490
X40.24 S0.1098
X40.04 S0.3294
X39.84 S0.4471
X39.64 S0.7333
X39.44 S0.6824
X39.24 S0.7176
X39.14 S0.1843
G0 X38.54 S0.0000
G1 X38.44 S0.0314
X38.24 S0.0078
X38.04 S0.2824
X37.94 S0.1137
G0 X37.54 S0.0000
G1 X37.44 S0.1490
X37.34 S0.0824
G0 X11.54 S0.0000
G1 X11.44 S0.4275
X11.24 S1.0000
X11.04 S0.9804
X10.84 S0.0196
X10.64 S0.8863
X10.44 S0.9804
X10.34 S0.0275
G0 X9.94 S0.0000
G1 X9.84 S0.1176
X9.64 S0.9882
X9.44 S0.5490
X9.34 S0.8980
G0 X8.74 S0.0000
G1 X8.64 S0.3333
X8.44 S0.0118
X8.24 S0.6431
X8.04 S1.0000
X7.84 S0.2745
X7.64 S0.4118
X7.54 S0.0196
G0 X1.54 S0.0000
G1 X1.44 S0.0118
X1.24 S0.9529
X1.04 S1.0000
X0.94 S0.1059
G0 Y-5.76 S0.0000
G1 X1.04 S0.0118
X1.24 S0.8627
X1.44 S0.9961
X1.54 S0.4471
G0 X7.54 S0.0000
G1 X7.64 S0.8431
X7.84 S0.7569
X8.04 S0.2745
X8.24 S1.0000
X8.44 S0.6431
X8.64 S0.2039
X8.74 S0.7608
G0 X9.34 S0.0000
G1 X9.44 S0.3569
X9.64 S0.3922
X9.84 S1.0000
X9.94 S0.8078
G0 X10.54 S0.0000
G1 X10.64 S0.5059
X10.84 S1.0000
X11.04 S0.4353
X11.24 S0.3804
X11.44 S1.0000
X11.54 S0.5412
G0 X36.94 S0.0000
G1 X37.04 S0.1216
X37.24 S0.2392
X37.44 S0.1098
X37.64 S0.1333
X37.84 S0.3216
X38.04 S1.0000
X38.24 S0.5569
X38.44 S0.5647
X38.54 S0.3255
G0 X38.94 S0.0000
G1 X39.04 S0.3176
X39.24 S0.6706
X39.44 S0.8863
X39.64 S0.5373
X39.84 S0.1137
X39.94 S0.2392
G0 X40.54 S0.0000
G1 X40.64 S0.1098
X40.74 S0.0392
G0 X41.14 S0.0000
G1 X41.24 S0.3176
X41.44 S0.5608
X41.64 S0.8078
X41.84 S0.9098
X42.04 S0.8039
X42.24 S0.0235
X42.44 S0.1608
X42.64 S0.6078
X42.84 S0.9176
X43.44 S1.0000
X43.64 S0.7686
X43.74 S0.0549
G0 X44.14 S0.0000
G1 X44.24 S0.2588
X44.44 S0.3255
X44.64 S0.4392
X44.84 S0.3765
X45.04 S0.5098
X45.24 S0.2078
X45.64 S0.3294
X45.84 S0.0549
X46.04 S0.4118
X46.24 S0.8863
X46.44 S0.8196
X46.64 S0.1333
X47.04 S0.4392
X47.24 S0.9686
X47.44 S0.4275
X47.64 S0.2078
X47.84 S0.0235
X48.04 S0.5922
X48.14 S0.0039
G0 X48.54 S0.0000
G1 X48.64 S0.1686
X48.84 S0.7333
X49.04 S0.8706
X49.24 S0.8235
X49.44 S0.3804
X49.64 S0.7176
X49.74 S0.2039
G0 X50.14 S0.0000
G1 X50.24 S0.2745
X50.44 S0.3804
X50.54 S0.1294
G0 X59.74 S0.0000
G1 X59.84 S0.1922
X60.04 S0.3647
X60.24 S0.1412
X60.44 S0.1529
X60.64 S0.1373
X60.84 S0.1765
X60.94 S0.3961
G0 X61.34 S0.0000
G1 X61.44 S0.4863
G0 X61.74 S0.0000
G1 X61.84 S0.3490
X62.04 S0.4706
X62.24 S0.9176
X62.44 S0.5294
X62.64 S0.0471
X62.84 S0.5686
X63.44 S1.0000
X63.64 S0.7765
X63.84 S0.0745
X64.04 S0.6000
X64.24 S0.6980
X64.44 S0.5608
X64.64 S0.1608
X64.84 S0.9529
X65.44 S1.0000
X65.64 S0.2667
X65.84 S0.5961
X66.04 S0.5843
X66.44 S0.5608
X66.64 S0.0980
X67.24 S1.0000
X67.44 S0.9059
X67.64 S0.2627
X67.84 S0.4392
X68.04 S0.6431
X68.24 S0.9608
X68.44 S0.9882
X68.64 S0.5373
X68.84 S0.2353
X69.24 S1.0000
X69.44 S0.7059
X69.64 S0.1176
X69.84 S0.6745
X70.04 S0.2863
X70.24 S0.1490
X70.44 S0.9451
X70.64 S0.5294
X70.84 S0.0235
X71.04 S0.8510
X71.24 S0.1647
X71.44 S0.0824
X71.54 S0.3725
G0 X82.14 S0.0000
G1 X82.24 S0.3647
G0 X82.74 S0.0000
G1 X82.84 S0.5373
X83.04 S0.2431
X83.24 S0.0627
X83.34 S0.1020
G0 X83.94 S0.0000
G1 X84.04 S0.0078
X84.14 S0.1137
G0 X84.54 S0.0000
G1 X84.64 S0.0980
X84.84 S0.2824
X84.94 S0.5098
G0 X85.34 S0.0000
G1 X85.44 S0.3686
X85.84 S1.0000
X86.04 S0.8863
X86.14 S0.0627
G0 X86.54 S0.0000
G1 X86.64 S0.1137
X87.24 S0.4392
X87.34 S0.1686
G0 X87.74 S0.0000
G1 X88.04 S0.8863
X88.24 S0.8745
X88.44 S0.2471
X88.64 S0.0784
X88.84 S0.0196
X89.04 S0.9098
X89.24 S0.9412
X89.44 S0.6353
X89.64 S0.5882
X89.74 S0.9529
G0 X90.14 S0.0000
G1 X90.24 S0.7451
X90.44 S0.8863
X90.64 S0.3725
X90.84 S0.0588
X91.04 S0.4706
X91.14 S0.5843
G0 X91.54 S0.0000
G1 X91.64 S1.0000
X91.84 S0.9059
X92.04 S0.5804
X92.24 S0.0745
X92.34 S0.7451
G0 X109.14 S0.0000
G1 X109.24 S0.2706
X109.44 S0.9961
X109.54 S1.0000
G0 Y-5.56 S0.0000
G1 X109.44 S1.0000
X109.24 S0.9490
X109.04 S0.8235
X108.94 S0.0118
G0 X92.74 S0.0000
G1 X92.64 S0.0549
X92.54 S0.2510
G0 X92.04 S0.0000
G1 X91.94 S0.0353
G0 X91.54 S0.0000
G1 X91.44 S0.0745
X91.24 S0.2902
X91.14 S0.6039
G0 X90.74 S0.0000
G1 X90.64 S0.1765
X90.44 S0.2784
X90.24 S0.5412
X90.04 S0.1490
X89.84 S0.7961
X89.64 S1.0000
X89.44 S0.1451
X89.24 S0.7098
X89.04 S0.6392
X88.84 S0.6706
X88.64 S0.0392
X88.44 S0.6392
X88.24 S0.9922
X88.04 S0.7412
X87.84 S0.1529
X87.64 S0.0588
X87.44 S0.9176
X87.24 S1.0000
X87.04 S0.3098
X86.84 S0.0667
X86.64 S0.9882
X86.24 S1.0000
X86.04 S0.4157
X85.84 S0.5765
X85.44 S0.9176
X85.24 S0.2784
X85.04 S0.9569
X84.84 S1.0000
X84.64 S0.7137
X84.44 S0.6392
X84.24 S0.6588
X84.04 S0.7608
X83.84 S0.5529
X83.64 S0.5569
X83.44 S0.0353
X83.24 S0.1922
X83.04 S0.3216
X82.84 S0.0863
X82.64 S0.2471
X82.44 S0.3529
X82.24 S0.0196
X82.14 S0.0824
G0 X71.94 S0.0000
G1 X71.84 S0.3294
X71.64 S0.4549
X71.44 S0.3490
X71.24 S0.2510
X71.04 S0.9176
X70.84 S0.0196
X70.64 S0.6235
X70.44 S0.9529
X70.24 S0.0078
X70.04 S0.3333
X69.84 S1.0000
X69.64 S0.8196
X69.44 S0.1529
X69.24 S1.0000
X69.04 S0.9922
X68.84 S0.6745
X68.64 S0.4392
X68.24 S1.0000
X68.04 S0.9765
X67.84 S0.2980
X67.64 S0.5020
X67.04 S1.0000
X66.84 S0.8196
X66.64 S0.1333
X66.24 S1.0000
X66.04 S0.8471
X65.64 S1.0000
X65.44 S0.6078
X65.24 S0.1020
X65.04 S0.3608
X64.94 S0.0863
G0 X64.54 S0.0000
G1 X64.44 S0.6588
X63.84 S1.0000
X63.64 S0.7725
X63.44 S0.0431
X63.24 S0.6784
X63.04 S0.8863
X62.84 S0.7569
X62.64 S0.9176
X62.54 S0.1333
G0 X62.14 S0.0000
G1 X62.04 S0.6471
X61.84 S0.5137
X61.64 S0.0941
X61.44 S0.4745
X61.24 S0.0941
X61.04 S0.6784
X60.84 S0.4078
X60.64 S0.5961
X60.54 S0.0431
G0 X60.14 S0.0000
G1 X60.04 S0.1490
X59.84 S0.0118
X59.64 S0.6196
X59.54 S0.5882
G0 X50.54 S0.0000
G1 X50.44 S0.3059
X50.24 S0.5098
X50.04 S0.3608
X49.84 S0.1255
X49.64 S0.8706
X49.44 S0.8235
X49.24 S0.3098
X49.04 S0.6392
X48.84 S0.6235
X48.64 S0.0588
X48.44 S0.1373
X48.24 S0.1490
X48.04 S0.8392
X47.84 S0.4902
X47.44 S0.3608
X47.24 S0.1882
X46.84 S0.2784
X46.64 S0.9961
X46.44 S1.0000
X46.24 S0.5216
X46.04 S0.2745
X45.84 S0.0706
X45.64 S0.6078
X45.44 S0.7216
X45.24 S0.6863
X45.04 S0.2392
X44.44 S1.0000
X44.24 S0.4196
X43.84 S0.3608
X43.64 S0.1255
X43.44 S0.0157
X42.84 S0.9176
X42.64 S0.9333
X42.44 S0.6863
X42.24 S0.3333
X42.04 S0.0510
X41.84 S0.8588
X41.24 S1.0000
X41.04 S0.9059
X40.84 S0.0471
X40.64 S0.1020
X40.24 S1.0000
X40.04 S0.9255
X39.84 S0.8275
X39.74 S0.1451
G0 X39.34 S0.0000
G1 X39.24 S0.5373
X39.04 S0.7490
X38.84 S0.6392
X38.64 S0.1333
X38.44 S0.2275
X38.24 S0.9020
X38.04 S0.5098
X37.84 S0.8980
X37.64 S0.9922
X37.44 S0.6745
X37.34 S0.0118
G0 X36.74 S0.0000
G1 X36.64 S0.7412
X36.44 S0.0902
X36.34 S0.0157
G0 X35.94 S0.0000
G1 X35.84 S0.2549
X35.64 S0.2196
X35.44 S0.0706
X35.34 S0.0275
G0 X11.94 S0.0000
G1 X11.84 S0.0784
X11.64 S0.7137
X11.44 S1.0000
X11.34 S0.9098
G0 X10.94 S0.0000
G1 X10.84 S0.8549
X10.74 S0.9490
G0 X10.14 S0.0000
G1 X10.04 S0.0588
X9.84 S0.6980
X9.64 S0.6431
X9.44 S0.6824
X9.34 S0.3020
G0 X8.54 S0.0000
G1 X8.44 S0.1922
X8.24 S1.0000
X8.04 S0.9020
X7.84 S0.1922
X7.64 S0.6314
X7.54 S1.0000
G0 X1.54 S0.0000
G1 X1.44 S0.8000
X1.24 S1.0000
X1.14 S0.6235
G0 Y-5.36 S0.0000
G1 X1.24 S0.1843
X1.44 S1.0000
X1.64 S0.9686
X1.74 S0.1216
G0 X7.54 S0.0000
G1 X7.64 S0.1294
X7.84 S0.5765
X8.04 S0.3725
X8.24 S0.5098
X8.44 S1.0000
X8.64 S0.1098
X8.84 S0.1569
X9.04 S0.2667
X9.24 S0.0039
X9.44 S0.5569
X9.64 S0.2471
X9.84 S0.8745
X10.24 S0.9725
X10.34 S0.4353
G0 X10.74 S0.0000
G1 X10.84 S0.1647
X11.04 S0.9922
X11.24 S0.4510
X11.44 S0.0549
X11.64 S0.8706
X11.84 S1.0000
X12.04 S0.9922
X12.14 S0.1451
G0 X35.34 S0.0000
G1 X35.44 S0.0392
X35.64 S0.0118
X35.74 S0.0314
G0 X36.34 S0.0000
G1 X36.44 S0.2549
X36.64 S0.3098
X36.84 S0.5255
X36.94 S0.1529
G0 X37.34 S0.0000
G1 X37.44 S0.0157
X37.64 S0.4784
X37.84 S0.1529
X38.04 S0.3961
X38.24 S0.7098
X38.44 S0.3412
X38.64 S0.0235
X38.84 S0.1255
X39.04 S0.5020
X39.24 S0.2196
X39.44 S0.3255
X39.64 S0.4784
X39.84 S0.7059
X40.04 S0.8706
X40.24 S0.3961
X40.44 S0.5765
X40.64 S0.9804
X40.84 S0.0039
X41.04 S0.3843
X41.24 S0.8824
X41.44 S0.7059
X41.64 S0.8039
X41.84 S0.9725
X42.04 S0.1333
X42.44 S0.5216
X42.64 S0.4745
X42.84 S0.4510
X43.24 S0.5216
X43.44 S0.1216
X43.64 S0.0196
X43.84 S0.6039
X44.04 S0.6118
X44.44 S1.0000
X44.64 S0.9843
X44.84 S0.9765
X45.04 S0.5725
X45.24 S0.0039
X45.44 S0.6549
X45.84 S1.0000
X46.04 S0.9843
X46.24 S0.8941
X46.44 S0.0196
X46.64 S0.4078
X46.84 S0.7137
X47.04 S0.4980
X47.24 S0.0510
X47.44 S0.1059
X47.64 S0.7647
X47.84 S0.7098
X48.04 S0.8392
X48.24 S0.8863
X48.44 S0.2627
X48.64 S0.6314
X48.74 S0.4784
G0 X49.34 S0.0000
G1 X49.44 S0.2863
X49.64 S0.5294
X49.84 S0.3843
X50.04 S0.2549
X50.24 S0.4471
X50.44 S0.0314
X50.64 S0.3804
X50.84 S0.6039
X50.94 S0.0118
G0 X59.14 S0.0000
G1 X59.24 S0.0039
X59.44 S0.0078
X59.64 S0.0706
X59.74 S0.0353
G0 X60.14 S0.0000
G1 X60.24 S0.0118
X60.44 S0.4784
X60.64 S0.0275
X60.84 S0.2471
X61.04 S0.8627
X61.24 S0.1686
X61.44 S0.6471
X61.64 S0.1647
X61.84 S0.1412
X61.94 S0.0431
G0 X62.54 S0.0000
G1 X62.64 S0.0706
X62.84 S0.2118
X63.04 S0.3804
X63.24 S0.1608
X63.44 S0.2314
X63.64 S0.9216
X63.84 S0.9765
X64.04 S0.7333
X64.44 S0.9765
X64.64 S0.2980
X64.84 S0.4000
X65.04 S0.7137
X65.24 S0.5020
X65.44 S0.0706
X65.64 S0.7020
X65.84 S0.9882
X66.04 S0.6431
X66.24 S0.6039
X66.44 S0.3529
X66.64 S0.7922
X66.84 S0.8118
X67.04 S0.1333
X67.64 S0.4784
X67.84 S0.0510
X68.04 S0.0118
X68.24 S0.5765
X68.44 S0.9765
X68.64 S1.0000
X68.84 S0.9843
X69.04 S0.0196
X69.24 S0.7451
X69.44 S1.0000
X69.64 S0.9216
X69.84 S0.3647
X70.24 S1.0000
X70.44 S0.3529
X70.64 S0.0510
X70.84 S0.0745
X71.04 S0.2235
X71.24 S0.7686
X71.44 S0.9765
X71.64 S0.5294
X71.84 S0.1059
X71.94 S0.1686
G0 X72.34 S0.0000
G1 X72.44 S0.1569
X72.54 S0.0039
G0 X81.14 S0.0000
G1 X81.24 S0.0039
G0 X81.94 S0.0000
G1 X82.04 S0.2824
X82.24 S0.3451
X82.44 S0.0118
X82.54 S0.0549
G0 X83.14 S0.0000
G1 X83.24 S0.2627
X83.44 S0.3882
X83.64 S0.0980
X83.84 S0.5882
X84.04 S0.6863
X84.24 S0.1373
X84.44 S0.6941
X84.64 S0.7255
X85.04 S0.9765
X85.24 S0.2824
X85.44 S0.2431
X85.64 S0.5216
X85.84 S0.2471
X86.04 S0.0157
X86.24 S0.8941
X86.64 S0.9765
X86.84 S1.0000
X87.04 S0.5098
X87.24 S0.3020
X87.44 S0.5490
X87.64 S0.3686
X87.84 S0.4118
X88.04 S0.2196
X88.24 S0.0235
X88.44 S0.6431
X88.64 S0.9647
X88.84 S0.6078
X89.04 S0.4941
X89.24 S0.0118
X89.44 S0.0431
X89.64 S0.5098
X89.84 S0.1333
X90.04 S0.9922
X90.24 S0.6784
X90.44 S0.0627
X90.64 S0.4078
X90.84 S0.0510
X91.04 S0.2275
X91.24 S0.0980
X91.44 S0.6431
X91.64 S0.8667
X91.84 S0.1020
X92.04 S0.4118
X92.24 S0.2667
X92.44 S0.3176
X92.64 S0.0392
X92.74 S0.0314
G0 X93.14 S0.0000
G1 X93.24 S0.0157
G0 X108.94 S0.0000
G1 X109.04 S0.1137
X109.24 S0.9373
X109.44 S1.0000
X109.54 S0.4392
G0 Y-5.16 S0.0000
G1 X109.44 S0.2039
X109.04 S1.0000
X108.94 S0.5804
G0 X93.34 S0.0000
G1 X93.24 S0.2157
X93.04 S0.8039
X92.84 S0.8392
X92.64 S0.2157
X92.44 S0.4039
X92.24 S0.9608
X92.14 S0.9922
G0 X91.74 S0.0000
G1 X91.64 S1.0000
X91.44 S0.5529
X91.24 S0.2627
X91.04 S0.6980
X90.94 S0.5608
G0 X90.54 S0.0000
G1 X90.44 S0.3686
X90.24 S0.5961
X90.04 S0.5608
X89.84 S0.1098
X89.64 S0.5412
X89.44 S0.8824
X89.24 S0.1373
X89.04 S0.7686
X88.84 S0.9412
X88.64 S0.0824
X88.44 S0.4824
X88.24 S0.0588
X88.04 S0.8078
X87.84 S0.9882
X87.74 S0.5490
G0 X87.34 S0.0000
G1 X87.24 S0.2392
X87.04 S0.5176
X86.84 S0.2431
X86.64 S0.4824
X86.54 S0.1412
G0 X86.14 S0.0000
G1 X86.04 S0.0275
X85.84 S0.3255
X85.64 S0.5961
X85.44 S0.8667
X85.24 S0.4824
X85.14 S0.2235
G0 X84.74 S0.0000
G1 X84.64 S0.0510
X84.44 S0.5569
X84.24 S0.5176
X84.14 S0.2824
G0 X83.74 S0.0000
G1 X83.64 S0.3216
X83.44 S0.7451
X83.24 S0.3333
X83.04 S0.0431
X82.84 S0.2275
X82.64 S0.0510
X82.44 S0.2627
X82.24 S0.0588
X82.04 S0.3020
X81.94 S0.3137
G0 X81.34 S0.0000
G1 X81.24 S0.1843
X81.14 S0.0471
G0 X72.54 S0.0000
G1 X72.44 S0.8784
X72.24 S0.0510
X72.04 S0.2667
X71.94 S0.0196
G0 X71.54 S0.0000
G1 X71.44 S0.0863
X71.24 S0.4824
X71.04 S0.0824
X70.84 S0.2353
X70.64 S0.7686
X70.44 S0.0078
X69.84 S1.0000
X69.64 S0.0078
X69.44 S0.3137
X69.24 S0.0784
X69.04 S0.2314
X68.84 S0.7608
X68.64 S0.0314
X68.44 S0.0784
X68.24 S0.0078
X68.04 S0.0353
X67.84 S0.6431
X67.64 S0.6353
X67.44 S0.1765
X67.24 S0.5176
X67.04 S0.4039
X66.84 S0.8784
X66.64 S0.2980
X66.44 S0.4627
X66.34 S0.0745
G0 X65.94 S0.0000
G1 X65.84 S0.0275
X65.64 S0.0353
X65.44 S0.2078
X65.24 S0.7294
X64.64 S1.0000
X64.44 S0.3020
X64.24 S0.1922
X64.04 S0.5176
X63.84 S0.3137
X63.64 S0.3490
X63.44 S0.0314
X63.04 S0.5176
X62.94 S0.0745
G0 X62.54 S0.0000
G1 X62.44 S0.6431
X62.24 S0.5804
X62.04 S0.5765
X61.84 S0.0627
X61.64 S0.4627
X61.44 S0.0039
X61.24 S0.2392
X61.04 S0.2784
X60.84 S0.2863
X60.64 S0.4863
X60.44 S0.7647
X60.24 S0.8549
X60.14 S0.7137
G0 X59.74 S0.0000
G1 X59.64 S0.3176
X59.44 S0.2353
X59.24 S0.0471
X59.14 S0.4627
G0 X51.34 S0.0000
G1 X51.24 S0.1333
X51.04 S0.1294
X50.84 S0.8431
X50.74 S0.6784
G0 X50.34 S0.0000
G1 X50.24 S0.4235
X50.04 S0.9686
X49.94 S0.3098
G0 X49.54 S0.0000
G1 X49.44 S0.4627
X49.24 S0.1176
X49.04 S0.2745
X48.84 S0.1294
X48.64 S0.6431
X48.44 S0.9569
X48.24 S0.6039
X48.04 S0.4824
X47.84 S1.0000
X47.64 S0.4627
X47.44 S0.0431
X47.24 S0.5176
X47.04 S0.6118
X46.84 S0.6863
X46.64 S0.4039
X46.54 S0.2824
G0 X46.14 S0.0000
G1 X46.04 S0.6039
X45.64 S1.0000
X45.44 S0.9333
X45.24 S0.6706
X45.04 S0.5294
X44.94 S0.4157
G0 X44.54 S0.0000
G1 X44.44 S0.0235
X44.04 S0.0784
X43.84 S0.1333
X43.64 S0.5294
X43.44 S0.6863
X41.84 S1.0000
X41.64 S0.5216
X41.44 S0.0275
X41.24 S0.2392
X41.04 S0.5098
X40.84 S0.8353
X40.44 S0.0941
X40.24 S0.8824
X40.04 S0.9765
X39.84 S0.9098
X39.64 S0.5961
X39.54 S0.4078
G0 X39.14 S0.0000
G1 X39.04 S0.3804
X38.84 S0.9255
X38.64 S0.5961
X38.44 S0.5686
X38.24 S0.8627
X38.14 S0.1176
G0 X37.74 S0.0000
G1 X37.64 S0.5137
X37.44 S0.3059
X37.34 S0.0196
G0 X36.94 S0.0000
G1 X36.84 S0.4353
X36.64 S0.4314
X36.44 S0.4431
X36.24 S0.6431
X36.04 S0.0745
X35.94 S0.1216
G0 X34.94 S0.0000
G1 X34.84 S0.3608
X34.74 S0.0941
G0 X12.14 S0.0000
G1 X12.04 S0.6471
X11.64 S1.0000
X11.44 S0.4941
X11.24 S0.0039
X11.04 S0.8392
X10.94 S0.8157
G0 X10.54 S0.0000
G1 X10.44 S0.1490
X10.24 S0.9294
X9.84 S1.0000
X9.64 S0.0510
X9.44 S0.9765
X9.24 S1.0000
X9.14 S0.9059
G0 X8.74 S0.0000
G1 X8.64 S0.2078
X8.44 S0.7451
X8.24 S1.0000
X8.04 S0.0863
X7.84 S0.2549
X7.64 S1.0000
X7.54 S0.4706
G0 X1.74 S0.0000
G1 X1.64 S0.2471
X1.44 S0.9098
X1.34 S1.0000
G0 Y-4.96 S0.0000
G1 X1.44 S0.2902
X1.64 S1.0000
X1.84 S0.8941
X1.94 S0.0118
G0 X7.54 S0.0000
G1 X7.64 S0.0157
X7.84 S0.5725
X8.04 S0.0510
X8.24 S0.7490
X8.44 S0.3216
X8.84 S1.0000
X9.04 S0.6863
X9.24 S0.9647
X9.44 S1.0000
X9.64 S0.8902
X9.84 S0.2824
X10.24 S1.0000
X10.44 S0.9020
X10.64 S0.3451
X10.84 S0.0510
X11.04 S0.1490
X11.24 S1.0000
X11.34 S0.8980
G0 X11.74 S0.0000
G1 X11.84 S0.9725
X12.04 S1.0000
X12.24 S0.6784
X12.34 S0.2235
G0 X33.94 S0.0000
G1 X34.04 S0.0863
G0 X34.54 S0.0000
G1 X34.64 S0.2235
X34.84 S0.6392
X35.04 S0.4196
X35.24 S0.0039
X35.44 S0.1843
X35.64 S0.0824
X35.84 S0.0706
X36.04 S0.0588
X36.24 S0.7412
X36.44 S0.3176
X36.64 S0.2471
X36.84 S0.6471
X37.04 S0.0196
X37.24 S0.3686
X37.84 S1.0000
X38.04 S0.2980
X38.24 S0.1647
X38.44 S0.9647
X38.64 S0.8863
X39.04 S1.0000
X39.24 S0.2824
X39.44 S0.7216
X39.64 S0.8980
X39.84 S0.8000
X39.94 S0.7216
G0 X40.54 S0.0000
G1 X40.64 S0.0941
X40.84 S0.1373
X41.04 S0.2431
X41.24 S0.1412
X41.44 S0.4784
X41.54 S0.7608
G0 X41.94 S0.0000
G1 X42.04 S0.4353
X42.24 S0.1569
X42.64 S0.3412
X42.84 S0.0275
X43.04 S0.0627
X43.24 S0.2392
X43.64 S0.3412
X43.84 S0.1882
X44.04 S0.8431
X44.24 S0.7255
X44.44 S0.0980
X44.64 S0.0902
X44.84 S0.4196
X45.04 S0.6784
X45.24 S0.6588
X45.44 S0.2863
X45.64 S0.6314
X45.74 S0.3608
G0 X46.14 S0.0000
G1 X46.24 S0.0745
X46.44 S0.5098
X46.64 S0.5412
X46.84 S0.7961
X47.64 S1.0000
X47.84 S0.0471
X48.04 S0.0980
X48.14 S0.0824
G0 X49.14 S0.0000
G1 X49.24 S0.2275
X49.44 S0.3569
X49.64 S0.6627
X49.84 S0.4471
X50.04 S0.0471
X50.24 S0.1137
X50.44 S0.5922
X50.64 S0.3765
X50.84 S0.0784
X50.94 S0.2196
G0 X51.54 S0.0000
G1 X51.64 S0.1804
G0 X58.94 S0.0000
G1 X59.04 S0.0118
X59.14 S0.2549
G0 X59.54 S0.0000
G1 X59.64 S0.3647
X59.84 S0.0392
X60.04 S0.4706
X60.24 S0.7686
X60.44 S0.8549
X60.54 S0.8039
G0 X61.14 S0.0000
G1 X61.24 S0.1137
X61.44 S0.5020
X61.54 S0.8941
G0 X61.94 S0.0000
G1 X62.04 S0.2902
X62.24 S1.0000
X62.44 S0.9686
X62.64 S0.7020
X62.84 S0.2118
X63.24 S1.0000
X63.44 S0.8745
X63.64 S0.2118
X63.84 S1.0000
X64.04 S0.8353
X64.24 S0.2667
X64.44 S0.0902
X64.64 S0.4941
X64.84 S0.8392
X65.04 S0.6588
X65.24 S0.5647
X65.34 S0.4431
G0 X65.74 S0.0000
G1 X65.84 S0.3882
X66.04 S0.7569
X66.24 S0.7451
X66.44 S0.3137
X66.64 S0.6392
X66.84 S0.5098
X67.04 S0.4039
X67.24 S0.8627
X67.44 S0.7137
X67.64 S0.2235
X67.84 S0.9373
X68.04 S0.6039
X68.24 S0.7137
X68.44 S0.7686
X68.64 S0.9451
X68.84 S0.4235
X69.04 S0.9451
X69.24 S1.0000
X69.44 S0.2118
X69.64 S0.0706
X69.84 S0.0627
X70.04 S0.0353
X70.24 S0.5961
X70.44 S1.0000
X70.64 S0.5608
X70.84 S0.1333
X71.04 S0.9451
X71.24 S0.6157
X71.44 S0.7333
X71.64 S0.8235
X71.84 S0.2039
X72.04 S0.8039
X72.24 S0.9961
X72.34 S0.2510
G0 X72.74 S0.0000
G1 X72.84 S0.2627
X72.94 S0.0078
G0 X80.74 S0.0000
G1 X80.84 S0.0863
X81.04 S0.9961
X81.24 S0.0039
X81.44 S0.0275
X81.54 S0.0314
G0 X82.14 S0.0000
G1 X82.24 S0.0549
X82.44 S0.7882
X82.64 S0.9529
X82.84 S0.3490
X83.04 S0.1451
X83.24 S0.4235
X83.44 S0.4039
X83.64 S1.0000
X83.84 S0.3294
X84.04 S0.3922
X84.24 S0.1843
X84.44 S0.8392
X84.64 S1.0000
X84.84 S0.9020
X85.04 S0.0314
X85.24 S0.3059
X85.44 S0.3412
X85.64 S0.2392
X85.84 S0.9569
X86.04 S0.7529
X86.24 S0.1412
X86.44 S1.0000
X86.64 S0.2431
X86.84 S0.1216
X87.04 S0.7176
X87.44 S1.0000
X87.64 S0.7137
X87.84 S0.2824
X88.04 S0.9020
X88.24 S0.5765
X88.44 S0.0980
X88.64 S0.7059
X89.24 S1.0000
X89.44 S0.7765
X89.64 S0.7373
X89.84 S0.7216
X90.04 S0.3216
X90.24 S0.5686
X90.44 S0.7686
X90.64 S0.9451
X90.74 S0.4078
G0 X91.14 S0.0000
G1 X91.24 S0.5765
X91.44 S0.0784
X91.64 S0.2510
X91.84 S0.9333
X92.04 S0.6784
X92.24 S0.2627
X92.44 S1.0000
X92.54 S0.3412
G0 X92.94 S0.0000
G1 X93.04 S0.3294
X93.24 S0.3020
X93.44 S0.6980
X93.64 S0.1176
X93.84 S0.0627
X94.04 S0.1059
X94.14 S0.0588
G0 X108.74 S0.0000
G1 X108.84 S0.0235
X109.04 S0.8549
X109.24 S1.0000
X109.34 S0.6980
G0 Y-4.76 S0.0000
G1 X109.24 S0.4784
X109.04 S1.0000
X108.84 S0.9843
X108.74 S0.2078
G0 X94.24 S0.0000
G1 X94.14 S0.0118
G0 X93.74 S0.0000
G1 X93.64 S0.0275
X93.44 S0.3451
X93.24 S0.3294
X93.14 S0.4941
G0 X92.74 S0.0000
G1 X92.64 S0.3804
X92.44 S0.6275
X92.24 S0.2863
X92.04 S0.0118
X91.84 S0.3059
X91.74 S0.0431
G0 X91.34 S0.0000
G1 X91.24 S0.5725
X91.14 S0.1412
G0 X90.74 S0.0000
G1 X90.64 S0.2980
X90.44 S0.9922
X90.24 S1.0000
X90.04 S0.0706
X89.84 S0.9569
X89.64 S1.0000
X89.44 S0.3255
X89.24 S0.9216
X88.84 S1.0000
X88.64 S0.2627
X88.44 S0.6275
X88.24 S1.0000
X88.04 S0.0196
X87.94 S0.2549
G0 X87.54 S0.0000
G1 X87.44 S0.4588
X87.04 S1.0000
X86.84 S0.1765
X86.64 S0.8588
X86.44 S0.8667
X86.24 S0.8980
X86.04 S0.3098
X85.84 S0.4196
X85.64 S0.3294
X85.44 S0.7922
X85.04 S1.0000
X84.84 S0.9098
X84.64 S0.1490
X84.44 S0.6706
X84.24 S0.3255
X84.04 S0.3725
X83.84 S0.0196
X83.64 S0.0824
X83.44 S0.5137
X83.24 S1.0000
X83.04 S0.1333
X82.84 S0.0745
X82.64 S0.0902
X82.44 S0.2196
X82.24 S0.0314
X82.04 S0.6235
X81.94 S0.3137
G0 X81.54 S0.0000
G1 X81.44 S0.2275
X81.24 S0.0784
X81.04 S0.4667
X80.84 S0.2980
X80.74 S0.2902
G0 X72.94 S0.0000
G1 X72.84 S0.0275
X72.64 S0.0824
X72.44 S0.1843
X72.24 S0.7529
X72.04 S0.6980
X71.84 S0.0824
X71.64 S0.0784
X71.44 S0.0588
X71.24 S0.0549
X70.84 S0.9451
X70.64 S0.3137
X70.44 S0.8588
X70.24 S1.0000
X70.04 S0.1569
X69.84 S0.8196
X69.64 S0.8941
X69.44 S0.0392
X69.24 S0.7020
X69.04 S1.0000
X68.84 S0.6000
X68.64 S0.0078
X68.44 S0.6667
X68.24 S0.8667
X68.04 S0.9373
X67.84 S0.2980
X67.64 S0.5961
X67.44 S0.3020
X67.24 S0.5294
X67.04 S0.2627
X66.84 S0.5098
X66.64 S0.2863
X66.44 S0.0157
X66.24 S0.1412
X66.04 S0.5843
X65.84 S1.0000
X65.64 S0.5373
X65.44 S0.2784
X65.24 S0.6667
X64.84 S0.8667
X64.64 S0.7647
X64.44 S0.0824
X64.24 S0.8549
X64.04 S0.6745
X63.84 S0.3647
X63.64 S1.0000
X63.44 S0.4431
X63.24 S0.9098
X63.04 S0.6745
X62.84 S0.9176
X62.64 S0.9451
X62.44 S0.0549
X62.24 S0.6510
X62.04 S1.0000
X61.84 S0.8549
X61.64 S0.0392
X61.44 S0.7412
X61.24 S0.6078
X61.04 S0.4157
X60.94 S0.6118
G0 X60.54 S0.0000
G1 X60.44 S0.0549
X60.24 S0.0118
X60.04 S0.6157
X59.84 S0.2353
X59.64 S0.0471
X59.44 S0.6784
X59.24 S0.4549
X59.04 S0.4667
X58.84 S0.0745
X58.64 S0.0431
X58.54 S0.0902
G0 X51.74 S0.0000
G1 X51.64 S0.1176
X51.54 S0.0078
G0 X50.94 S0.0000
G1 X50.84 S0.3294
X50.64 S0.8353
X50.44 S0.3961
X50.24 S0.1961
X50.04 S0.0196
X49.84 S0.1059
X49.64 S0.8902
X49.44 S0.9333
X49.24 S0.9412
X49.14 S0.1922
G0 X48.74 S0.0000
G1 X48.64 S0.5922
X48.44 S0.2588
X48.24 S0.8667
X48.04 S0.8588
X47.84 S0.8667
X47.64 S0.0078
X47.44 S0.6314
X46.64 S1.0000
X46.44 S0.8157
X46.24 S0.1333
X46.04 S0.4000
X45.84 S0.3020
X45.64 S0.4118
X45.44 S0.4157
X45.24 S0.2784
X45.04 S0.6784
X44.84 S0.8941
X44.64 S0.9412
X44.44 S0.8980
X44.24 S0.6980
X44.04 S0.2510
X43.84 S0.5686
X43.44 S1.0000
X43.24 S0.9412
X43.04 S0.6980
X42.84 S0.4431
X42.64 S0.8824
X42.24 S1.0000
X42.04 S0.7804
X41.84 S1.0000
X41.64 S0.3020
X41.44 S0.0039
X41.24 S0.8627
X41.04 S1.0000
X40.84 S0.8784
X40.64 S0.9529
X40.44 S0.4275
X40.24 S0.7412
X40.04 S0.5961
X39.84 S0.0196
X39.64 S0.5647
X39.44 S0.0118
X39.24 S0.0667
X39.04 S0.0275
X38.84 S0.1412
X38.64 S0.6549
X38.44 S0.8000
X38.24 S0.5059
X38.04 S0.6667
X37.84 S0.0392
X37.64 S0.9451
X37.44 S1.0000
X37.24 S0.9373
X37.04 S1.0000
X36.84 S0.2196
X36.64 S0.0863
X36.44 S0.5922
X36.24 S0.4627
X36.04 S0.1686
X35.84 S0.0706
X35.64 S0.3412
X35.44 S0.2275
X35.24 S0.5569
X35.14 S0.2588
G0 X34.74 S0.0000
G1 X34.64 S0.1020
X34.54 S0.3451
G0 X33.94 S0.0000
G1 X33.84 S0.1255
X33.74 S0.0745
G0 X12.34 S0.0000
G1 X12.24 S0.4745
X12.04 S0.8627
X11.84 S1.0000
X11.64 S0.4941
X11.44 S0.2039
X11.24 S1.0000
X11.04 S0.8392
X10.84 S0.0039
X10.64 S0.7490
X10.44 S0.0471
X10.24 S0.9137
X10.04 S1.0000
X9.84 S0.6235
X9.64 S0.0118
X9.44 S0.4392
X9.24 S0.8275
X9.04 S0.1843
X8.84 S1.0000
X8.64 S0.8471
X8.54 S0.9961
G0 X8.14 S0.0000
G1 X8.04 S0.0980
X7.84 S0.6431
X7.64 S0.2196
X7.54 S0.0078
G0 X1.94 S0.0000
G1 X1.84 S0.1804
X1.64 S1.0000
X1.44 S0.9804
X1.34 S0.0392
G0 X1.54 Y-4.56 S0.0000
G1 X1.64 S0.5843
X1.84 S0.9412
X2.04 S0.8039
X2.14 S0.0039
G0 X7.74 S0.0000
G1 X7.84 S0.0039
X7.94 S0.8078
G0 X8.54 S0.0000
G1 X8.64 S0.1608
X8.84 S0.8235
X9.04 S1.0000
X9.24 S0.9176
X9.44 S0.4157
X9.64 S0.5176
X9.84 S1.0000
X10.04 S0.4706
X10.24 S0.4745
X10.44 S0.5294
X10.64 S0.9765
X10.74 S0.1255
G0 X11.14 S0.0000
G1 X11.24 S0.3373
X11.44 S1.0000
X11.64 S0.8431
X11.84 S0.7333
X12.24 S1.0000
X12.44 S0.6000
X12.54 S0.0980
G0 X20.34 S0.0000
G1 X20.44 S0.1059
X20.64 S0.9765
X20.74 S0.0275
G0 X21.14 S0.0000
G1 X21.24 S0.1098
X21.44 S0.4588
X21.54 S0.3216
G0 X33.34 S0.0000
G1 X33.44 S0.0471
G0 X33.74 S0.0000
G1 X33.84 S0.2784
X34.04 S0.4667
X34.24 S0.1569
X34.44 S0.0157
X34.54 S0.4510
G0 X35.14 S0.0000
G1 X35.24 S0.5333
X35.44 S0.5059
X35.64 S0.5098
X35.84 S0.6078
X36.04 S0.2902
X36.24 S0.5490
X36.44 S0.9804
X36.64 S1.0000
X36.84 S0.1686
X37.04 S0.2784
X37.24 S0.9961
X37.64 S1.0000
X37.84 S0.1608
X38.04 S0.0510
X38.24 S0.4588
X38.44 S0.5176
X38.54 S0.0157
G0 X39.14 S0.0000
G1 X39.24 S0.5647
X39.44 S0.9098
X39.64 S0.8941
X39.84 S0.6784
X40.04 S0.0627
X40.24 S0.7765
X40.44 S0.5333
X40.64 S0.9725
X40.84 S0.4784
X41.04 S0.5765
X41.24 S0.9765
X41.44 S1.0000
X41.64 S0.0157
X41.84 S0.4275
X42.44 S1.0000
X42.64 S0.7412
X42.74 S0.0980
G0 X43.14 S0.0000
G1 X43.24 S0.7882
X43.44 S0.9765
X43.64 S1.0000
X43.84 S0.9882
X44.04 S0.1255
X44.24 S0.1098
X44.44 S0.8667
X45.24 S1.0000
X45.44 S0.4235
X45.64 S0.3608
X45.84 S0.4588
X46.04 S0.9725
X46.24 S0.9765
X46.34 S0.3686
G0 X46.74 S0.0000
G1 X46.84 S0.0157
X47.24 S0.0235
X47.34 S0.0196
G0 X47.74 S0.0000
G1 X47.84 S0.3804
X48.04 S0.9804
X48.44 S1.0000
X48.64 S0.9961
X48.84 S0.1725
X49.04 S0.8196
X49.24 S0.2275
X49.44 S0.4902
X49.64 S0.4863
X49.84 S0.6902
X49.94 S0.4314
G0 X50.54 S0.0000
G1 X50.64 S0.0196
X50.84 S0.2980
X51.04 S0.6745
X51.24 S0.6549
X51.44 S0.0863
X51.64 S0.0275
X51.74 S0.4980
G0 X52.34 S0.0000
G1 X52.44 S0.2353
G0 X58.14 S0.0000
G1 X58.24 S0.4667
X58.44 S0.2431
X58.64 S0.2745
X58.84 S0.1255
X59.04 S0.0039
X59.14 S0.6784
G0 X59.54 S0.0000
G1 X59.64 S0.3922
X59.84 S0.2039
X59.94 S0.0118
G0 X60.34 S0.0000
G1 X60.44 S0.3137
X60.64 S0.2667
X60.84 S0.7333
X61.04 S0.0353
X61.24 S0.3059
X61.34 S0.4706
G0 X61.74 S0.0000
G1 X61.84 S0.4549
X62.04 S0.0196
X62.24 S0.4431
X62.44 S0.5373
X62.64 S0.6196
X62.84 S0.8039
X63.04 S0.2588
X63.24 S0.1843
X63.44 S0.0118
X63.64 S0.5373
X63.84 S0.0588
X64.04 S0.0235
X64.24 S0.0549
X64.44 S0.1686
X64.64 S0.2353
X64.84 S0.6275
X65.04 S0.9922
X65.24 S0.7765
X65.44 S0.5412
X65.64 S0.0118
X65.84 S0.0706
X66.04 S0.1765
X66.24 S0.0235
X66.44 S0.0353
X66.64 S0.4706
X66.84 S0.3216
X66.94 S0.3255
G0 X67.34 S0.0000
G1 X67.44 S0.0196
X67.64 S0.4314
X67.84 S0.2941
X68.04 S0.7373
X68.24 S0.1608
X68.44 S0.0196
X68.64 S0.4706
X68.84 S0.1725
X69.04 S0.0039
X69.24 S0.4941
X69.44 S0.9961
X69.64 S0.1294
X70.04 S1.0000
X70.24 S0.2588
X70.44 S0.1451
X70.64 S0.4902
X70.84 S0.0392
X71.04 S0.9608
X71.24 S1.0000
X71.44 S0.9725
X71.64 S0.0118
X71.84 S0.6706
X71.94 S0.6471
G0 X72.34 S0.0000
G1 X72.44 S0.2902
X72.64 S0.9922
X72.84 S0.0471
X73.04 S0.7216
X73.14 S0.7176
G0 X80.34 S0.0000
G1 X80.44 S0.6941
X80.54 S0.3373
G0 X80.94 S0.0000
G1 X81.04 S0.2471
X81.24 S0.4314
X81.44 S0.6980
X81.64 S0.0118
X81.84 S0.0627
X82.04 S0.9961
X82.24 S0.7765
X82.44 S0.1725
X82.64 S0.2314
X82.84 S0.9804
X83.04 S0.8314
X83.24 S0.2980
X83.34 S0.0157
G0 X83.74 S0.0000
G1 X83.84 S0.1765
X84.04 S0.7451
X84.24 S0.5333
X84.34 S0.3020
G0 X84.74 S0.0000
G1 X84.84 S0.2353
X85.24 S1.0000
X85.44 S0.7451
X85.64 S0.6784
X85.84 S0.2549
X86.04 S0.2863
X86.24 S0.0510
X86.44 S0.7882
X86.64 S0.9686
X86.74 S0.5333
G0 X87.34 S0.0000
G1 X87.44 S0.2784
X87.64 S0.9765
X87.84 S1.0000
X88.04 S0.9882
X88.24 S0.0118
X88.44 S0.9686
X88.64 S1.0000
X88.84 S0.7961
X89.04 S0.0118
X89.24 S0.2431
X89.44 S0.4745
X89.64 S0.4588
X89.84 S0.0235
X90.04 S0.5333
X90.24 S0.3843
X90.34 S0.2941
G0 X90.74 S0.0000
G1 X90.84 S0.4980
X91.04 S0.9922
X91.24 S0.7255
X91.44 S0.2706
X91.64 S0.9412
X91.84 S0.0706
X92.04 S0.7490
X92.24 S0.9020
X92.34 S0.5451
G0 X92.74 S0.0000
G1 X92.84 S0.4157
X92.94 S0.4078
G0 X93.54 S0.0000
G1 X93.64 S0.2157
G0 X93.94 S0.0000
G1 X94.04 S0.2588
X94.24 S0.3098
X94.34 S0.4235
G0 X94.74 S0.0000
G1 X94.84 S0.1804
G0 X108.54 S0.0000
G1 X108.64 S0.0039
X108.84 S0.7529
X109.04 S0.9137
X109.24 S0.9059
X109.34 S0.0039
G0 X108.94 Y-4.36 S0.0000
G1 X108.84 S0.9725
X108.64 S0.9569
X108.54 S0.0941
G0 X95.24 S0.0000
G1 X95.14 S0.2275
G0 X94.74 S0.0000
G1 X94.64 S0.0039
X94.44 S0.9098
X94.34 S0.1765
G0 X93.94 S0.0000
G1 X93.84 S0.3098
X93.64 S0.3922
X93.54 S0.0431
G0 X93.14 S0.0000
G1 X93.04 S0.2627
X92.84 S0.8745
X92.64 S0.4824
X92.44 S0.2549
X92.24 S0.9216
X92.04 S0.5255
X91.84 S0.0549
X91.64 S0.7804
X91.44 S1.0000
X91.24 S0.2549
X90.84 S1.0000
X90.64 S0.1490
X90.04 S1.0000
X89.84 S0.0784
X89.44 S1.0000
X89.24 S0.7569
X89.04 S0.3176
X88.84 S0.0941
X88.64 S0.5412
X88.44 S0.9059
X88.24 S0.2784
X88.04 S0.9451
X87.84 S1.0000
X87.64 S0.5490
X87.44 S0.9373
X87.24 S0.4627
X86.84 S1.0000
X86.64 S0.9216
X86.44 S0.3412
X86.24 S0.1333
X85.84 S1.0000
X85.64 S0.9569
X85.44 S0.6784
X85.34 S0.1412
G0 X84.94 S0.0000
G1 X84.84 S0.6980
X84.64 S1.0000
X84.44 S0.9255
X84.24 S0.0510
X84.04 S0.5922
X83.84 S1.0000
X83.64 S0.7412
X83.44 S1.0000
X83.24 S0.9333
X83.04 S0.0902
X82.84 S0.4078
X82.64 S1.0000
X82.44 S0.8784
X82.24 S0.1412
X82.04 S0.7647
X81.84 S0.5843
X81.64 S0.0510
X81.54 S0.0627
G0 X81.14 S0.0000
G1 X81.04 S0.1569
X80.84 S0.0431
X80.64 S0.0549
X80.54 S0.4275
G0 X80.14 S0.0000
G1 X80.04 S0.0353
X79.94 S0.0549
G0 X73.94 S0.0000
G1 X73.84 S0.0549
X73.64 S0.3569
X73.44 S0.0235
X73.24 S0.8471
X73.04 S0.6039
X72.94 S0.6078
G0 X72.64 S0.0000
G1 X72.54 S0.4118
G0 X72.14 S0.0000
G1 X72.04 S0.6667
X71.84 S1.0000
X71.64 S0.9451
X71.44 S0.0118
X71.24 S0.8667
X71.04 S0.9725
X70.84 S0.7686
X70.64 S0.2118
X70.44 S0.9373
X70.24 S0.0078
X70.04 S0.6824
X69.84 S0.7961
X69.64 S0.8824
X69.44 S0.1412
X69.24 S0.0510
X69.04 S0.0784
X68.84 S0.8824
X68.64 S0.9255
X68.44 S0.0784
X68.24 S0.6353
X68.04 S0.8863
X67.84 S0.4353
X67.64 S0.0627
X67.44 S0.5098
X67.24 S0.3843
X67.04 S0.9490
X66.94 S0.0392
G0 X66.54 S0.0000
G1 X66.44 S0.0706
X66.24 S0.1176
X66.04 S0.7490
X65.84 S0.7725
X65.64 S0.7647
X65.44 S0.1725
X65.24 S0.6588
X65.04 S0.7961
X64.84 S0.1216
X64.64 S0.7608
X64.44 S0.0745
X64.24 S0.4902
X64.04 S0.7255
X63.84 S0.3804
X63.64 S0.2314
X63.44 S0.1373
X63.24 S0.7294
X63.04 S0.9216
X62.84 S0.9137
X62.64 S0.7176
X62.44 S0.7608
X62.24 S0.9490
X62.04 S0.5765
X61.84 S0.9098
X61.64 S0.1765
X61.44 S1.0000
X61.24 S0.4235
X61.04 S0.1176
X60.84 S0.2745
X60.64 S1.0000
X60.44 S0.8941
X60.24 S0.3373
X60.04 S0.2706
X59.84 S0.0157
X59.64 S0.9255
X59.44 S0.2275
X59.24 S0.5373
X59.14 S0.7294
G0 X58.54 S0.0000
G1 X58.44 S0.3373
X58.24 S0.1529
X58.14 S0.6039
G0 X57.84 S0.0000
G1 X57.74 S0.2157
G0 X52.14 S0.0000
G1 X52.04 S0.1216
X51.84 S0.8000
X51.64 S0.2078
X51.44 S0.3961
X51.24 S0.7843
X51.04 S0.3294
X50.84 S0.0314
X50.64 S0.2980
X50.44 S0.3373
X50.24 S0.6118
X50.04 S0.0784
X49.84 S0.0039
X49.64 S0.3333
X49.44 S0.1882
X49.24 S0.9686
X49.04 S0.9059
X48.84 S0.4510
X48.64 S0.0392
X48.44 S0.9059
X48.24 S0.9020
X48.04 S0.6980
X47.84 S0.4667
X47.64 S0.3725
X47.44 S0.9569
X47.24 S0.8118
X47.04 S0.6588
X46.84 S0.4314
X46.64 S0.0039
X46.44 S0.1059
X46.04 S1.0000
X45.84 S0.9922
X45.64 S0.8863
X45.44 S0.6196
X45.24 S0.0157
X45.04 S0.8745
X44.84 S0.8941
X44.64 S0.6588
X44.44 S0.7373
X44.24 S0.6627
X44.04 S0.2314
X43.84 S0.6039
X43.64 S0.0941
X43.44 S0.2902
X43.24 S0.9059
X43.04 S0.9804
X42.84 S0.8745
X42.74 S0.6275
G0 X42.34 S0.0000
G1 X42.24 S0.6039
X42.04 S0.8863
X41.84 S0.9804
X41.64 S0.3451
X41.44 S0.0588
X41.24 S0.6314
X41.04 S0.9922
X40.84 S0.9490
X40.64 S0.6824
X40.44 S0.2784
X40.24 S1.0000
X40.04 S0.7529
X39.84 S0.2157
X39.64 S0.0196
X39.44 S0.9020
X39.04 S1.0000
X38.84 S0.4039
X38.64 S0.1333
X38.44 S0.5176
X38.24 S0.9608
X38.04 S0.9451
X37.84 S0.9059
X37.74 S0.5961
G0 X37.34 S0.0000
G1 X37.24 S0.1373
X37.04 S0.2941
X36.84 S0.4235
X36.64 S0.1059
X36.44 S0.9804
X36.04 S1.0000
X35.84 S0.4627
X35.64 S0.2235
X35.44 S0.1255
X35.24 S0.4314
X35.04 S0.2314
X34.84 S0.0784
X34.64 S0.7529
X34.44 S0.1882
X34.34 S0.4078
G0 X33.94 S0.0000
G1 X33.84 S0.6392
X33.64 S0.3490
X33.44 S0.7451
X33.24 S0.0275
X33.14 S0.2549
G0 X23.94 S0.0000
G1 X23.84 S0.0941
X23.64 S0.2706
X23.44 S0.5961
X23.24 S0.0706
X23.04 S0.2627
X22.84 S0.3490
X22.64 S0.4157
X22.44 S0.5412
X22.24 S0.4118
X22.04 S0.8039
X21.84 S0.7882
X21.64 S0.4431
X21.44 S0.4627
X21.24 S0.7529
X21.04 S0.9373
X20.84 S1.0000
X20.64 S0.2510
X20.44 S0.7333
X20.24 S0.0196
X20.04 S0.8314
X19.84 S0.6588
X19.64 S0.3529
X19.54 S0.2902
G0 X12.54 S0.0000
G1 X12.44 S0.1176
X12.24 S1.0000
X12.04 S0.8667
X11.84 S0.9059
X11.64 S0.2941
X11.44 S1.0000
X11.34 S0.8980
G0 X10.74 S0.0000
G1 X10.64 S0.0157
X10.24 S1.0000
X10.04 S0.5922
X9.84 S0.7804
X9.44 S1.0000
X9.24 S0.0235
X9.04 S0.5843
X8.84 S0.8118
X8.64 S0.0235
X8.44 S0.1255
X8.24 S1.0000
X8.04 S0.0353
X7.84 S0.5333
X7.74 S0.2549
G0 X2.14 S0.0000
G1 X2.04 S0.1137
X1.84 S0.9412
X1.64 S1.0000
X1.54 S0.1843
G0 Y-4.16 S0.0000
G1 X1.64 S0.0039
X1.84 S0.7804
X2.04 S1.0000
X2.14 S0.6902
G0 X8.14 S0.0000
G1 X8.24 S0.5765
X8.44 S1.0000
X8.64 S0.6275
X8.84 S0.6824
X9.04 S0.2980
X9.24 S0.8627
X9.44 S0.2353
X9.84 S1.0000
X9.94 S0.9020
G0 X10.34 S0.0000
G1 X10.64 S1.0000
X10.84 S0.5137
X10.94 S0.6353
G0 X11.34 S0.0000
G1 X11.44 S0.1098
X11.64 S1.0000
X11.74 S0.1137
G0 X12.14 S0.0000
G1 X12.24 S0.1412
X12.44 S1.0000
X12.64 S0.9961
X12.74 S0.4627
G0 X19.14 S0.0000
G1 X19.24 S0.0078
X19.44 S0.1843
X19.64 S0.3725
X19.84 S0.2941
X19.94 S0.2039
G0 X20.34 S0.0000
G1 X20.44 S0.6000
X20.64 S0.7451
X20.84 S0.2980
X21.04 S0.3529
X21.24 S0.1373
X21.44 S0.1529
X21.64 S0.2941
X21.84 S0.7922
X22.04 S0.7059
X22.24 S0.4314
X22.44 S0.7333
X22.64 S0.1843
X22.84 S0.9529
X23.04 S0.4471
X23.24 S0.8235
X23.44 S0.9686
X23.64 S0.0627
X23.84 S0.2235
X24.04 S0.9961
X24.24 S0.8588
X24.44 S0.4706
X24.54 S0.0824
G0 X32.94 S0.0000
G1 X33.04 S0.2118
X33.24 S0.1412
X33.44 S0.4157
X33.64 S0.5725
X33.84 S0.5529
X34.04 S0.0078
X34.24 S0.3725
X34.44 S0.8902
X34.64 S0.7451
X34.84 S0.7843
X35.04 S0.0980
X35.24 S0.8000
X35.34 S0.2235
G0 X35.74 S0.0000
G1 X35.84 S0.3804
X36.04 S0.8157
X36.24 S0.9216
X36.44 S0.8000
X36.64 S0.2196
X36.84 S0.4824
X37.04 S0.7765
X37.24 S0.9765
X37.34 S0.6275
G0 X37.74 S0.0000
G1 X37.84 S0.5373
X38.04 S0.7098
X38.24 S0.4941
X38.44 S0.7098
X38.64 S0.5608
X38.84 S0.0588
X39.04 S0.9843
X39.24 S0.8824
X39.44 S0.2392
X39.64 S0.0039
X39.84 S0.3608
X40.04 S0.4784
X40.44 S0.1373
X40.64 S0.0078
X40.84 S0.0235
X41.04 S0.1373
X41.24 S0.6078
X41.44 S0.4549
X41.64 S0.0902
X41.84 S0.1373
X41.94 S0.7843
G0 X42.74 S0.0000
G1 X42.84 S0.5412
X43.04 S0.5725
X43.24 S0.2235
X43.44 S0.1059
X43.64 S0.5373
X44.24 S1.0000
X44.44 S0.8392
X44.84 S0.5686
X45.04 S0.5608
X45.24 S0.2196
X45.44 S0.5922
X45.64 S0.9412
X46.24 S1.0000
X46.44 S0.8000
X46.64 S0.2667
X46.84 S0.3961
X47.04 S0.6784
X47.24 S0.3176
X47.44 S0.5686
X47.64 S0.3412
X48.04 S1.0000
X48.24 S0.9176
X48.34 S0.8627
G0 X48.74 S0.0000
G1 X48.84 S0.4941
X49.04 S0.2824
X49.24 S0.2667
X49.44 S0.6392
X49.64 S0.3176
X49.84 S0.7412
X50.04 S0.0078
X50.24 S0.7922
X50.44 S0.6667
X50.64 S0.6039
X50.84 S0.6784
X51.04 S0.7059
X51.24 S0.1020
X51.44 S0.8392
X51.64 S0.7333
X51.84 S0.0706
X52.04 S0.2745
X52.24 S0.1137
X52.34 S0.2549
G0 X58.34 S0.0000
G1 X58.44 S0.0745
X58.64 S0.0902
X58.74 S0.1020
G0 X59.14 S0.0000
G1 X59.24 S0.0196
X59.44 S0.3529
X59.64 S0.3098
X59.84 S0.1255
X60.04 S0.1843
X60.24 S0.6902
X60.44 S0.6745
X60.64 S0.8353
X60.84 S0.8667
X61.04 S0.6196
X61.64 S1.0000
X61.84 S0.7176
X62.04 S0.8941
X62.24 S1.0000
X62.44 S0.9255
X62.64 S0.2000
X62.84 S0.8392
X63.04 S0.8431
X63.24 S0.6196
X63.44 S0.5804
X63.64 S0.1451
X63.84 S0.9333
X64.04 S0.7804
X64.24 S0.2824
X64.44 S0.7059
X64.64 S0.4745
X64.84 S0.7098
X65.04 S0.6941
X65.24 S0.5686
X65.44 S0.1882
X65.64 S0.0706
X65.84 S0.4353
X66.04 S0.1373
X66.24 S0.6471
X66.44 S0.8627
X66.64 S0.5961
X66.84 S0.3333
X67.04 S0.0941
X67.24 S0.9216
X67.44 S0.6863
X67.64 S0.2824
X67.84 S0.2549
X68.04 S0.2627
X68.24 S0.0510
X68.44 S0.1373
X68.64 S0.0745
X68.84 S0.8510
X69.04 S0.8314
X69.24 S0.6902
X69.44 S0.0824
X69.54 S0.7451
G0 X69.94 S0.0000
G1 X70.04 S0.1451
X70.24 S0.3373
X70.44 S0.2275
X70.84 S1.0000
X71.04 S0.3529
X71.24 S0.6275
X71.34 S0.5647
G0 X71.74 S0.0000
G1 X71.84 S0.9176
X72.04 S1.0000
X72.24 S0.9961
X72.44 S0.1020
X72.54 S0.2431
G0 X72.94 S0.0000
G1 X73.04 S0.0902
X73.24 S0.9098
X73.34 S0.8039
G0 X73.94 S0.0000
G1 X74.04 S0.1647
G0 X79.94 S0.0000
G1 X80.04 S0.2314
X80.14 S0.0471
G0 X80.74 S0.0000
G1 X80.84 S0.4078
X81.04 S0.4824
X81.24 S0.1882
X81.44 S0.1686
X81.64 S0.5529
X81.74 S0.7020
G0 X82.14 S0.0000
G1 X82.24 S0.3176
X82.44 S0.4235
X82.64 S0.6863
X82.84 S0.3333
X83.04 S0.0196
X83.24 S0.2941
X83.44 S0.9098
X83.64 S0.6784
X83.84 S0.1020
X84.04 S0.1608
X84.24 S0.0627
X84.44 S0.3412
X84.84 S1.0000
X85.04 S0.3922
X85.24 S0.4863
X85.44 S0.8627
X85.64 S0.4784
X85.84 S0.6824
X86.04 S1.0000
X86.24 S0.3490
X86.44 S0.0196
X86.64 S0.1569
X86.84 S0.4392
X87.24 S1.0000
X87.44 S0.9255
X87.64 S0.0588
X88.04 S0.1373
X88.24 S0.6549
X88.34 S0.5333
G0 X88.74 S0.0000
G1 X88.84 S0.9216
X89.04 S0.7294
X89.24 S0.8627
X89.44 S0.1725
X89.84 S1.0000
X90.04 S0.0157
X90.24 S0.8627
X90.64 S1.0000
X90.84 S0.4431
X91.04 S0.4314
X91.24 S0.9294
X91.44 S0.2941
X91.84 S1.0000
X92.04 S0.5608
X92.24 S0.3804
X92.64 S1.0000
X92.84 S0.0824
X93.04 S0.9529
X93.24 S0.9176
X93.44 S0.4706
X93.64 S0.0627
X93.84 S0.0275
X94.04 S0.1176
X94.24 S0.2353
X94.44 S0.0392
X94.54 S0.3529
G0 X95.34 S0.0000
G1 X95.44 S0.0196
X95.54 S0.0745
G0 X108.54 S0.0000
G1 X108.64 S0.8078
X108.84 S1.0000
X108.94 S0.4314
G0 Y-3.96 S0.0000
G1 X108.84 S0.1255
X108.64 S0.9922
X108.44 S0.9961
X108.34 S0.0627
G0 X95.74 S0.0000
G1 X95.64 S0.2941
X95.44 S0.0157
X95.34 S0.4353
G0 X94.94 S0.0000
G1 X94.84 S0.0039
X94.64 S0.7961
X94.44 S0.3059
X94.24 S0.6588
X94.04 S0.9529
X93.84 S0.8078
X93.64 S0.2667
X93.44 S0.4941
X93.24 S0.0235
X93.04 S0.5804
X92.84 S0.0039
X92.64 S0.0353
X92.44 S0.7294
X92.24 S0.3294
X92.04 S0.3647
X91.64 S0.6039
X91.44 S0.0784
X91.24 S0.3961
X91.04 S0.5765
X90.84 S0.2824
X90.64 S0.2157
X90.44 S0.0353
X90.24 S0.6353
X90.04 S0.0627
X89.84 S0.6745
X89.64 S0.3961
X89.44 S0.3333
X89.24 S0.7059
X89.04 S0.9686
X88.84 S0.9961
X88.64 S0.9647
X88.44 S0.4980
X88.04 S1.0000
X87.84 S0.9843
X87.74 S0.6314
G0 X86.94 S0.0000
G1 X86.84 S0.3765
X86.64 S0.9922
X86.24 S1.0000
X86.14 S0.9294
