G21         ; Set units to mm
G90         ; Absolute positioning


; Pass 0

; First Move
G0 X-11.04 Y-5.31 
; Generated by LaserWeb (lw.raster-to-gcode.js)
; Size       : 0 x 0 mm
; PPI        : x: 300 - y: 300
; PPM        : x: 0.0846666667 - y: 0.0846666667
; Tool diam. : 0.2 mm
; Feed rate  : 4999 mm/min
; Beam range : 0 to 1
; Beam power : 0 to 100 %
; Options    : trimLine, joinPixel

G1 F4999

G0 X-11.04 Y-5.31 S0.0000
G1 X-10.94 S0.0745
G0 Y-5.11 S0.0000
G1 X-11.04 S0.0745
G0 Y-4.91 S0.0000
G1 X-10.94 S0.0745
G0 X20.16 S0.0000
G1 X20.26 S0.0392
X22.06 S0.3922
X22.16 S0.0392
G0 X39.16 S0.0000
G1 X39.26 S0.2392
X40.96 S0.3922
G0 X57.96 S0.0000
G1 X58.06 S0.1373
X59.76 S0.3922
G0 X76.76 S0.0000
G1 X76.86 S0.0039
X78.66 S0.3922
X78.76 S0.0039
G0 X95.76 S0.0000
G1 X97.46 S0.3922
X97.56 S0.3216
G0 X98.36 Y-4.71 S0.0000
G1 X98.26 S0.0039
X98.06 S0.1176
X97.86 S0.6078
X95.46 S1.0000
X95.26 S0.6902
X95.16 S0.1216
G0 X79.36 S0.0000
G1 X79.26 S0.0510
X79.06 S0.1176
X78.86 S0.7490
X76.66 S1.0000
X76.46 S0.7490
X76.26 S0.5176
X76.16 S0.0510
G0 X60.36 S0.0000
G1 X60.26 S0.1216
X60.06 S0.6902
X57.66 S1.0000
X57.46 S0.6078
X57.36 S0.0784
G0 X41.56 S0.0000
G1 X41.46 S0.1412
X41.26 S0.6392
X41.06 S0.9922
X38.86 S1.0000
X38.66 S0.6275
X38.56 S0.1059
G0 X22.76 S0.0000
G1 X22.66 S0.0314
X22.46 S0.1176
X22.26 S0.6980
X20.06 S1.0000
X19.86 S0.7647
X19.66 S0.4392
X19.56 S0.0353
G0 X-10.94 S0.0000
G1 X-11.04 S0.0745
G0 Y-4.51 S0.0000
G1 X-10.94 S0.0745
G0 X19.16 S0.0000
G1 X19.26 S0.0039
X19.46 S0.4235
X19.66 S0.8863
X22.66 S1.0000
X22.86 S0.8824
X22.96 S0.2902
G0 X38.16 S0.0000
G1 X38.26 S0.1725
X38.46 S0.7098
X38.66 S0.9804
X41.66 S1.0000
X41.86 S0.7843
X41.96 S0.0706
G0 X56.96 S0.0000
G1 X57.06 S0.0118
X57.26 S0.5176
X57.46 S0.9451
X60.46 S1.0000
X60.66 S0.6980
X60.76 S0.1216
G0 X75.96 S0.0000
G1 X76.06 S0.4510
X76.26 S0.9098
X79.26 S1.0000
X79.46 S0.9098
X79.56 S0.4510
G0 X94.76 S0.0000
G1 X94.86 S0.1216
X95.06 S0.7020
X98.26 S1.0000
X98.46 S0.5216
X98.56 S0.0118
G0 X98.76 Y-4.31 S0.0000
G1 X98.66 S0.3176
X98.46 S0.9333
X97.86 S1.0000
X97.66 S0.9922
X97.46 S0.8275
X95.86 S0.7098
X95.66 S0.7020
X95.46 S0.9765
X94.86 S1.0000
X94.66 S0.9882
X94.56 S0.7020
G0 X79.76 S0.0000
G1 X79.66 S0.7804
X79.06 S1.0000
X78.86 S0.9961
X78.66 S0.9765
X78.46 S0.7059
X77.06 S0.7098
X76.86 S0.6902
X76.66 S0.9686
X75.86 S1.0000
X75.66 S0.9608
X75.56 S0.1490
G0 X60.96 S0.0000
G1 X60.86 S0.7020
X60.66 S0.9882
X60.06 S1.0000
X59.86 S0.9765
X59.66 S0.7059
X58.26 S0.7098
X58.06 S0.7059
X57.86 S0.9294
X57.66 S0.9922
X57.06 S1.0000
X56.86 S0.9804
X56.76 S0.3176
G0 X42.16 S0.0000
G1 X42.06 S0.2824
X41.86 S0.9843
X41.26 S1.0000
X41.06 S0.9882
X40.86 S0.7882
X39.26 S0.7098
X39.06 S0.7961
X38.86 S0.9882
X38.26 S1.0000
X38.06 S0.9882
X37.86 S0.7647
X37.76 S0.0157
G0 X23.36 S0.0000
G1 X23.26 S0.6196
X23.06 S0.8118
X22.86 S0.9961
X22.46 S1.0000
X22.26 S0.9961
X22.06 S0.9529
X21.86 S0.7137
X20.46 S0.7098
X20.26 S0.7137
X20.06 S0.9569
X19.86 S0.9961
X19.26 S1.0000
X19.06 S0.8118
X18.96 S0.0078
G0 X-10.94 S0.0000
G1 X-11.04 S0.0745
G0 Y-4.11 S0.0000
G1 X-10.94 S0.0745
G0 X18.76 S0.0000
G1 X18.86 S0.5765
X19.06 S0.9922
X19.46 S1.0000
X19.66 S0.9765
X19.86 S0.6667
X20.06 S0.3333
X20.16 S0.0549
G0 X21.96 S0.0000
G1 X22.06 S0.0039
X22.26 S0.0510
X22.46 S0.3412
X22.66 S0.8118
X22.86 S0.9843
X23.46 S1.0000
X23.56 S0.5647
G0 X37.56 S0.0000
G1 X37.66 S0.3255
X38.26 S1.0000
X38.46 S0.9961
X38.66 S0.8824
X38.86 S0.4196
X39.06 S0.0627
X39.16 S0.0196
G0 X40.96 S0.0000
G1 X41.06 S0.0157
X41.26 S0.1059
X41.46 S0.4824
X41.66 S0.8980
X42.26 S1.0000
X42.46 S0.9137
X42.56 S0.1412
G0 X56.36 S0.0000
G1 X56.46 S0.1451
X56.66 S0.8039
X57.26 S1.0000
X57.46 S0.9569
X57.66 S0.6275
X57.86 S0.1294
X57.96 S0.0510
G0 X59.96 S0.0000
G1 X60.06 S0.0588
X60.26 S0.3804
X60.46 S0.8667
X60.66 S0.9961
X61.06 S1.0000
X61.26 S0.9451
X61.36 S0.3059
G0 X75.36 S0.0000
G1 X75.46 S0.5098
X75.66 S0.9686
X76.06 S1.0000
X76.26 S0.9804
X76.46 S0.7137
X76.66 S0.3490
X76.86 S0.0549
X76.96 S0.0039
G0 X78.76 S0.0000
G1 X78.86 S0.0627
X79.06 S0.3451
X79.26 S0.8549
X79.46 S0.9647
X79.86 S1.0000
X80.06 S0.9686
X80.16 S0.2902
G0 X94.16 S0.0000
G1 X94.26 S0.3059
X94.46 S0.9922
X94.86 S1.0000
X95.06 S0.9961
X95.26 S0.8627
X95.46 S0.3843
X95.56 S0.0588
G0 X97.56 S0.0000
G1 X97.66 S0.0275
X97.86 S0.1647
X98.06 S0.6588
X98.26 S0.8902
X98.86 S1.0000
X99.06 S0.8039
X99.16 S0.1412
G0 X99.36 Y-3.91 S0.0000
G1 X99.26 S0.1608
X99.06 S0.9608
X98.66 S1.0000
X98.46 S0.9843
X98.26 S0.5882
X98.06 S0.0588
X97.96 S0.0078
G0 X95.16 S0.0000
G1 X95.06 S0.0118
X94.86 S0.3529
X94.66 S0.9059
X94.26 S1.0000
X94.06 S0.9961
X93.96 S0.7843
G0 X80.36 S0.0000
G1 X80.26 S0.5765
X79.66 S1.0000
X79.46 S0.6667
X79.26 S0.1608
X79.16 S0.0118
G0 X76.36 S0.0000
G1 X76.26 S0.0078
X76.06 S0.1804
X75.86 S0.6745
X75.66 S0.9922
X75.26 S1.0000
X75.06 S0.6902
X74.96 S0.0314
G0 X61.56 S0.0000
G1 X61.46 S0.5961
X61.26 S0.9961
X60.86 S1.0000
X60.66 S0.9059
X60.46 S0.3608
X60.36 S0.0275
G0 X57.56 S0.0000
G1 X57.46 S0.0039
X57.26 S0.1373
X57.06 S0.6392
X56.86 S0.9922
X56.46 S1.0000
X56.26 S0.9608
X56.16 S0.1608
G0 X42.76 S0.0000
G1 X42.66 S0.0667
X42.46 S0.9843
X42.06 S1.0000
X41.86 S0.9843
X41.66 S0.4588
X41.56 S0.0431
G0 X38.56 S0.0000
G1 X38.46 S0.0471
X38.26 S0.3686
X38.06 S0.8784
X37.86 S0.9961
X37.66 S1.0000
X37.46 S0.9961
X37.36 S0.7843
G0 X23.76 S0.0000
G1 X23.66 S0.5529
X23.46 S0.9961
X23.06 S1.0000
X22.86 S0.9059
X22.66 S0.3608
X22.56 S0.0118
G0 X19.76 S0.0000
G1 X19.66 S0.0078
X19.46 S0.1529
X19.26 S0.6745
X19.06 S0.9961
X18.86 S0.9059
X18.66 S0.9451
X18.56 S0.7059
G0 X-10.94 S0.0000
G1 X-11.04 S0.0745
G0 Y-3.71 S0.0000
G1 X-10.94 S0.0745
G0 X18.16 S0.0000
G1 X18.26 S0.0549
X18.66 S0.9686
X18.86 S0.9882
X19.06 S0.8784
X19.26 S0.1098
X19.36 S0.0039
G0 X23.16 S0.0000
G1 X23.26 S0.2745
X23.46 S0.8588
X23.86 S1.0000
X24.06 S0.9725
X24.16 S0.0196
G0 X36.96 S0.0000
G1 X37.06 S0.0471
X37.26 S0.9765
X37.66 S1.0000
X37.86 S0.9490
X38.06 S0.3608
X38.16 S0.0118
G0 X41.76 S0.0000
G1 X41.86 S0.0039
X42.06 S0.0902
X42.26 S0.7216
X42.46 S0.9882
X42.86 S1.0000
X42.96 S0.5569
G0 X55.96 S0.0000
G1 X56.06 S0.0510
X56.46 S1.0000
X56.66 S0.9961
X56.86 S0.7216
X56.96 S0.0863
G0 X60.96 S0.0000
G1 X61.06 S0.3529
X61.26 S0.9843
X61.66 S1.0000
X61.86 S0.7725
X61.96 S0.0392
G0 X74.76 S0.0000
G1 X74.86 S0.0745
X75.46 S1.0000
X75.66 S0.7882
X75.76 S0.1490
G0 X79.56 S0.0000
G1 X79.66 S0.0039
X79.86 S0.2902
X80.06 S0.9255
X80.66 S1.0000
X80.76 S0.0078
G0 X93.56 S0.0000
G1 X93.66 S0.0039
X93.86 S0.7725
X94.26 S1.0000
X94.46 S0.9529
X94.56 S0.3529
G0 X98.56 S0.0000
G1 X98.66 S0.0471
X98.86 S0.6784
X99.06 S0.9922
X99.46 S1.0000
X99.56 S0.5725
G0 X99.96 Y-3.51 S0.0000
G1 X99.86 S0.0078
X99.66 S0.5412
X99.46 S0.9647
X99.26 S1.0000
X99.06 S0.8118
X98.96 S0.2980
G0 X94.36 S0.0000
G1 X94.26 S0.0667
X94.06 S0.8118
X93.86 S0.9922
X93.66 S1.0000
X93.46 S0.7412
X93.36 S0.0196
G0 X80.96 S0.0000
G1 X80.86 S0.3216
X80.46 S1.0000
X80.26 S0.9922
X80.06 S0.5882
X79.96 S0.0431
G0 X75.56 S0.0000
G1 X75.46 S0.0392
X75.26 S0.4314
X75.06 S0.9882
X74.66 S1.0000
X74.56 S0.3216
G0 X62.16 S0.0000
G1 X62.06 S0.1647
X61.46 S1.0000
X61.26 S0.7843
X61.16 S0.1176
G0 X56.56 S0.0000
G1 X56.46 S0.3647
X56.26 S0.8824
X55.86 S1.0000
X55.76 S0.1725
G0 X43.16 S0.0000
G1 X43.06 S0.5176
X42.66 S1.0000
X42.46 S0.8667
X42.36 S0.1451
G0 X37.76 S0.0000
G1 X37.66 S0.0471
X37.46 S0.7725
X37.26 S0.9882
X37.06 S1.0000
X36.86 S0.9882
X36.76 S0.1529
G0 X24.36 S0.0000
G1 X24.26 S0.2667
X24.06 S0.8471
X23.86 S0.9412
X23.66 S0.9569
X23.46 S0.3725
X23.36 S0.0157
G0 X18.96 S0.0000
G1 X18.86 S0.0235
X18.66 S0.4275
X18.46 S0.9725
X18.06 S1.0000
X17.96 S0.3255
G0 X-10.94 S0.0000
G1 X-11.04 S0.0745
G0 Y-3.31 S0.0000
G1 X-10.94 S0.0745
G0 X17.76 S0.0000
G1 X17.86 S0.3373
X18.26 S1.0000
X18.46 S0.9294
X18.66 S0.2549
X18.76 S0.0078
G0 X23.56 S0.0000
G1 X23.66 S0.0039
X23.86 S0.3725
X24.06 S0.9098
X24.46 S1.0000
X24.56 S0.3176
G0 X36.56 S0.0000
G1 X36.66 S0.1412
X36.86 S0.9804
X37.06 S1.0000
X37.26 S0.9961
X37.46 S0.5020
X37.56 S0.0196
G0 X42.56 S0.0000
G1 X42.66 S0.0784
X42.86 S0.9098
X43.26 S1.0000
X43.36 S0.5882
G0 X55.56 S0.0000
G1 X55.66 S0.1686
X55.86 S0.9608
X56.06 S1.0000
X56.26 S0.8824
X56.36 S0.1020
G0 X61.36 S0.0000
G1 X61.46 S0.0510
X61.66 S0.5059
X61.86 S0.9882
X62.06 S1.0000
X62.26 S0.9647
X62.36 S0.1725
G0 X74.36 S0.0000
G1 X74.46 S0.3412
X74.66 S0.9922
X74.86 S1.0000
X75.06 S0.9059
X75.16 S0.2588
G0 X80.36 S0.0000
G1 X80.46 S0.4039
X80.66 S0.9216
X80.86 S1.0000
X81.06 S0.9922
X81.16 S0.3412
G0 X93.16 S0.0000
G1 X93.26 S0.0235
X93.46 S0.7569
X93.66 S1.0000
X93.86 S0.9882
X94.06 S0.5020
X94.16 S0.0196
G0 X99.16 S0.0000
G1 X99.26 S0.0863
X99.46 S0.8392
X99.66 S0.9059
X99.86 S1.0000
X99.96 S0.5333
G0 X100.36 Y-3.11 S0.0000
G1 X100.26 S0.0039
X100.06 S0.5255
X99.86 S1.0000
X99.66 S0.9961
X99.46 S0.6000
X99.36 S0.0196
G0 X93.96 S0.0000
G1 X93.86 S0.0039
X93.66 S0.2235
X93.46 S0.9569
X93.26 S1.0000
X93.06 S0.7294
X92.96 S0.1059
G0 X81.36 S0.0000
G1 X81.26 S0.2941
X80.86 S1.0000
X80.66 S0.9373
X80.56 S0.1059
G0 X74.96 S0.0000
G1 X74.86 S0.1137
X74.66 S0.7137
X74.26 S1.0000
X74.16 S0.2863
G0 X62.56 S0.0000
G1 X62.46 S0.0118
X62.06 S1.0000
X61.86 S0.9333
X61.66 S0.4078
X61.56 S0.0078
G0 X56.16 S0.0000
G1 X56.06 S0.0157
X55.86 S0.6706
X55.46 S1.0000
X55.26 S0.5255
X55.16 S0.0039
G0 X43.56 S0.0000
G1 X43.46 S0.5412
X43.06 S1.0000
X42.86 S0.6549
X42.76 S0.0235
G0 X37.16 S0.0000
G1 X37.06 S0.4392
X36.86 S0.9451
X36.66 S1.0000
X36.46 S0.9686
X36.36 S0.0157
G0 X24.76 S0.0000
G1 X24.66 S0.3059
X24.26 S1.0000
X24.06 S0.8745
X23.96 S0.1020
G0 X18.36 S0.0000
G1 X18.26 S0.1137
X18.06 S0.7412
X17.66 S1.0000
X17.56 S0.3216
G0 X-10.94 S0.0000
G1 X-11.04 S0.0745
G0 Y-2.91 S0.0000
G1 X-10.94 S0.0745
G0 X17.36 S0.0000
G1 X17.46 S0.3255
X17.86 S1.0000
X18.06 S0.8941
X18.16 S0.0824
G0 X24.16 S0.0000
G1 X24.26 S0.1255
X24.46 S0.6902
X24.86 S1.0000
X24.96 S0.1255
G0 X36.16 S0.0000
G1 X36.26 S0.0235
X36.46 S0.7294
X36.66 S1.0000
X36.86 S0.9412
X36.96 S0.2353
G0 X43.16 S0.0000
G1 X43.26 S0.6549
X43.66 S1.0000
X43.76 S0.5412
G0 X54.96 S0.0000
G1 X55.06 S0.0039
X55.26 S0.5451
X55.46 S1.0000
X55.66 S0.9961
X55.76 S0.6392
G0 X61.96 S0.0000
G1 X62.06 S0.2353
X62.26 S0.9255
X62.46 S1.0000
X62.66 S0.7529
X62.76 S0.0078
G0 X73.96 S0.0000
G1 X74.06 S0.0863
X74.26 S0.9020
X74.46 S1.0000
X74.66 S0.6706
X74.76 S0.0039
G0 X80.76 S0.0000
G1 X80.86 S0.0039
X81.06 S0.9137
X81.26 S1.0000
X81.46 S0.9961
X81.56 S0.3647
G0 X92.76 S0.0000
G1 X92.86 S0.1725
X93.06 S0.9961
X93.26 S1.0000
X93.46 S0.9529
X93.56 S0.2353
G0 X99.56 S0.0000
G1 X99.66 S0.0078
X99.86 S0.5922
X100.06 S0.9922
X100.26 S1.0000
X100.46 S0.5412
X100.56 S0.0039
G0 Y-2.71 S0.0000
G1 X100.46 S0.5686
X100.26 S0.9804
X100.06 S0.9922
X99.86 S0.6471
X99.76 S0.0196
G0 X93.36 S0.0000
G1 X93.26 S0.2078
X93.06 S0.9647
X92.86 S1.0000
X92.66 S0.9725
X92.56 S0.1412
G0 X81.76 S0.0000
G1 X81.66 S0.1216
X81.46 S0.9882
X81.26 S1.0000
X81.06 S0.7216
X80.96 S0.1333
G0 X74.56 S0.0000
G1 X74.46 S0.0353
X74.26 S0.7020
X74.06 S1.0000
X73.86 S0.8745
X73.76 S0.0627
G0 X62.76 S0.0000
G1 X62.66 S0.7765
X62.46 S1.0000
X62.26 S0.9451
X62.16 S0.2510
G0 X55.76 S0.0000
G1 X55.66 S0.0157
X55.46 S0.6275
X55.26 S0.9922
X55.06 S0.9137
X54.96 S0.5725
G0 X43.96 S0.0000
G1 X43.86 S0.5647
X43.66 S0.9961
X43.46 S0.9804
X43.26 S0.6353
X43.16 S0.0039
G0 X36.76 S0.0000
G1 X36.66 S0.2510
X36.46 S0.9725
X36.26 S1.0000
X36.16 S0.7608
G0 X24.96 S0.0000
G1 X24.86 S0.9333
X24.66 S1.0000
X24.46 S0.6980
X24.36 S0.0235
G0 X17.96 S0.0000
G1 X17.86 S0.1608
X17.66 S0.7333
X17.26 S1.0000
X17.16 S0.3608
G0 X-10.94 S0.0000
G1 X-11.04 S0.0745
G0 Y-2.51 S0.0000
G1 X-10.94 S0.0745
G0 X16.96 S0.0000
G1 X17.06 S0.3373
X17.46 S1.0000
X17.66 S0.7216
X17.76 S0.0196
G0 X24.56 S0.0000
G1 X24.66 S0.0275
X24.86 S0.7059
X25.06 S1.0000
X25.26 S0.8784
X25.36 S0.0471
G0 X35.76 S0.0000
G1 X35.86 S0.0235
X36.06 S0.7608
X36.26 S1.0000
X36.46 S0.9608
X36.56 S0.2745
G0 X43.56 S0.0000
G1 X43.66 S0.3098
X43.86 S0.9961
X44.06 S1.0000
X44.16 S0.5333
G0 X54.76 S0.0000
G1 X54.86 S0.5961
X55.06 S1.0000
X55.26 S0.9922
X55.36 S0.2745
G0 X62.36 S0.0000
G1 X62.46 S0.2941
X62.66 S0.9725
X62.86 S1.0000
X62.96 S0.7765
G0 X73.56 S0.0000
G1 X73.66 S0.0471
X73.86 S0.8902
X74.06 S1.0000
X74.26 S0.7569
X74.36 S0.0392
G0 X81.16 S0.0000
G1 X81.26 S0.0235
X81.46 S0.7176
X81.86 S1.0000
X81.96 S0.3255
G0 X92.56 S0.0000
G1 X92.66 S0.9608
X92.86 S0.9961
X93.06 S0.9294
X93.16 S0.1647
G0 X100.16 S0.0000
G1 X100.26 S0.3294
X100.46 S0.9961
X100.66 S0.9333
X100.76 S0.5686
G0 X100.96 Y-2.31 S0.0000
G1 X100.86 S0.1765
X100.66 S0.9686
X100.46 S0.9765
X100.26 S0.6902
X100.16 S0.0235
G0 X92.96 S0.0000
G1 X92.86 S0.2588
X92.66 S0.9843
X92.46 S1.0000
X92.36 S0.7882
G0 X82.16 S0.0000
G1 X82.06 S0.3569
X81.86 S0.9922
X81.66 S1.0000
X81.46 S0.8902
X81.36 S0.0471
G0 X74.16 S0.0000
G1 X74.06 S0.0471
X73.86 S0.7490
X73.66 S1.0000
X73.46 S0.8941
X73.36 S0.0706
G0 X63.16 S0.0000
G1 X63.06 S0.7882
X62.86 S1.0000
X62.66 S0.9725
X62.56 S0.2863
G0 X55.36 S0.0000
G1 X55.26 S0.0157
X55.06 S0.5216
X54.86 S1.0000
X54.66 S0.9922
X54.56 S0.1765
G0 X44.36 S0.0000
G1 X44.26 S0.1333
X43.86 S1.0000
X43.66 S0.6039
X43.56 S0.0235
G0 X36.56 S0.0000
G1 X36.46 S0.0039
X36.26 S0.3216
X36.06 S0.9686
X35.86 S1.0000
X35.66 S0.7373
X35.56 S0.0078
G0 X25.36 S0.0000
G1 X25.26 S0.8471
X25.06 S0.9647
X24.86 S0.9490
X24.76 S0.0706
G0 X17.56 S0.0000
G1 X17.46 S0.0392
X17.26 S0.7843
X17.06 S1.0000
X16.86 S0.9922
X16.76 S0.3569
G0 X-10.94 S0.0000
G1 X-11.04 S0.0745
G0 Y-2.11 S0.0000
G1 X-10.94 S0.0745
G0 X16.56 S0.0000
G1 X16.66 S0.3804
X16.86 S0.9961
X17.06 S1.0000
X17.26 S0.8196
X17.36 S0.0196
G0 X24.96 S0.0000
G1 X25.06 S0.1686
X25.26 S0.9294
X25.46 S1.0000
X25.56 S0.6196
G0 X35.56 S0.0000
G1 X35.66 S0.8549
X35.86 S1.0000
X36.06 S0.9882
X36.16 S0.3059
G0 X43.76 S0.0000
G1 X43.86 S0.0118
X44.06 S0.6784
X44.26 S1.0000
X44.46 S0.9882
X44.56 S0.1098
G0 X54.36 S0.0000
G1 X54.46 S0.0745
X54.66 S0.9725
X54.86 S1.0000
X55.06 S0.7765
X55.16 S0.0157
G0 X62.76 S0.0000
G1 X62.86 S0.3451
X63.26 S1.0000
X63.36 S0.7843
G0 X73.16 S0.0000
G1 X73.26 S0.0314
X73.46 S0.9216
X73.66 S1.0000
X73.86 S0.7961
X73.96 S0.0588
G0 X81.56 S0.0000
G1 X81.66 S0.2000
X81.86 S0.8706
X82.06 S1.0000
X82.26 S0.9961
X82.36 S0.2549
G0 X92.16 S0.0000
G1 X92.26 S0.7843
X92.46 S1.0000
X92.66 S0.9882
X92.76 S0.2510
G0 X100.36 S0.0000
G1 X100.46 S0.0196
X100.66 S0.7647
X100.86 S1.0000
X101.06 S0.9725
X101.16 S0.0745
G0 X121.36 Y-1.91 S0.0000
G1 X121.26 S0.2157
X121.06 S0.2745
X120.46 S0.9647
X118.26 S1.0000
X118.06 S0.9843
X117.86 S0.9647
X117.66 S0.9490
X117.36 S0.2745
G0 X101.16 S0.0000
G1 X101.06 S0.9922
X100.86 S0.9451
X100.66 S0.7843
X100.56 S0.0078
G0 X92.56 S0.0000
G1 X92.46 S0.2902
X92.06 S1.0000
X91.96 S0.6941
G0 X82.56 S0.0000
G1 X82.46 S0.0196
X82.26 S0.9765
X82.06 S1.0000
X81.86 S0.9608
X81.76 S0.2471
G0 X73.76 S0.0000
G1 X73.66 S0.2745
X73.46 S0.9725
X73.26 S1.0000
X73.16 S0.5059
G0 X63.56 S0.0000
G1 X63.46 S0.2980
X63.26 S0.9961
X63.06 S1.0000
X62.86 S0.7020
X62.76 S0.0078
G0 X54.96 S0.0000
G1 X54.86 S0.0039
X54.66 S0.7569
X54.46 S1.0000
X54.26 S0.9922
X54.16 S0.1333
G0 X44.76 S0.0000
G1 X44.66 S0.0353
X44.46 S0.9843
X44.26 S0.8941
X44.06 S0.7373
X43.96 S0.0196
G0 X35.96 S0.0000
G1 X35.86 S0.5294
X35.66 S0.9804
X35.46 S1.0000
X35.36 S0.2980
G0 X25.76 S0.0000
G1 X25.66 S0.5569
X25.46 S1.0000
X25.26 S0.9686
X25.16 S0.2078
G0 X17.16 S0.0000
G1 X17.06 S0.0706
X16.86 S0.9373
X16.66 S1.0000
X16.46 S0.9216
X16.36 S0.0549
G0 X0.56 S0.0000
G1 X0.46 S0.0314
X0.06 S0.2745
X-0.14 S0.8157
X-0.34 S0.9647
X-0.54 S0.9961
X-2.74 S1.0000
X-2.94 S0.9843
X-3.14 S0.9647
X-3.34 S0.6902
X-3.54 S0.2745
X-3.64 S0.0118
G0 X-10.94 S0.0000
G1 X-11.04 S0.0745
G0 Y-1.71 S0.0000
G1 X-10.94 S0.0745
G0 X-4.44 S0.0000
G1 X-4.34 S0.0039
X-4.14 S0.0510
X-3.94 S0.6510
X-3.74 S0.9412
X0.86 S1.0000
X1.06 S0.6863
X1.26 S0.6510
X1.46 S0.0510
X1.56 S0.0235
G0 X16.36 S0.0000
G1 X16.46 S0.8980
X16.66 S1.0000
X16.86 S0.9882
X17.06 S0.2549
X17.16 S0.0039
G0 X25.16 S0.0000
G1 X25.26 S0.0039
X25.46 S0.2549
X25.66 S0.9922
X25.86 S1.0000
X25.96 S0.5176
G0 X35.16 S0.0000
G1 X35.26 S0.2902
X35.46 S1.0000
X35.66 S0.9961
X35.86 S0.6157
X35.96 S0.0196
G0 X44.16 S0.0000
G1 X44.26 S0.1922
X44.46 S0.9490
X44.66 S0.9529
X44.76 S0.7686
G0 X53.96 S0.0000
G1 X54.06 S0.0118
X54.26 S0.7608
X54.46 S1.0000
X54.66 S0.9412
X54.76 S0.0902
G0 X62.96 S0.0000
G1 X63.06 S0.0118
X63.26 S0.7020
X63.66 S0.9961
X63.76 S0.3059
G0 X72.96 S0.0000
G1 X73.06 S0.5686
X73.26 S1.0000
X73.46 S0.9569
X73.56 S0.2667
G0 X81.96 S0.0000
G1 X82.06 S0.5412
X82.46 S0.9961
X82.56 S0.5686
G0 X91.76 S0.0000
G1 X91.86 S0.3333
X92.06 S1.0000
X92.26 S0.9922
X92.46 S0.6784
X92.56 S0.0157
G0 X100.76 S0.0000
G1 X100.86 S0.1608
X101.06 S0.9255
X101.26 S1.0000
X101.46 S0.7608
X101.56 S0.0118
G0 X116.36 S0.0000
G1 X116.46 S0.0510
X116.66 S0.5137
X116.86 S0.6588
X121.66 S1.0000
X121.86 S0.7529
X122.06 S0.6510
X122.16 S0.0627
G0 X122.56 Y-1.51 S0.0000
G1 X122.46 S0.0588
X121.06 S1.0000
X120.66 S0.9922
X120.46 S0.9961
X120.26 S0.8588
X118.26 S0.8627
X118.06 S0.9216
X117.66 S0.9922
X116.06 S1.0000
X115.86 S0.9176
X115.76 S0.1686
G0 X101.76 S0.0000
G1 X101.66 S0.0039
X101.46 S0.7529
X101.26 S1.0000
X101.06 S0.9529
X100.96 S0.1686
G0 X92.36 S0.0000
G1 X92.26 S0.0039
X92.06 S0.7255
X91.86 S0.9059
X91.66 S1.0000
X91.56 S0.2314
G0 X82.76 S0.0000
G1 X82.66 S0.5333
X82.46 S1.0000
X82.26 S0.9961
X82.06 S0.6196
X81.96 S0.0039
G0 X73.56 S0.0000
G1 X73.46 S0.0039
X73.26 S0.2941
X73.06 S0.9882
X72.86 S1.0000
X72.76 S0.4471
G0 X63.96 S0.0000
G1 X63.86 S0.0392
X63.66 S0.9412
X63.46 S1.0000
X63.26 S0.9373
X63.16 S0.0784
G0 X54.56 S0.0000
G1 X54.46 S0.1922
X54.26 S0.9843
X54.06 S1.0000
X53.96 S0.7020
G0 X44.96 S0.0000
G1 X44.86 S0.1569
X44.66 S0.9490
X44.46 S0.9961
X44.36 S0.3333
G0 X35.76 S0.0000
G1 X35.66 S0.1412
X35.46 S0.8078
X35.16 S1.0000
G0 X26.16 S0.0000
G1 X26.06 S0.0745
X25.66 S1.0000
X25.46 S0.6314
X25.36 S0.0078
G0 X16.96 S0.0000
G1 X16.86 S0.0078
X16.66 S0.6706
X16.46 S0.9961
X16.26 S0.9216
X16.16 S0.5569
G0 X2.16 S0.0000
G1 X2.06 S0.0392
X1.86 S0.5882
X0.06 S1.0000
X-0.34 S0.9922
X-0.54 S0.9294
X-2.54 S0.8627
X-2.74 S0.8588
X-2.94 S0.9843
X-3.14 S0.9922
X-3.34 S0.9961
X-4.54 S1.0000
X-4.64 S0.4078
G0 X-10.94 S0.0000
G1 X-11.04 S0.0745
G0 Y-1.31 S0.0000
G1 X-10.94 S0.0745
G0 X-5.24 S0.0000
G1 X-5.14 S0.0157
X-4.94 S0.3020
X-4.74 S0.9961
X-4.14 S1.0000
X-3.94 S0.9922
X-3.74 S0.9137
X-3.54 S0.8627
X-3.34 S0.5843
X-3.14 S0.4784
X-2.74 S0.1765
X-2.64 S0.0039
G0 X-0.44 S0.0000
G1 X-0.34 S0.0706
X-0.14 S0.1804
X0.06 S0.2353
X0.26 S0.5922
X0.46 S0.5882
X0.66 S0.8627
X0.86 S0.8980
X1.06 S0.9882
X1.26 S0.9922
X2.26 S1.0000
X2.46 S0.7490
X2.66 S0.1059
X2.76 S0.0078
G0 X15.96 S0.0000
G1 X16.06 S0.2941
X16.26 S0.9412
X16.46 S1.0000
X16.66 S0.8000
X16.76 S0.0118
G0 X25.56 S0.0000
G1 X25.66 S0.0118
X25.86 S0.6196
X26.06 S1.0000
X26.26 S0.9843
X26.36 S0.1176
G0 X34.76 S0.0000
G1 X34.86 S0.0588
X35.06 S0.9765
X35.26 S1.0000
X35.46 S0.9098
X35.56 S0.1490
G0 X44.56 S0.0000
G1 X44.66 S0.5412
X44.86 S0.9569
X45.06 S1.0000
X45.16 S0.3098
G0 X53.76 S0.0000
G1 X53.86 S0.2980
X54.06 S1.0000
X54.26 S0.9922
X54.46 S0.5529
X54.56 S0.0196
G0 X63.36 S0.0000
G1 X63.46 S0.1765
X63.66 S0.9608
X63.86 S0.9922
X64.06 S0.7373
X64.16 S0.0039
G0 X72.56 S0.0000
G1 X72.66 S0.0392
X72.86 S0.9922
X73.06 S1.0000
X73.26 S0.6745
X73.36 S0.0235
G0 X82.16 S0.0000
G1 X82.26 S0.0941
X82.46 S0.8784
X82.66 S0.9882
X82.86 S0.9843
X82.96 S0.1255
G0 X91.36 S0.0000
G1 X91.46 S0.0667
X91.66 S0.8627
X91.86 S1.0000
X92.06 S0.8588
X92.16 S0.1922
G0 X101.16 S0.0000
G1 X101.26 S0.4549
X101.46 S0.9882
X101.66 S1.0000
X101.76 S0.2980
G0 X115.16 S0.0000
G1 X115.26 S0.1412
X115.46 S0.6510
X116.06 S1.0000
X116.66 S0.9961
X116.86 S0.9922
X117.06 S0.9333
X117.26 S0.9020
X117.46 S0.6667
X117.66 S0.6000
X117.86 S0.2314
X118.06 S0.1804
X118.16 S0.0863
G0 X120.56 S0.0000
G1 X120.66 S0.1882
X120.86 S0.1804
X121.06 S0.2314
X121.26 S0.6000
X121.46 S0.7843
X121.66 S0.9059
X121.86 S0.9922
X122.06 S0.9961
X122.46 S1.0000
X122.66 S0.9804
X122.86 S0.4627
X122.96 S0.0510
G0 X123.16 Y-1.11 S0.0000
G1 X123.06 S0.0510
X122.86 S0.8549
X122.46 S1.0000
X122.26 S0.9804
X122.06 S0.8588
X121.86 S0.5765
X121.66 S0.3059
X121.46 S0.0745
X121.36 S0.0314
G0 X117.36 S0.0000
G1 X117.26 S0.0118
X117.06 S0.0549
X116.86 S0.1412
X116.66 S0.3176
X116.46 S0.5098
X116.26 S0.8118
X116.06 S0.9686
X115.86 S0.9843
X115.06 S1.0000
X114.86 S0.7608
X114.66 S0.2745
X114.56 S0.0039
G0 X101.96 S0.0000
G1 X101.86 S0.3333
X101.66 S1.0000
X101.46 S0.9882
X101.26 S0.5098
X101.16 S0.0118
G0 X91.96 S0.0000
G1 X91.86 S0.2157
X91.66 S0.9804
X91.46 S1.0000
X91.36 S0.8941
G0 X82.96 S0.0000
G1 X82.86 S0.9804
X82.66 S0.9882
X82.46 S0.9137
X82.36 S0.1137
G0 X73.16 S0.0000
G1 X73.06 S0.1020
X72.86 S0.8980
X72.66 S1.0000
X72.56 S0.7725
G0 X64.16 S0.0000
G1 X64.06 S0.5137
X63.86 S1.0000
X63.66 S0.9804
X63.46 S0.4471
X63.36 S0.0039
G0 X54.36 S0.0000
G1 X54.26 S0.0118
X54.06 S0.5451
X53.86 S0.9922
X53.66 S1.0000
X53.56 S0.3333
G0 X45.36 S0.0000
G1 X45.26 S0.3098
X45.06 S0.9882
X44.86 S1.0000
X44.66 S0.5569
X44.56 S0.0118
G0 X35.36 S0.0000
G1 X35.26 S0.1647
X35.06 S0.9804
X34.86 S1.0000
X34.76 S0.6588
G0 X26.56 S0.0000
G1 X26.46 S0.0196
X26.26 S0.7098
X26.06 S1.0000
X25.86 S0.8627
X25.76 S0.1216
G0 X16.56 S0.0000
G1 X16.46 S0.1490
X16.26 S0.8941
X16.06 S0.9647
X15.86 S0.9529
X15.76 S0.1608
G0 X3.16 S0.0000
G1 X3.06 S0.1686
X2.86 S0.3490
X2.66 S0.8353
X2.06 S1.0000
X1.86 S0.9961
X1.66 S0.9765
X1.46 S0.9333
X1.26 S0.7451
X1.06 S0.4039
X0.86 S0.3020
X0.66 S0.0549
X0.56 S0.0471
G0 X-3.64 S0.0000
G1 X-3.74 S0.0431
X-3.94 S0.0941
X-4.14 S0.3176
X-4.34 S0.7490
X-4.54 S0.9647
X-4.74 S0.9961
X-5.14 S1.0000
X-5.34 S0.7216
X-5.44 S0.1451
G0 X-10.94 S0.0000
G1 X-11.04 S0.0745
G0 Y-0.91 S0.0000
G1 X-10.94 S0.0745
G0 X-5.84 S0.0000
G1 X-5.74 S0.0039
X-5.54 S0.5137
X-4.94 S1.0000
X-4.74 S0.9412
X-4.54 S0.4471
X-4.44 S0.0902
G0 X1.56 S0.0000
G1 X1.66 S0.0784
X1.86 S0.0941
X2.06 S0.5137
X2.26 S0.9098
X2.46 S0.9922
X3.26 S1.0000
X3.46 S0.9725
X3.56 S0.0431
G0 X15.56 S0.0000
G1 X15.66 S0.0078
X16.06 S1.0000
X16.26 S0.9961
X16.36 S0.2353
G0 X25.96 S0.0000
G1 X26.06 S0.1255
X26.26 S0.9294
X26.46 S1.0000
X26.56 S0.7176
G0 X34.56 S0.0000
G1 X34.66 S0.2353
X35.06 S1.0000
X35.26 S0.4941
X35.36 S0.0039
G0 X44.76 S0.0000
G1 X44.86 S0.0471
X45.06 S0.9137
X45.26 S1.0000
X45.46 S0.9176
X45.56 S0.0235
G0 X53.36 S0.0000
G1 X53.46 S0.0941
X53.86 S1.0000
X54.06 S0.7686
X54.16 S0.0235
G0 X63.76 S0.0000
G1 X63.86 S0.6314
X64.26 S1.0000
X64.36 S0.1255
G0 X72.36 S0.0000
G1 X72.46 S0.5882
X72.66 S1.0000
X72.86 S0.9922
X72.96 S0.1490
G0 X82.56 S0.0000
G1 X82.66 S0.4314
X82.86 S0.9922
X83.06 S1.0000
X83.26 S0.7569
X83.36 S0.0118
G0 X90.96 S0.0000
G1 X91.06 S0.0039
X91.26 S0.5176
X91.46 S1.0000
X91.66 S0.9882
X91.76 S0.5176
G0 X101.36 S0.0000
G1 X101.46 S0.0196
X101.66 S0.7176
X102.06 S1.0000
X102.16 S0.0941
G0 X114.16 S0.0000
G1 X114.26 S0.0392
X114.46 S0.5020
X115.26 S1.0000
X115.46 S0.9961
X115.66 S0.9176
X115.86 S0.5922
X116.06 S0.2392
X116.26 S0.0941
X116.36 S0.0235
G0 X122.16 S0.0000
G1 X122.26 S0.0353
X122.46 S0.1490
X122.66 S0.8980
X122.86 S0.9961
X123.26 S1.0000
X123.46 S0.4941
X123.56 S0.0118
G0 X123.76 Y-0.71 S0.0000
G1 X123.66 S0.0196
X123.46 S0.6941
X123.06 S1.0000
X122.86 S0.8431
X122.66 S0.3216
X122.56 S0.0275
G0 X115.76 S0.0000
G1 X115.66 S0.0039
X115.46 S0.0314
X115.26 S0.3647
X115.06 S0.7137
X114.86 S0.9765
X114.26 S1.0000
X114.06 S0.9725
X113.86 S0.6196
X113.76 S0.1176
G0 X102.16 S0.0000
G1 X102.06 S0.6000
X101.86 S1.0000
X101.66 S0.9725
X101.56 S0.2667
G0 X91.76 S0.0000
G1 X91.66 S0.0275
X91.46 S0.7882
X91.06 S1.0000
X90.96 S0.1804
G0 X83.36 S0.0000
G1 X83.26 S0.2549
X82.86 S1.0000
X82.76 S0.7765
G0 X72.96 S0.0000
G1 X72.86 S0.0039
X72.66 S0.4275
X72.46 S0.9961
X72.26 S0.9843
X72.16 S0.3333
G0 X64.56 S0.0000
G1 X64.46 S0.1608
X64.26 S0.9569
X64.06 S1.0000
X63.86 S0.7804
X63.76 S0.0706
G0 X53.96 S0.0000
G1 X53.86 S0.1686
X53.66 S0.9725
X53.46 S1.0000
X53.36 S0.8667
G0 X45.56 S0.0000
G1 X45.46 S0.8510
X45.26 S1.0000
X45.06 S0.9725
X44.96 S0.0902
G0 X35.16 S0.0000
G1 X35.06 S0.0471
X34.86 S0.8392
X34.66 S1.0000
X34.46 S0.9529
X34.36 S0.1608
G0 X26.76 S0.0000
G1 X26.66 S0.3059
X26.26 S1.0000
X26.16 S0.4941
G0 X16.16 S0.0000
G1 X16.06 S0.4549
X15.86 S0.9961
X15.66 S1.0000
X15.56 S0.7059
G0 X3.96 S0.0000
G1 X3.86 S0.1843
X3.66 S0.6824
X3.46 S0.9922
X2.86 S1.0000
X2.66 S0.9569
X2.46 S0.7137
X2.26 S0.3255
X2.06 S0.0431
X1.96 S0.0039
G0 X-4.84 S0.0000
G1 X-4.94 S0.0588
X-5.14 S0.6314
X-5.34 S0.9765
X-5.74 S1.0000
X-5.84 S0.5137
G0 X-10.94 S0.0000
G1 X-11.04 S0.0745
G0 Y-0.51 S0.0000
G1 X-10.94 S0.0745
G0 X-6.04 S0.0000
G1 X-5.94 S0.5451
X-5.74 S1.0000
X-5.54 S0.9961
X-5.34 S0.8706
X-5.14 S0.2392
X-5.04 S0.0078
G0 X2.56 S0.0000
G1 X2.66 S0.0078
X2.86 S0.0667
X3.06 S0.4000
X3.26 S0.8549
X3.46 S0.9804
X3.86 S1.0000
X4.06 S0.9804
X4.26 S0.5529
X4.36 S0.1098
G0 X15.36 S0.0000
G1 X15.46 S0.0314
X15.66 S0.9451
X15.86 S1.0000
X16.06 S0.8157
X16.16 S0.0118
G0 X26.16 S0.0000
G1 X26.26 S0.0392
X26.46 S0.7569
X26.66 S1.0000
X26.86 S0.9922
X26.96 S0.3020
G0 X34.16 S0.0000
G1 X34.26 S0.1725
X34.46 S0.9569
X34.66 S1.0000
X34.86 S0.8275
X34.96 S0.0471
G0 X44.96 S0.0000
G1 X45.06 S0.0039
X45.26 S0.3725
X45.66 S0.9961
X45.76 S0.5333
G0 X53.16 S0.0000
G1 X53.26 S0.5725
X53.46 S1.0000
X53.66 S0.9922
X53.86 S0.3961
X53.96 S0.0039
G0 X63.96 S0.0000
G1 X64.06 S0.1804
X64.26 S0.8510
X64.46 S1.0000
X64.66 S0.9647
X64.76 S0.0039
G0 X71.96 S0.0000
G1 X72.06 S0.3216
X72.26 S0.9843
X72.46 S1.0000
X72.66 S0.8157
X72.76 S0.0157
G0 X82.76 S0.0000
G1 X82.86 S0.0353
X83.06 S0.8784
X83.26 S1.0000
X83.36 S0.8667
G0 X90.76 S0.0000
G1 X90.86 S0.0471
X91.06 S0.9647
X91.26 S1.0000
X91.46 S0.8314
X91.56 S0.1059
G0 X101.56 S0.0000
G1 X101.66 S0.0039
X101.86 S0.3725
X102.06 S0.9412
X102.26 S0.9490
X102.36 S0.5686
G0 X113.56 S0.0000
G1 X113.66 S0.6196
X113.86 S0.9608
X114.46 S1.0000
X114.66 S0.9294
X114.86 S0.4863
X115.06 S0.1569
X115.16 S0.0078
G0 X122.96 S0.0000
G1 X123.06 S0.0824
X123.26 S0.8549
X123.66 S1.0000
X123.76 S0.7333
G0 X124.16 Y-0.31 S0.0000
G1 X124.06 S0.0118
X123.86 S0.7569
X123.66 S1.0000
X123.46 S0.9922
X123.26 S0.2784
X123.16 S0.0039
G0 X114.36 S0.0000
G1 X114.26 S0.2745
X114.06 S0.8824
X113.86 S0.9961
X113.46 S1.0000
X113.26 S0.9961
X113.06 S0.6157
X112.96 S0.0902
G0 X102.56 S0.0000
G1 X102.46 S0.0980
X102.06 S1.0000
X101.96 S0.7216
G0 X91.36 S0.0000
G1 X91.26 S0.3373
X91.06 S0.9882
X90.76 S1.0000
G0 X83.76 S0.0000
G1 X83.66 S0.0431
X83.46 S0.9176
X83.26 S1.0000
X83.06 S0.9412
X82.96 S0.0196
G0 X72.56 S0.0000
G1 X72.46 S0.0353
X72.26 S0.8196
X71.86 S1.0000
X71.76 S0.3176
G0 X64.76 S0.0000
G1 X64.66 S0.8196
X64.46 S1.0000
X64.26 S0.9804
X64.16 S0.3098
G0 X53.76 S0.0000
G1 X53.66 S0.0039
X53.46 S0.4510
X53.26 S0.9922
X53.06 S1.0000
X52.96 S0.4745
G0 X45.96 S0.0000
G1 X45.86 S0.4431
X45.46 S1.0000
X45.26 S0.4157
X45.16 S0.0039
G0 X34.76 S0.0000
G1 X34.66 S0.2471
X34.46 S0.9843
X34.26 S1.0000
X34.06 S0.7255
X33.96 S0.0118
G0 X27.16 S0.0000
G1 X27.06 S0.2235
X26.66 S1.0000
X26.46 S0.8078
X26.36 S0.0549
G0 X15.96 S0.0000
G1 X15.86 S0.0471
X15.66 S0.8627
X15.46 S1.0000
X15.26 S0.9059
X15.16 S0.0196
G0 X4.76 S0.0000
G1 X4.66 S0.1059
X4.46 S0.8078
X3.86 S1.0000
X3.66 S0.9804
X3.46 S0.7373
X3.36 S0.1137
G0 X-5.44 S0.0000
G1 X-5.54 S0.0275
X-5.74 S0.6667
X-5.94 S1.0000
X-6.14 S0.9647
X-6.24 S0.1333
G0 X-10.94 S0.0000
G1 X-11.04 S0.0745
G0 Y-0.11 S0.0000
G1 X-10.94 S0.0745
G0 X-6.44 S0.0000
G1 X-6.34 S0.0667
X-6.14 S0.9647
X-5.94 S1.0000
X-5.74 S0.7137
X-5.64 S0.0471
G0 X3.76 S0.0000
G1 X3.86 S0.1216
X4.06 S0.6431
X4.66 S1.0000
X4.86 S0.9843
X4.96 S0.6667
G0 X15.16 S0.0000
G1 X15.26 S0.9333
X15.46 S1.0000
X15.66 S0.9882
X15.76 S0.1882
G0 X26.56 S0.0000
G1 X26.66 S0.0588
X26.86 S0.8745
X27.06 S1.0000
X27.16 S0.9961
G0 X33.96 S0.0000
G1 X34.06 S0.5176
X34.46 S1.0000
X34.66 S0.3608
X34.76 S0.0039
G0 X45.36 S0.0000
G1 X45.46 S0.0314
X45.66 S0.7961
X45.86 S1.0000
X46.06 S0.9686
X46.16 S0.1451
G0 X52.76 S0.0000
G1 X52.86 S0.1020
X53.06 S0.9686
X53.26 S1.0000
X53.46 S0.8118
X53.56 S0.0510
G0 X64.36 S0.0000
G1 X64.46 S0.3490
X64.66 S0.9843
X64.86 S1.0000
X64.96 S0.7569
G0 X71.56 S0.0000
G1 X71.66 S0.3098
X71.86 S0.9843
X72.06 S1.0000
X72.26 S0.8196
X72.36 S0.0784
G0 X83.16 S0.0000
G1 X83.26 S0.1059
X83.46 S0.9608
X83.66 S1.0000
X83.76 S0.5451
G0 X90.56 S0.0000
G1 X90.66 S0.6039
X90.86 S1.0000
X91.06 S0.9922
X91.16 S0.4078
G0 X101.96 S0.0000
G1 X102.06 S0.0667
X102.26 S0.7843
X102.46 S1.0000
X102.66 S0.9686
X102.76 S0.1020
G0 X112.56 S0.0000
G1 X112.66 S0.0078
X112.86 S0.5255
X113.06 S0.9765
X113.66 S1.0000
X113.86 S0.9137
X114.06 S0.3843
X114.16 S0.0314
G0 X123.36 S0.0000
G1 X123.46 S0.0078
X123.66 S0.2510
X123.86 S0.9647
X124.06 S1.0000
X124.26 S0.7255
X124.36 S0.0039
G0 Y0.09 S0.0000
G1 X124.26 S0.8941
X124.06 S1.0000
X123.86 S0.9922
X123.76 S0.2157
G0 X113.76 S0.0000
G1 X113.66 S0.0196
X113.46 S0.1490
X113.26 S0.8588
X112.66 S1.0000
X112.46 S0.9922
X112.36 S0.8078
G0 X102.76 S0.0000
G1 X102.66 S0.9843
X102.46 S1.0000
X102.26 S0.8863
X102.16 S0.0314
G0 X91.16 S0.0000
G1 X91.06 S0.0039
X90.86 S0.4431
X90.66 S1.0000
X90.46 S0.9922
X90.36 S0.2431
G0 X83.96 S0.0000
G1 X83.86 S0.4863
X83.46 S1.0000
X83.36 S0.2510
G0 X72.16 S0.0000
G1 X72.06 S0.2941
X71.86 S0.9569
X71.66 S0.9882
X71.46 S0.9922
X71.36 S0.2275
G0 X65.16 S0.0000
G1 X65.06 S0.8039
X64.66 S1.0000
X64.46 S0.3843
X64.36 S0.0118
G0 X53.36 S0.0000
G1 X53.26 S0.0314
X53.06 S0.9098
X52.86 S1.0000
X52.76 S0.9843
G0 X46.36 S0.0000
G1 X46.26 S0.1059
X46.06 S0.9765
X45.86 S1.0000
X45.66 S0.8196
X45.56 S0.0471
G0 X34.56 S0.0000
G1 X34.46 S0.0039
X34.26 S0.3647
X34.06 S1.0000
X33.86 S0.9961
X33.76 S0.8039
G0 X27.36 S0.0000
G1 X27.26 S0.8431
X27.06 S1.0000
X26.86 S0.9922
X26.76 S0.2549
G0 X15.56 S0.0000
G1 X15.46 S0.0824
X15.26 S0.9490
X15.06 S1.0000
X14.96 S0.9294
G0 X5.36 S0.0000
G1 X5.26 S0.5137
X5.06 S0.9922
X4.86 S0.7765
X4.66 S0.9686
X4.46 S0.9922
X4.26 S0.7647
X4.06 S0.1216
X3.96 S0.0078
G0 X-5.84 S0.0000
G1 X-5.94 S0.0196
X-6.14 S0.7569
X-6.34 S1.0000
X-6.54 S0.9922
X-6.64 S0.0235
G0 X-10.94 S0.0000
G1 X-11.04 S0.0745
G0 Y0.29 S0.0000
G1 X-10.94 S0.0745
G0 X-6.84 S0.0000
G1 X-6.74 S0.0863
X-6.34 S1.0000
X-6.14 S0.7608
X-6.04 S0.0196
G0 X4.56 S0.0000
G1 X4.66 S0.1686
X4.86 S0.7765
X5.06 S0.9961
X5.46 S1.0000
X5.66 S0.9059
X5.86 S0.2118
X5.96 S0.0118
G0 X14.56 S0.0000
G1 X14.66 S0.0275
X14.86 S0.9098
X15.06 S1.0000
X15.26 S0.9922
X15.36 S0.3176
G0 X26.76 S0.0000
G1 X26.86 S0.0039
X27.06 S0.3569
X27.26 S0.9882
X27.46 S1.0000
X27.66 S0.8941
X27.76 S0.0275
G0 X33.36 S0.0000
G1 X33.46 S0.0314
X33.66 S0.7137
X33.86 S1.0000
X34.06 S0.9882
X34.26 S0.4392
X34.36 S0.0039
G0 X45.76 S0.0000
G1 X45.86 S0.0667
X46.06 S0.8392
X46.66 S1.0000
X46.76 S0.0392
G0 X52.16 S0.0000
G1 X52.26 S0.0431
X52.46 S0.8941
X52.86 S1.0000
X53.06 S0.8549
X53.16 S0.0157
G0 X64.76 S0.0000
G1 X64.86 S0.6471
X65.06 S0.9882
X65.26 S0.9804
X65.46 S0.7961
X65.56 S0.0118
G0 X71.16 S0.0000
G1 X71.26 S0.1216
X71.46 S0.9569
X71.66 S1.0000
X71.86 S0.9059
X71.96 S0.1059
G0 X83.56 S0.0000
G1 X83.66 S0.2627
X83.86 S0.9765
X84.26 S1.0000
X84.36 S0.2745
G0 X89.96 S0.0000
G1 X90.06 S0.1333
X90.26 S0.9922
X90.46 S1.0000
X90.66 S0.9961
X90.76 S0.4784
G0 X102.36 S0.0000
G1 X102.46 S0.0275
X102.66 S0.9686
X102.86 S1.0000
X103.06 S0.9725
X103.16 S0.0118
G0 X111.96 S0.0000
G1 X112.06 S0.2588
X112.26 S0.9686
X112.86 S1.0000
X113.06 S0.9098
X113.16 S0.2784
G0 X123.96 S0.0000
G1 X124.06 S0.2784
X124.26 S0.9843
X124.46 S1.0000
X124.56 S0.7216
G0 X124.76 Y0.49 S0.0000
G1 X124.66 S0.0392
X124.46 S0.9804
X124.26 S1.0000
X124.06 S0.7765
X123.96 S0.0353
G0 X112.96 S0.0000
G1 X112.86 S0.0549
X112.66 S0.6980
X112.46 S0.9686
X111.86 S1.0000
X111.76 S0.4902
G0 X103.36 S0.0000
G1 X103.26 S0.0118
X103.06 S0.7098
X102.86 S1.0000
X102.66 S0.9725
X102.56 S0.3176
G0 X90.56 S0.0000
G1 X90.46 S0.4235
X90.26 S0.9922
X90.06 S1.0000
X89.86 S0.9490
X89.76 S0.1490
G0 X84.56 S0.0000
G1 X84.46 S0.2588
X84.06 S1.0000
X83.86 S0.9686
X83.76 S0.3294
G0 X71.76 S0.0000
G1 X71.66 S0.4039
X71.46 S0.9725
X71.26 S0.9765
X71.06 S0.8784
X70.96 S0.2510
G0 X65.76 S0.0000
G1 X65.66 S0.1490
X65.46 S0.8039
X65.26 S1.0000
X65.06 S0.9843
X64.96 S0.6510
G0 X52.96 S0.0000
G1 X52.86 S0.0667
X52.66 S0.8431
X52.46 S0.9647
X52.26 S1.0000
X52.06 S0.8941
X51.96 S0.0471
G0 X46.96 S0.0000
G1 X46.86 S0.1176
X46.66 S0.8902
X46.26 S1.0000
X46.06 S0.8039
X45.96 S0.0627
G0 X34.16 S0.0000
G1 X34.06 S0.0392
X33.86 S0.6392
X33.66 S0.9843
X33.26 S1.0000
X33.16 S0.1137
G0 X27.96 S0.0000
G1 X27.86 S0.0980
X27.66 S0.8941
X27.46 S1.0000
X27.26 S0.9882
X27.16 S0.3725
G0 X15.36 S0.0000
G1 X15.26 S0.0039
X15.06 S0.7255
X14.86 S0.9765
X14.66 S1.0000
X14.46 S0.9059
X14.36 S0.0471
G0 X6.16 S0.0000
G1 X6.06 S0.0706
X5.86 S0.6863
X5.66 S1.0000
X5.46 S0.9922
X5.26 S1.0000
X5.06 S0.9451
X4.86 S0.4471
X4.76 S0.0392
G0 X-6.24 S0.0000
G1 X-6.34 S0.1843
X-6.54 S0.9608
X-6.74 S1.0000
X-6.84 S0.7333
G0 X-10.94 S0.0000
G1 X-11.04 S0.0745
G0 Y0.69 S0.0000
G1 X-10.94 S0.0745
G0 X-7.04 S0.0000
G1 X-6.94 S0.7608
X-6.74 S1.0000
X-6.54 S0.9529
X-6.34 S0.2118
X-6.24 S0.0039
G0 X5.16 S0.0000
G1 X5.26 S0.0078
X5.46 S0.6392
X5.66 S0.9608
X6.06 S1.0000
X6.26 S0.9961
X6.36 S0.2392
G0 X14.16 S0.0000
G1 X14.26 S0.0431
X14.46 S0.8941
X14.66 S1.0000
X14.86 S0.9765
X14.96 S0.3216
G0 X27.16 S0.0000
G1 X27.26 S0.0039
X27.46 S0.3686
X27.66 S0.9294
X28.06 S1.0000
X28.16 S0.3843
G0 X32.96 S0.0000
G1 X33.06 S0.5216
X33.26 S0.9961
X33.46 S1.0000
X33.66 S0.9882
X33.76 S0.4824
G0 X46.16 S0.0000
G1 X46.26 S0.0588
X46.46 S0.7765
X46.66 S0.9216
X47.06 S1.0000
X47.16 S0.2235
G0 X51.76 S0.0000
G1 X51.86 S0.1765
X52.06 S0.9098
X52.26 S0.9961
X52.46 S0.9882
X52.66 S0.8510
X52.76 S0.0275
G0 X64.96 S0.0000
G1 X65.06 S0.0039
X65.26 S0.4627
X65.66 S1.0000
X65.86 S0.9961
X65.96 S0.5255
G0 X70.76 S0.0000
G1 X70.86 S0.8510
X71.26 S1.0000
X71.46 S0.9098
X71.56 S0.2941
G0 X83.96 S0.0000
G1 X84.06 S0.3490
X84.26 S0.9255
X84.66 S1.0000
X84.76 S0.8510
G0 X89.36 S0.0000
G1 X89.46 S0.0471
X89.66 S0.5490
X89.86 S0.9961
X90.06 S1.0000
X90.26 S0.9961
X90.36 S0.4392
G0 X102.76 S0.0000
G1 X102.86 S0.3137
X103.06 S0.9882
X103.26 S1.0000
X103.46 S0.7490
X103.56 S0.1098
G0 X111.36 S0.0000
G1 X111.46 S0.1647
X111.66 S0.8784
X112.06 S1.0000
X112.26 S0.9765
X112.46 S0.7098
X112.66 S0.1373
X112.76 S0.0039
G0 X124.16 S0.0000
G1 X124.26 S0.1569
X124.46 S0.9725
X124.66 S1.0000
X124.76 S0.8902
G0 X124.96 Y0.89 S0.0000
G1 X124.86 S0.4431
X124.66 S0.9608
X124.46 S0.9961
X124.26 S0.5137
X124.16 S0.0078
G0 X112.16 S0.0000
G1 X112.06 S0.3373
X111.86 S0.8431
X111.66 S0.9765
X111.46 S0.9882
X111.26 S1.0000
X111.16 S0.2745
G0 X103.76 S0.0000
G1 X103.66 S0.1725
X103.46 S0.9216
X103.26 S0.9569
X103.06 S0.9608
X102.86 S0.3216
X102.76 S0.0039
G0 X90.16 S0.0000
G1 X90.06 S0.2824
X89.86 S0.9412
X89.66 S0.9961
X89.46 S1.0000
X89.26 S0.8588
X89.16 S0.0667
G0 X85.16 S0.0000
G1 X85.06 S0.1451
X84.86 S0.7569
X84.46 S1.0000
X84.26 S0.8471
X84.16 S0.0980
G0 X71.36 S0.0000
G1 X71.26 S0.1294
X71.06 S0.8784
X70.86 S0.9961
X70.66 S1.0000
X70.46 S0.9686
X70.36 S0.1765
G0 X66.36 S0.0000
G1 X66.26 S0.1569
X66.06 S0.8588
X65.66 S1.0000
X65.46 S0.9804
X65.26 S0.4667
X65.16 S0.0078
G0 X52.56 S0.0000
G1 X52.46 S0.0392
X52.26 S0.5098
X52.06 S0.9882
X51.66 S1.0000
X51.46 S0.3020
X51.36 S0.0235
G0 X47.56 S0.0000
G1 X47.46 S0.0196
X47.26 S0.5373
X47.06 S0.9961
X46.86 S1.0000
X46.66 S0.9882
X46.46 S0.4118
X46.36 S0.0745
G0 X33.76 S0.0000
G1 X33.66 S0.0078
X33.46 S0.5020
X33.26 S0.9373
X32.86 S1.0000
X32.66 S0.5765
X32.56 S0.0706
G0 X28.56 S0.0000
G1 X28.46 S0.1686
X28.26 S0.7255
X27.86 S1.0000
X27.66 S0.8863
X27.46 S0.1451
X27.36 S0.0039
G0 X14.96 S0.0000
G1 X14.86 S0.0157
X14.66 S0.6627
X14.46 S0.9961
X14.26 S0.9020
X14.06 S0.8510
X13.96 S0.0549
G0 X6.76 S0.0000
G1 X6.66 S0.0392
X6.46 S0.4784
X6.26 S1.0000
X6.06 S0.9451
X5.86 S0.9020
X5.66 S0.7765
X5.46 S0.3020
X5.36 S0.0039
G0 X-6.44 S0.0000
G1 X-6.54 S0.0039
X-6.74 S0.7961
X-6.94 S1.0000
X-7.14 S0.9882
X-7.24 S0.0588
G0 X-10.94 S0.0000
G1 X-11.04 S0.0745
G0 Y1.09 S0.0000
G1 X-10.94 S0.0745
G0 X-7.44 S0.0000
G1 X-7.34 S0.0471
X-7.14 S0.8431
X-6.94 S1.0000
X-6.74 S0.9804
X-6.64 S0.2314
G0 X5.76 S0.0000
G1 X5.86 S0.0431
X6.06 S0.4549
X6.26 S0.9333
X6.46 S0.9647
X6.66 S1.0000
X6.86 S0.8863
X6.96 S0.2627
G0 X13.76 S0.0000
G1 X13.86 S0.0627
X14.06 S0.8863
X14.26 S1.0000
X14.46 S0.9647
X14.66 S0.4667
X14.76 S0.0510
G0 X27.76 S0.0000
G1 X27.86 S0.1294
X28.06 S0.7647
X28.26 S0.9961
X28.46 S1.0000
X28.66 S0.9490
X28.86 S0.5216
X28.96 S0.3059
G0 X32.36 S0.0000
G1 X32.46 S0.4431
X32.66 S0.8941
X32.86 S0.9922
X33.06 S0.9961
X33.26 S0.8902
X33.46 S0.1765
X33.56 S0.0157
G0 X46.76 S0.0000
G1 X46.86 S0.4941
X47.06 S0.9373
X47.46 S1.0000
X47.66 S0.7373
X47.76 S0.3216
G0 X51.16 S0.0000
G1 X51.26 S0.3490
X51.46 S0.7412
X51.86 S1.0000
X52.06 S0.9294
X52.26 S0.5098
X52.36 S0.0157
G0 X65.36 S0.0000
G1 X65.46 S0.0118
X65.66 S0.3176
X65.86 S0.8863
X66.06 S0.9961
X66.26 S0.9647
X66.46 S1.0000
X66.66 S0.4039
X66.76 S0.0078
G0 X69.96 S0.0000
G1 X70.06 S0.2510
X70.26 S0.5961
X70.66 S1.0000
X70.86 S0.9765
X71.06 S0.6471
X71.16 S0.1490
G0 X84.36 S0.0000
G1 X84.46 S0.1333
X84.66 S0.7490
X85.06 S1.0000
X85.26 S0.9647
X85.46 S0.5961
X85.56 S0.0784
G0 X88.76 S0.0000
G1 X88.86 S0.0078
X89.06 S0.4039
X89.26 S0.8941
X89.46 S1.0000
X89.66 S0.9961
X89.86 S0.8824
X90.06 S0.1922
X90.16 S0.0078
G0 X102.96 S0.0000
G1 X103.06 S0.0039
X103.26 S0.3059
X103.66 S0.9098
X103.86 S0.9451
X103.96 S0.3569
G0 X110.96 S0.0000
G1 X111.06 S0.3098
X111.46 S1.0000
X111.66 S0.9569
X111.86 S0.7451
X111.96 S0.1333
G0 X124.36 S0.0000
G1 X124.46 S0.0118
X124.66 S0.7922
X124.86 S0.9725
X125.06 S0.9608
X125.16 S0.1490
G0 Y1.29 S0.0000
G1 X125.06 S0.4510
X124.66 S1.0000
X124.56 S0.4039
G0 X111.76 S0.0000
G1 X111.66 S0.0157
X111.46 S0.2745
X111.26 S0.8196
X110.86 S1.0000
X110.66 S0.7373
X110.56 S0.0392
G0 X104.36 S0.0000
G1 X104.26 S0.0431
X104.06 S0.6667
X103.86 S1.0000
X103.66 S0.9569
X103.46 S0.7882
X103.36 S0.2784
G0 X89.76 S0.0000
G1 X89.66 S0.0784
X89.46 S0.5137
X89.26 S0.9608
X88.66 S1.0000
X88.46 S0.6039
X88.26 S0.0431
X88.16 S0.0118
G0 X86.16 S0.0000
G1 X86.06 S0.0196
X85.86 S0.4745
X85.66 S0.7961
X85.06 S1.0000
X84.86 S0.9647
X84.76 S0.4784
G0 X70.96 S0.0000
G1 X70.86 S0.0039
X70.66 S0.2314
X70.46 S0.9294
X69.86 S1.0000
X69.66 S0.7961
X69.46 S0.4745
X69.36 S0.0196
G0 X67.16 S0.0000
G1 X67.06 S0.0392
X66.86 S0.6039
X66.46 S1.0000
X66.26 S0.9647
X66.06 S0.9804
X65.86 S0.6235
X65.76 S0.0824
G0 X51.96 S0.0000
G1 X51.86 S0.2078
X51.66 S0.7843
X51.06 S1.0000
X50.86 S0.9843
X50.66 S0.5765
X50.56 S0.0353
G0 X48.36 S0.0000
G1 X48.26 S0.0353
X48.06 S0.6039
X47.86 S0.8902
X47.46 S1.0000
X47.26 S0.9961
X47.06 S0.7843
X46.96 S0.2078
G0 X33.16 S0.0000
G1 X33.06 S0.0902
X32.86 S0.6863
X32.26 S0.9961
X32.06 S1.0000
X31.86 S0.7059
X31.66 S0.0863
X31.56 S0.0078
G0 X29.56 S0.0000
G1 X29.46 S0.0275
X29.26 S0.5294
X29.06 S0.9882
X28.46 S1.0000
X28.26 S0.9765
X28.06 S0.4667
X27.96 S0.0196
G0 X14.36 S0.0000
G1 X14.26 S0.4078
X14.06 S0.9804
X13.66 S1.0000
X13.56 S0.2745
G0 X7.16 S0.0000
G1 X7.06 S0.6118
X6.46 S1.0000
X6.26 S0.7333
X6.16 S0.1608
G0 X-6.84 S0.0000
G1 X-6.94 S0.6510
X-7.34 S1.0000
X-7.44 S0.1569
G0 X-10.94 S0.0000
G1 X-11.04 S0.0745
G0 Y1.49 S0.0000
G1 X-10.94 S0.0745
G0 X-7.44 S0.0000
G1 X-7.34 S0.7843
X-6.94 S1.0000
X-6.84 S0.2000
G0 X6.36 S0.0000
G1 X6.46 S0.0510
X6.66 S0.5961
X6.86 S0.9725
X7.26 S1.0000
X7.36 S0.7647
G0 X13.36 S0.0000
G1 X13.46 S0.7451
X13.86 S1.0000
X14.06 S0.9059
X14.26 S0.4078
X14.36 S0.0078
G0 X28.36 S0.0000
G1 X28.46 S0.2157
X28.66 S0.7647
X28.86 S0.9922
X29.46 S1.0000
X29.66 S0.9216
X29.86 S0.8039
X30.06 S0.3216
X30.16 S0.2510
G0 X31.16 S0.0000
G1 X31.26 S0.3020
X31.46 S0.5725
X31.66 S0.8471
X32.26 S1.0000
X32.46 S0.9765
X32.66 S0.8314
X32.86 S0.3412
X32.96 S0.0275
G0 X47.16 S0.0000
G1 X47.26 S0.0392
X47.46 S0.4510
X47.66 S0.9608
X48.26 S1.0000
X48.46 S0.9647
X48.66 S0.8039
X48.86 S0.3059
X48.96 S0.2980
G0 X49.96 S0.0000
G1 X50.26 S0.3020
X50.46 S0.7843
X50.66 S0.9725
X51.26 S1.0000
X51.46 S0.9647
X51.66 S0.6314
X51.76 S0.0588
G0 X65.96 S0.0000
G1 X66.06 S0.0235
X66.26 S0.3216
X66.46 S0.8549
X67.06 S1.0000
X67.26 S0.9882
X67.46 S0.8039
X67.66 S0.6118
X67.86 S0.3020
X67.96 S0.0353
G0 X68.76 S0.0000
G1 X68.86 S0.0588
X69.06 S0.3020
X69.26 S0.7725
X69.46 S0.8980
X70.06 S1.0000
X70.26 S0.9961
X70.46 S0.7059
X70.56 S0.0863
G0 X84.76 S0.0000
G1 X84.86 S0.0039
X85.06 S0.1961
X85.26 S0.8118
X85.46 S0.9922
X86.06 S1.0000
X86.26 S0.8980
X86.46 S0.7725
X86.66 S0.3020
X86.76 S0.0588
G0 X87.56 S0.0000
G1 X87.66 S0.0353
X87.86 S0.3020
X88.06 S0.8000
X88.26 S0.8549
X88.86 S1.0000
X89.06 S0.9961
X89.26 S0.8706
X89.46 S0.3529
X89.56 S0.0039
G0 X103.56 S0.0000
G1 X103.66 S0.0902
X103.86 S0.8039
X104.26 S1.0000
X104.46 S0.8824
X104.56 S0.0039
G0 X110.36 S0.0000
G1 X110.46 S0.1529
X110.66 S0.9804
X110.86 S1.0000
X111.06 S0.9922
X111.26 S0.8275
X111.36 S0.0745
G0 X124.56 S0.0000
G1 X124.66 S0.0745
X124.86 S0.8941
X125.06 S1.0000
X125.26 S0.9098
X125.36 S0.0510
G0 Y1.69 S0.0000
G1 X125.26 S0.1686
X124.86 S1.0000
X124.66 S0.6980
X124.56 S0.0078
G0 X111.16 S0.0000
G1 X111.06 S0.0549
X110.86 S0.4745
X110.66 S0.9686
X110.46 S1.0000
X110.26 S0.9725
X110.16 S0.6706
G0 X104.76 S0.0000
G1 X104.66 S0.3490
X104.46 S0.8000
X104.26 S1.0000
X104.06 S0.9961
X103.86 S0.5804
X103.76 S0.0863
G0 X89.36 S0.0000
G1 X89.26 S0.0039
X89.06 S0.0471
X88.86 S0.3686
X88.66 S0.9216
X87.66 S1.0000
X87.46 S0.9529
X86.86 S0.9490
X86.66 S0.9569
X85.86 S1.0000
X85.66 S0.9882
X85.46 S0.8706
X85.26 S0.3412
X85.16 S0.0431
G0 X70.36 S0.0000
G1 X70.26 S0.0118
X70.06 S0.3059
X69.86 S0.6784
X69.66 S0.9843
X68.86 S1.0000
X68.66 S0.9569
X68.06 S0.9490
X67.86 S0.9529
X66.86 S1.0000
X66.66 S0.9098
X66.46 S0.4078
X66.26 S0.0824
X66.16 S0.0039
G0 X51.56 S0.0000
G1 X51.46 S0.0078
X51.26 S0.1529
X51.06 S0.4039
X50.86 S0.9176
X49.86 S1.0000
X49.06 S0.9490
X48.06 S1.0000
X47.86 S0.9333
X47.66 S0.4353
X47.46 S0.1451
X47.36 S0.0078
G0 X32.56 S0.0000
G1 X32.46 S0.0510
X32.26 S0.3725
X32.06 S0.8980
X31.86 S0.9882
X31.06 S1.0000
X30.26 S0.9490
X30.06 S0.9922
X29.26 S1.0000
X29.06 S0.9412
X28.86 S0.6510
X28.66 S0.3294
X28.56 S0.0392
G0 X14.16 S0.0000
G1 X14.06 S0.0039
X13.86 S0.1294
X13.66 S0.8706
X13.46 S0.9569
X13.26 S0.9961
X13.06 S0.9412
X12.96 S0.5647
G0 X7.76 S0.0000
G1 X7.66 S0.1294
X7.46 S0.7961
X7.06 S1.0000
X6.86 S0.8824
X6.66 S0.2627
X6.56 S0.0078
G0 X-6.84 S0.0000
G1 X-6.94 S0.0039
X-7.14 S0.9176
X-7.44 S1.0000
G0 X-10.94 S0.0000
G1 X-11.04 S0.0745
G0 Y1.89 S0.0000
G1 X-10.94 S0.0745
G0 X-7.64 S0.0000
G1 X-7.54 S0.4431
X-7.14 S1.0000
X-7.04 S0.3216
G0 X6.96 S0.0000
G1 X7.06 S0.0510
X7.26 S0.6588
X7.86 S1.0000
X8.06 S0.5725
X8.16 S0.0431
G0 X12.56 S0.0000
G1 X12.66 S0.0431
X12.86 S0.9176
X13.26 S1.0000
X13.46 S0.9922
X13.66 S0.7333
X13.76 S0.0157
G0 X28.96 S0.0000
G1 X29.06 S0.0039
X29.26 S0.0392
X29.46 S0.5216
X29.66 S0.9490
X29.86 S0.9843
X31.26 S1.0000
X31.46 S0.9961
X31.66 S0.9647
X31.86 S0.7098
X32.06 S0.1843
X32.16 S0.0078
G0 X47.96 S0.0000
G1 X48.06 S0.0471
X48.26 S0.1686
X48.46 S0.8157
X48.66 S0.9804
X49.86 S1.0000
X50.06 S0.9882
X50.26 S0.9686
X50.46 S0.9765
X50.66 S0.8196
X50.86 S0.1961
X50.96 S0.0196
G0 X66.76 S0.0000
G1 X66.86 S0.0275
X67.06 S0.1176
X67.26 S0.7961
X67.46 S0.9765
X69.06 S1.0000
X69.26 S0.9020
X69.46 S0.9059
X69.66 S0.5137
X69.86 S0.1020
X69.96 S0.0039
G0 X85.56 S0.0000
G1 X85.66 S0.0078
X85.86 S0.1137
X86.06 S0.5176
X86.26 S0.9451
X86.46 S0.9804
X87.86 S1.0000
X88.06 S0.9843
X88.26 S0.9647
X88.46 S0.7529
X88.66 S0.1216
X88.76 S0.0392
G0 X103.96 S0.0000
G1 X104.06 S0.0039
X104.26 S0.2549
X104.46 S0.9569
X104.86 S1.0000
X105.06 S0.9137
X105.16 S0.1373
G0 X109.56 S0.0000
G1 X109.66 S0.0078
X109.86 S0.3569
X110.06 S0.9922
X110.46 S1.0000
X110.66 S0.7725
X110.86 S0.0902
X110.96 S0.0039
G0 X124.76 S0.0000
G1 X124.86 S0.3098
X125.26 S1.0000
X125.36 S0.6706
G0 Y2.09 S0.0000
G1 X125.26 S0.9922
X125.06 S1.0000
X124.86 S0.9255
X124.76 S0.0431
G0 X110.56 S0.0000
G1 X110.46 S0.0078
X110.26 S0.6980
X110.06 S0.9882
X109.66 S1.0000
X109.46 S0.9804
X109.36 S0.4314
G0 X105.56 S0.0000
G1 X105.46 S0.0431
X105.26 S0.8863
X105.06 S1.0000
X104.86 S0.9882
X104.66 S0.9961
X104.46 S0.9098
X104.36 S0.2039
G0 X88.16 S0.0000
G1 X88.06 S0.0196
X87.86 S0.1412
X87.66 S0.4078
X87.46 S0.8353
X86.86 S0.9020
X86.66 S0.8314
X86.46 S0.3961
X86.26 S0.0941
X86.16 S0.0196
G0 X69.36 S0.0000
G1 X69.26 S0.0157
X69.06 S0.1373
X68.86 S0.3961
X68.66 S0.8471
X68.06 S0.9020
X67.86 S0.8510
X67.66 S0.4000
X67.46 S0.3647
X67.26 S0.0196
X67.16 S0.0039
G0 X50.56 S0.0000
G1 X50.46 S0.0078
X50.26 S0.0706
X50.06 S0.4000
X49.86 S0.5333
X49.66 S0.9098
X49.26 S0.9020
X49.06 S0.9098
X48.86 S0.5020
X48.66 S0.4000
X48.46 S0.0784
X48.36 S0.0078
G0 X31.56 S0.0000
G1 X31.46 S0.0196
X31.26 S0.3451
X31.06 S0.3961
X30.86 S0.9176
X30.26 S0.9020
X30.06 S0.6078
X29.86 S0.4000
X29.66 S0.1412
X29.56 S0.0196
G0 X13.56 S0.0000
G1 X13.46 S0.0078
X13.26 S0.3059
X13.06 S0.9451
X12.66 S1.0000
X12.46 S0.9843
X12.36 S0.5373
G0 X8.36 S0.0000
G1 X8.26 S0.5569
X8.06 S0.9843
X7.66 S1.0000
X7.46 S0.9882
X7.26 S0.6941
X7.16 S0.0078
G0 X-7.04 S0.0000
G1 X-7.14 S0.1059
X-7.34 S0.9804
X-7.54 S1.0000
X-7.64 S0.9098
G0 X-10.94 S0.0000
G1 X-11.04 S0.0745
G0 Y2.29 S0.0000
G1 X-10.94 S0.0745
G0 X-7.84 S0.0000
G1 X-7.74 S0.1882
X-7.54 S0.9922
X-7.34 S1.0000
X-7.14 S0.8745
X-7.04 S0.0196
G0 X7.56 S0.0000
G1 X7.66 S0.1098
X7.86 S0.7647
X8.06 S0.9922
X8.26 S0.8078
X8.46 S0.8431
X8.66 S0.9843
X8.86 S0.8863
X9.06 S0.7373
X9.36 S0.0745
G0 X11.36 S0.0000
G1 X11.46 S0.0745
X11.66 S0.6196
X11.86 S0.3216
X12.06 S0.9490
X12.66 S1.0000
X12.86 S0.9804
X13.06 S0.5765
X13.16 S0.0353
G0 X104.56 S0.0000
G1 X104.66 S0.0157
X104.86 S0.4471
X105.06 S0.9569
X105.66 S1.0000
X105.86 S0.9255
X106.26 S0.8863
X106.56 S0.0745
G0 X108.36 S0.0000
G1 X108.46 S0.0745
X108.66 S0.0824
X108.86 S0.4078
X109.06 S0.8863
X109.86 S1.0000
X110.06 S0.8314
X110.16 S0.1098
G0 X124.96 S0.0000
G1 X125.06 S0.5765
X125.46 S1.0000
X125.56 S0.4157
G0 Y2.49 S0.0000
G1 X125.46 S0.6196
X125.26 S1.0000
X125.06 S0.9961
X124.96 S0.3373
G0 X109.96 S0.0000
G1 X109.86 S0.0118
X109.66 S0.4667
X109.46 S0.9098
X109.26 S0.9961
X108.06 S1.0000
X107.86 S0.8431
X107.06 S0.3725
X106.86 S0.6902
X105.46 S1.0000
X105.26 S0.9294
X105.06 S0.5608
X104.96 S0.0314
G0 X12.76 S0.0000
G1 X12.66 S0.1686
X12.46 S0.7490
X12.26 S0.9843
X12.06 S1.0000
X11.86 S0.9686
X10.86 S1.0000
X10.66 S0.4549
X10.06 S0.3725
X9.86 S0.8235
X8.66 S1.0000
X8.46 S0.9686
X8.26 S0.9843
X8.06 S0.7725
X7.86 S0.1569
X7.76 S0.0039
G0 X0.96 S0.0000
G1 X0.86 S0.2980
X0.76 S0.3098
G0 X-7.24 S0.0000
G1 X-7.34 S0.5882
X-7.74 S1.0000
X-7.84 S0.2392
G0 X-10.94 S0.0000
G1 X-11.04 S0.0745
G0 Y2.69 S0.0000
G1 X-10.94 S0.0745
G0 X-7.84 S0.0000
G1 X-7.74 S0.6863
X-7.54 S1.0000
X-7.34 S0.9922
X-7.24 S0.2549
G0 X0.76 S0.0000
G1 X0.86 S0.7608
X1.06 S0.7020
X1.16 S0.0039
G0 X8.16 S0.0000
G1 X8.26 S0.0235
X8.46 S0.2118
X8.66 S0.7255
X8.86 S0.9529
X9.06 S0.9961
X10.46 S1.0000
X10.66 S0.9804
X10.86 S1.0000
X11.06 S0.9804
X11.66 S1.0000
X12.06 S0.9333
X12.26 S0.7137
X12.46 S0.2941
X12.56 S0.0039
G0 X105.36 S0.0000
G1 X105.46 S0.1608
X105.66 S0.6549
X105.86 S0.9216
X106.06 S0.9647
X108.86 S1.0000
X109.06 S0.9608
X109.26 S0.7922
X109.46 S0.4784
X109.56 S0.0588
G0 X124.96 S0.0000
G1 X125.06 S0.0824
X125.26 S0.9255
X125.46 S1.0000
X125.66 S0.9686
X125.76 S0.0392
G0 Y2.89 S0.0000
G1 X125.66 S0.2078
X125.26 S1.0000
X125.16 S0.7961
G0 X109.16 S0.0000
G1 X109.06 S0.0078
X108.86 S0.0980
X108.66 S0.4275
X108.46 S0.7882
X108.26 S0.8588
X108.06 S0.9961
X107.86 S0.9922
X107.06 S1.0000
X106.86 S0.9961
X106.66 S0.9922
X106.46 S0.8824
X106.26 S0.8588
X106.06 S0.4353
X105.86 S0.1608
X105.76 S0.0118
G0 X11.96 S0.0000
G1 X11.86 S0.0157
X11.66 S0.3922
X11.46 S0.5412
X11.26 S0.8549
X11.06 S0.9882
X10.86 S0.9294
X10.66 S1.0000
X10.46 S0.9490
X10.06 S1.0000
X9.86 S0.9961
X9.66 S0.9922
X9.46 S0.9647
X9.26 S0.8549
X9.06 S0.6824
X8.86 S0.4275
X8.66 S0.0471
X8.56 S0.0039
G0 X1.16 S0.0000
G1 X1.06 S0.2471
X0.86 S1.0000
X0.76 S0.7608
G0 X-7.24 S0.0000
G1 X-7.34 S0.1843
X-7.54 S0.9922
X-7.74 S1.0000
X-7.84 S0.6863
G0 X-10.94 S0.0000
G1 X-11.04 S0.0745
G0 Y3.09 S0.0000
G1 X-10.94 S0.0745
G0 X-8.04 S0.0000
G1 X-7.94 S0.0392
X-7.54 S1.0000
X-7.34 S0.8902
X-7.24 S0.0510
G0 X0.76 S0.0000
G1 X0.86 S0.0392
X1.16 S1.0000
G0 X9.56 S0.0000
G1 X9.66 S0.1569
X9.86 S0.2118
X10.06 S0.3725
X10.26 S0.6235
X10.66 S0.6157
X10.86 S0.5922
X11.06 S0.2196
X11.16 S0.2039
G0 X106.56 S0.0000
G1 X106.66 S0.0275
X106.86 S0.2157
X107.06 S0.3333
X107.26 S0.6196
X107.66 S0.6157
X107.86 S0.6235
X108.06 S0.2941
X108.26 S0.2196
X108.36 S0.0275
G0 X125.16 S0.0000
G1 X125.26 S0.7961
X125.66 S1.0000
X125.76 S0.2078
G0 Y3.29 S0.0000
G1 X125.66 S0.1137
X125.46 S0.9804
X125.26 S1.0000
X125.16 S0.7922
G0 X1.16 S0.0000
G1 X1.06 S1.0000
X0.86 S0.9608
X0.76 S0.0235
G0 X-7.24 S0.0000
G1 X-7.34 S0.0235
X-7.54 S0.8706
X-7.94 S1.0000
X-8.04 S0.0392
G0 X-10.94 S0.0000
G1 X-11.04 S0.0745
G0 Y3.49 S0.0000
G1 X-10.94 S0.0745
G0 X-8.04 S0.0000
G1 X-7.94 S0.0549
X-7.54 S1.0000
X-7.34 S0.8392
X-7.24 S0.0235
G0 X0.36 S0.0000
G1 X0.46 S0.0078
X0.56 S0.3176
G0 X0.96 S0.0000
G1 X1.06 S0.9020
X1.26 S1.0000
X1.36 S0.0314
G0 X125.16 S0.0000
G1 X125.26 S0.4314
X125.66 S1.0000
X125.76 S0.2078
G0 Y3.69 S0.0000
G1 X125.66 S0.2078
X125.26 S1.0000
X125.16 S0.3882
G0 X1.36 S0.0000
G1 X1.26 S0.8235
X1.06 S1.0000
X0.86 S0.7216
X0.66 S0.2039
X0.46 S0.8980
X0.36 S0.0275
G0 X-7.44 S0.0000
G1 X-7.54 S0.4235
X-7.94 S1.0000
X-8.04 S0.4000
G0 X-10.94 S0.0000
G1 X-11.04 S0.0745
G0 Y3.89 S0.0000
G1 X-10.94 S0.0745
G0 X-8.04 S0.0000
G1 X-7.94 S0.4000
X-7.54 S1.0000
X-7.44 S0.4196
G0 X0.56 S0.0000
G1 X0.66 S0.4706
X0.86 S0.9373
X1.06 S0.3647
X1.26 S1.0000
X1.36 S0.9373
G0 X125.16 S0.0000
G1 X125.26 S0.3882
X125.66 S1.0000
X125.76 S0.2078
G0 Y4.09 S0.0000
G1 X125.66 S0.2078
X125.26 S1.0000
X125.16 S0.3882
G0 X1.56 S0.0000
G1 X1.46 S0.0627
X1.26 S0.9882
X1.06 S0.9961
X0.86 S0.4078
X0.66 S0.9647
X0.56 S0.0078
G0 X-7.44 S0.0000
G1 X-7.54 S0.4196
X-7.94 S1.0000
X-8.04 S0.4000
G0 X-10.94 S0.0000
G1 X-11.04 S0.0745
G0 Y4.29 S0.0000
G1 X-10.94 S0.0745
G0 X-8.04 S0.0000
G1 X-7.94 S0.7216
X-7.54 S1.0000
X-7.44 S0.3765
G0 X0.76 S0.0000
G1 X0.86 S0.3765
X1.06 S0.4039
X1.26 S0.9843
X1.46 S1.0000
X1.56 S0.4314
G0 X125.16 S0.0000
G1 X125.26 S0.2039
X125.46 S0.9647
X125.66 S1.0000
X125.76 S0.7098
G0 Y4.49 S0.0000
G1 X125.66 S0.7098
X125.46 S1.0000
X125.26 S0.9373
X125.16 S0.0824
G0 X1.56 S0.0000
G1 X1.46 S0.8588
X1.06 S1.0000
X0.86 S0.9843
X0.76 S0.0353
G0 X-7.44 S0.0000
G1 X-7.54 S0.0784
X-7.74 S0.9922
X-8.04 S1.0000
G0 X-10.94 S0.0000
G1 X-11.04 S0.0745
G0 Y4.69 S0.0000
G1 X-10.94 S0.0745
G0 X-8.04 S0.0000
G1 X-7.74 S1.0000
X-7.54 S0.9922
X-7.44 S0.0784
G0 X0.96 S0.0000
G1 X1.06 S0.3647
X1.46 S1.0000
X1.66 S0.9529
X1.76 S0.0471
G0 X125.16 S0.0000
G1 X125.26 S0.0824
X125.46 S0.9373
X125.66 S1.0000
X125.76 S0.7098
G0 Y4.89 S0.0000
G1 X125.66 S0.7098
X125.46 S1.0000
X125.26 S0.9373
X125.16 S0.0824
G0 X1.76 S0.0000
G1 X1.66 S0.2667
X1.26 S1.0000
X1.06 S0.9882
X0.96 S0.0941
G0 X-7.44 S0.0000
G1 X-7.54 S0.0784
X-7.74 S0.9922
X-8.04 S1.0000
G0 X-10.94 S0.0000
G1 X-11.04 S0.0745
G0 Y5.09 S0.0000
G1 X-10.94 S0.0745
G0 X-8.04 S0.0000
G1 X-7.74 S1.0000
X-7.54 S0.9922
X-7.44 S0.0784
G0 X1.16 S0.0000
G1 X1.26 S0.8706
X1.66 S1.0000
X1.76 S0.8784
G0 X125.16 S0.0000
G1 X125.26 S0.0824
X125.46 S0.9373
X125.66 S1.0000
X125.76 S0.7098
G0 Y5.29 S0.0000
G1 X125.66 S0.7098
X125.46 S1.0000
X125.26 S0.9373
X125.16 S0.0824
G0 X1.96 S0.0000
G1 X1.86 S0.3608
X1.26 S1.0000
X1.16 S0.2196
G0 X-7.44 S0.0000
G1 X-7.54 S0.3647
X-7.94 S1.0000
X-8.04 S0.5725
G0 X-10.94 S0.0000
G1 X-11.04 S0.0745
G0 Y5.49 S0.0000
G1 X-10.94 S0.0745
G0 X-8.04 S0.0000
G1 X-7.94 S0.4000
X-7.54 S1.0000
X-7.44 S0.4196
G0 X1.36 S0.0000
G1 X1.46 S0.1882
X1.86 S1.0000
X1.96 S0.7020
G0 X125.16 S0.0000
G1 X125.26 S0.2863
X125.46 S0.9765
X125.66 S1.0000
X125.76 S0.4706
G0 Y5.69 S0.0000
G1 X125.66 S0.2078
X125.26 S1.0000
X125.16 S0.3882
G0 X2.16 S0.0000
G1 X2.06 S0.6314
X1.66 S1.0000
X1.46 S0.5529
X1.26 S0.1255
X1.16 S0.0078
G0 X-7.44 S0.0000
G1 X-7.54 S0.4196
X-7.94 S1.0000
X-8.04 S0.4000
G0 X-10.94 S0.0000
G1 X-11.04 S0.0745
G0 Y5.89 S0.0000
G1 X-10.94 S0.0745
G0 X-8.04 S0.0000
G1 X-7.94 S0.4000
X-7.54 S1.0000
X-7.44 S0.4196
G0 X0.76 S0.0000
G1 X0.86 S0.7059
X1.06 S0.5882
X1.26 S0.2353
X1.46 S0.3686
X1.66 S0.2471
X2.26 S1.0000
X2.46 S0.0235
X2.56 S0.6353
G0 X125.16 S0.0000
G1 X125.26 S0.3882
X125.66 S1.0000
X125.76 S0.2078
G0 Y6.09 S0.0000
G1 X125.66 S0.2078
X125.26 S1.0000
X125.16 S0.3882
G0 X3.16 S0.0000
G1 X3.06 S0.0275
X2.86 S0.7961
X2.66 S0.9922
X2.46 S0.2157
X2.26 S0.8706
X2.06 S0.9490
X1.86 S0.9804
X1.66 S0.1412
X1.46 S0.8667
X1.26 S1.0000
X1.06 S0.9765
X0.86 S0.6353
X0.76 S1.0000
G0 X-7.44 S0.0000
G1 X-7.54 S0.4235
X-7.94 S1.0000
X-8.04 S0.4000
G0 X-10.94 S0.0000
G1 X-11.04 S0.0745
G0 Y6.29 S0.0000
G1 X-10.94 S0.0745
G0 X-8.04 S0.0000
G1 X-7.94 S0.3922
X-7.54 S1.0000
X-7.34 S0.5451
X-7.24 S0.0039
G0 X0.56 S0.0000
G1 X0.66 S0.5333
X0.86 S0.1882
X1.06 S0.0157
X1.26 S0.9647
X1.66 S1.0000
X1.86 S0.8157
X2.06 S0.0706
X2.26 S0.9451
X2.46 S1.0000
X2.66 S0.8275
X2.86 S0.4314
X3.06 S0.9961
X3.26 S1.0000
X3.36 S0.0471
G0 X45.16 S0.0000
G1 X45.26 S0.0824
G0 X125.16 S0.0000
G1 X125.26 S0.3961
X125.66 S1.0000
X125.76 S0.2078
G0 Y6.49 S0.0000
G1 X125.66 S0.1098
X125.46 S0.9804
X125.26 S1.0000
X125.16 S0.7686
G0 X3.36 S0.0000
G1 X3.26 S0.0980
X3.06 S0.9961
X2.86 S0.3804
X2.66 S0.3686
X2.46 S1.0000
X2.26 S0.9961
X2.06 S0.2471
X1.86 S0.0549
X1.66 S0.9059
X1.26 S1.0000
X1.06 S0.0431
X0.86 S0.9608
X0.66 S0.1608
X0.56 S0.2745
G0 X-7.24 S0.0000
G1 X-7.34 S0.0235
X-7.54 S0.8745
X-7.94 S1.0000
X-8.04 S0.0392
G0 X-10.94 S0.0000
G1 X-11.04 S0.0745
G0 Y6.69 S0.0000
G1 X-10.94 S0.0745
G0 X-8.04 S0.0000
G1 X-7.94 S0.0392
X-7.54 S1.0000
X-7.34 S0.8667
X-7.24 S0.0196
G0 X0.36 S0.0000
G1 X0.46 S0.1686
X0.66 S0.9882
X0.86 S0.2784
X1.06 S1.0000
X1.26 S0.9176
X1.46 S0.2196
X1.66 S0.8863
X1.86 S1.0000
X1.96 S0.5059
G0 X2.36 S0.0000
G1 X2.46 S0.4431
X2.86 S1.0000
X3.06 S0.1216
X3.26 S0.5686
X3.36 S0.0588
G0 X125.16 S0.0000
G1 X125.26 S0.7961
X125.66 S1.0000
X125.76 S0.2078
G0 Y6.89 S0.0000
G1 X125.66 S0.2078
X125.26 S1.0000
X125.16 S0.7961
G0 X3.76 S0.0000
G1 X3.66 S0.2039
X3.46 S0.5216
X3.26 S0.2392
X3.06 S0.0039
X2.86 S0.9725
X2.66 S0.9922
X2.56 S0.1961
G0 X2.16 S0.0000
G1 X2.06 S0.0667
X1.86 S0.5294
X1.66 S0.4784
X1.46 S0.0431
X1.26 S0.8275
X1.06 S0.9686
X0.86 S0.8039
X0.66 S0.2745
X0.46 S1.0000
X0.36 S0.1882
G0 X-7.24 S0.0000
G1 X-7.34 S0.1216
X-7.54 S0.9490
X-7.74 S1.0000
X-7.94 S0.8392
X-8.04 S0.0196
G0 X-10.94 S0.0000
G1 X-11.04 S0.0745
G0 Y7.09 S0.0000
G1 X-10.94 S0.0745
G0 X-7.84 S0.0000
G1 X-7.74 S0.6863
X-7.54 S1.0000
X-7.34 S0.9922
X-7.24 S0.1843
G0 X0.36 S0.0000
G1 X0.46 S0.2784
X0.66 S0.4863
X0.86 S0.8275
X1.06 S0.3569
X1.26 S0.1686
X1.46 S0.6941
X1.66 S0.7765
X1.86 S0.2784
X2.06 S0.6078
X2.26 S0.9373
X2.36 S0.7765
G0 X2.76 S0.0000
G1 X2.86 S0.2039
X3.06 S1.0000
X3.26 S0.5922
X3.46 S0.0392
X3.66 S0.9922
X3.86 S0.4157
X3.96 S0.3725
G0 X44.76 S0.0000
G1 X44.86 S0.0863
G0 X125.16 S0.0000
G1 X125.26 S0.7961
X125.66 S1.0000
X125.76 S0.2078
G0 Y7.29 S0.0000
G1 X125.66 S0.0902
X125.46 S0.9765
X125.26 S1.0000
X125.06 S0.9373
X124.96 S0.0863
G0 X73.56 S0.0000
G1 X73.46 S0.0392
X73.36 S0.0902
G0 X72.96 S0.0000
G1 X72.86 S0.5176
X71.86 S0.5569
X71.76 S0.4471
G0 X71.26 S0.0000
G1 X71.16 S0.2863
G0 X70.76 S0.0000
G1 X70.66 S0.6353
X69.76 S0.5569
G0 X44.86 S0.0000
G1 X44.76 S0.0078
G0 X4.16 S0.0000
G1 X4.06 S0.2431
X3.86 S0.6784
X3.66 S0.6078
X3.46 S0.0275
X3.26 S0.6275
X3.06 S1.0000
X2.96 S0.4000
G0 X2.56 S0.0000
G1 X2.46 S0.2392
X2.06 S1.0000
X1.86 S0.2667
X1.66 S0.7725
X1.46 S0.4902
X1.26 S0.9922
X1.06 S0.8667
X0.86 S0.2627
X0.66 S0.4392
X0.46 S0.0471
X0.36 S0.2980
G0 X-7.24 S0.0000
G1 X-7.34 S0.3373
X-7.54 S0.8431
X-7.74 S1.0000
X-7.84 S0.6863
G0 X-10.94 S0.0000
G1 X-11.04 S0.0745
G0 Y7.49 S0.0000
G1 X-10.94 S0.0745
G0 X-7.84 S0.0000
G1 X-7.74 S0.2118
X-7.54 S1.0000
X-7.34 S0.9765
X-7.24 S0.5922
G0 X0.36 S0.0000
G1 X0.46 S0.0431
X0.66 S0.2196
X0.86 S0.4275
X1.06 S0.9569
X1.26 S1.0000
X1.36 S0.8941
G0 X1.76 S0.0000
G1 X1.86 S0.8941
X2.06 S0.0667
X2.26 S0.3529
X2.46 S0.2235
X2.66 S0.5882
X2.86 S0.0706
X3.06 S0.0078
X3.26 S0.9725
X3.36 S0.9882
G0 X3.76 S0.0000
G1 X3.86 S0.1098
X4.06 S0.9765
X4.26 S1.0000
X4.36 S0.2000
G0 X40.56 S0.0000
G1 X40.66 S0.1529
X40.86 S0.2471
X40.96 S0.0039
G0 X43.56 S0.0000
G1 X43.66 S0.3804
X43.76 S0.3569
G0 X47.36 S0.0000
G1 X47.46 S0.1176
X47.56 S0.1647
G0 X68.56 S0.0000
G1 X68.66 S0.2118
X68.86 S0.5490
X69.06 S0.5608
X69.16 S0.4706
G0 X69.76 S0.0000
G1 X69.86 S0.1059
X70.26 S0.2235
X70.86 S0.7804
X71.06 S0.0118
X71.26 S0.5608
X71.46 S0.7647
X71.66 S0.7765
X71.86 S0.4275
X72.06 S0.1294
X72.26 S0.9529
X72.46 S1.0000
X72.66 S0.9569
X72.86 S0.9882
X73.06 S1.0000
X73.26 S0.1490
X73.46 S0.1647
X73.66 S0.7255
X73.86 S0.2941
X74.06 S0.4706
X74.16 S0.2196
G0 X124.96 S0.0000
G1 X125.06 S0.1216
X125.26 S0.9922
X125.46 S1.0000
X125.56 S0.9608
G0 Y7.69 S0.0000
G1 X125.46 S0.6667
X125.06 S1.0000
X124.96 S0.4510
G0 X74.76 S0.0000
G1 X74.66 S0.0039
X74.46 S0.5569
X74.26 S0.9216
X74.06 S1.0000
X73.86 S0.9020
X73.66 S0.1490
X73.46 S0.2118
X73.26 S0.0118
X73.06 S0.4196
X72.86 S0.5490
X72.26 S0.0784
X72.16 S0.0627
G0 X71.76 S0.0000
G1 X71.66 S0.8157
X71.46 S0.6588
X71.26 S0.9961
X71.06 S0.9216
X70.96 S0.6314
G0 X69.36 S0.0000
G1 X69.26 S0.6392
X69.06 S0.8353
X68.86 S0.3176
X68.66 S0.0039
X68.56 S0.0745
G0 X67.96 S0.0000
G1 X67.86 S0.2353
X67.66 S0.1804
X67.46 S0.3333
X67.36 S0.1020
G0 X47.76 S0.0000
G1 X47.66 S0.1647
X47.46 S0.0588
X47.36 S0.0431
G0 X46.16 S0.0000
G1 X46.06 S0.4471
X45.96 S0.2471
G0 X44.16 S0.0000
G1 X44.06 S0.0588
X43.86 S0.2000
X43.26 S0.3843
X43.06 S0.3686
X42.86 S0.4353
X42.66 S0.0549
X42.26 S0.5373
X42.16 S0.0078
G0 X40.66 S0.0000
G1 X40.56 S0.0549
G0 X4.36 S0.0000
G1 X4.26 S0.4510
X4.06 S1.0000
X3.96 S0.5804
G0 X3.56 S0.0000
G1 X3.46 S0.6824
X3.26 S1.0000
X3.16 S0.4353
G0 X2.76 S0.0000
G1 X2.66 S0.7294
X2.46 S0.9804
X2.26 S0.9216
X2.06 S0.5216
X1.86 S0.4667
X1.66 S0.9490
X1.46 S0.8902
X1.06 S1.0000
X0.86 S0.9412
X0.66 S0.2353
X0.46 S1.0000
X0.36 S0.3804
G0 X-7.04 S0.0000
G1 X-7.14 S0.0078
X-7.34 S0.6706
X-7.74 S1.0000
X-7.84 S0.2118
G0 X-10.94 S0.0000
G1 X-11.04 S0.0745
G0 Y7.89 S0.0000
G1 X-10.94 S0.0745
G0 X-7.64 S0.0000
G1 X-7.54 S0.9176
X-7.34 S1.0000
X-7.14 S0.9686
X-7.04 S0.0275
G0 X0.36 S0.0000
G1 X0.46 S0.1882
X0.66 S0.5843
X0.86 S0.9608
X1.06 S0.0549
X1.26 S0.3059
X1.86 S0.0980
X2.06 S0.4941
X2.26 S0.7647
X2.86 S1.0000
X2.96 S0.1373
G0 X3.36 S0.0000
G1 X3.46 S0.7922
X3.66 S0.9961
X3.76 S0.3529
G0 X4.16 S0.0000
G1 X4.26 S0.9922
X4.46 S0.6706
X4.56 S0.3216
G0 X41.16 S0.0000
G1 X41.26 S0.3137
X41.46 S0.8784
X41.66 S0.6431
X41.86 S0.0980
X42.06 S0.0235
X42.26 S0.0941
X42.66 S0.8784
X42.76 S0.0902
G0 X43.16 S0.0000
G1 X43.26 S0.1176
X43.46 S0.1216
X43.66 S0.1176
X43.86 S0.0863
X44.06 S0.1333
X44.46 S0.8784
X44.66 S0.8824
X44.86 S0.0314
X45.06 S0.0118
X45.66 S0.1216
X45.86 S0.0431
X46.06 S0.8353
X46.46 S0.8784
X46.66 S0.2000
X46.76 S0.0235
G0 X48.96 S0.0000
G1 X49.06 S0.8627
G0 X49.56 S0.0000
G1 X49.66 S0.1255
X49.86 S0.5922
X50.06 S0.0902
X50.16 S0.2431
G0 X66.96 S0.0000
G1 X67.06 S0.0196
X67.26 S0.8431
X67.36 S0.0824
G0 X68.16 S0.0000
G1 X68.26 S0.0157
X68.46 S0.3529
X68.66 S0.2314
X68.86 S0.0980
X68.96 S0.0941
G0 X69.76 S0.0000
G1 X69.86 S0.0118
X70.06 S0.3216
X70.26 S0.9490
X70.46 S0.9020
X70.66 S0.0667
X70.76 S0.1608
G0 X71.16 S0.0000
G1 X71.26 S0.0510
X71.46 S0.8196
X71.66 S0.0157
X71.86 S0.0902
X71.96 S0.0078
G0 X72.36 S0.0000
G1 X72.56 S0.0196
G0 X73.36 S0.0000
G1 X73.46 S0.1451
X73.66 S0.1725
X73.86 S0.0824
X74.06 S0.8353
X74.26 S0.9765
X74.46 S0.3686
X74.66 S0.9843
X74.76 S0.8196
G0 X75.16 S0.0000
G1 X75.26 S0.5843
X75.36 S0.0078
G0 X124.96 S0.0000
G1 X125.06 S0.5804
X125.46 S1.0000
X125.56 S0.4157
G0 Y8.09 S0.0000
G1 X125.46 S0.0039
X125.06 S1.0000
X124.86 S0.9686
X124.76 S0.0471
G0 X75.76 S0.0000
G1 X75.66 S0.0392
X75.46 S0.2471
X75.36 S0.3843
G0 X74.96 S0.0000
G1 X74.86 S0.3569
X74.66 S0.6078
X74.46 S0.7294
X74.26 S0.3882
X74.06 S0.8588
X73.86 S0.6039
X73.66 S0.0902
X73.46 S0.3647
X73.26 S0.0039
X72.86 S0.0078
X72.66 S0.2196
X72.46 S0.3961
X72.26 S0.4353
X72.06 S0.5333
X71.86 S0.2235
X71.76 S0.0118
G0 X70.76 S0.0000
G1 X70.66 S0.3843
X70.46 S0.9804
X70.26 S0.4392
X69.86 S0.3882
X69.66 S0.0078
X69.46 S0.0039
X68.96 S0.0078
G0 X68.36 S0.0000
G1 X68.26 S0.0118
X68.06 S0.1882
X67.86 S0.5765
X67.66 S0.3804
X67.56 S0.1529
G0 X67.16 S0.0000
G1 X67.06 S0.3608
X66.86 S0.0118
X66.76 S0.3412
G0 X50.16 S0.0000
G1 X50.06 S0.1216
X49.86 S0.0549
X49.76 S0.0039
G0 X48.76 S0.0000
G1 X48.66 S0.0392
X48.46 S0.3451
X48.26 S0.4941
X48.06 S0.5843
X47.86 S0.0941
X47.66 S0.0275
X47.26 S0.6118
X47.06 S0.0078
X46.86 S0.3725
X46.66 S0.3961
X46.46 S0.5137
X46.26 S0.7804
X46.06 S0.6118
X45.86 S0.8157
X45.66 S0.9961
X45.26 S0.9922
X45.06 S1.0000
X44.86 S0.4353
X44.66 S0.3255
X44.26 S0.9882
X44.06 S0.5137
X43.86 S0.8392
X43.66 S1.0000
X43.46 S0.5020
X43.26 S0.5765
X43.16 S0.3333
G0 X42.56 S0.0000
G1 X42.46 S0.0471
X42.26 S0.4902
X42.06 S0.1725
X41.86 S0.4000
X41.66 S0.3843
X41.46 S0.0275
X41.26 S0.6039
X41.06 S0.1647
X40.86 S0.0588
X40.66 S0.3569
X40.56 S0.0078
G0 X39.96 S0.0000
G1 X39.76 S0.0039
G0 X4.96 S0.0000
G1 X4.86 S0.0039
X4.66 S0.2980
X4.46 S0.6196
X4.26 S0.9961
X4.06 S0.5647
X3.86 S0.0392
X3.66 S0.9098
X3.46 S1.0000
X3.36 S0.0627
G0 X2.96 S0.0000
G1 X2.86 S0.9490
X2.46 S0.9961
X2.26 S0.8000
X2.06 S0.1059
X1.86 S0.3882
X1.76 S0.0039
G0 X1.36 S0.0000
G1 X1.26 S0.8745
X1.06 S0.9882
X0.86 S0.3686
X0.66 S0.9608
X0.46 S1.0000
X0.36 S0.1882
G0 X-7.04 S0.0000
G1 X-7.14 S0.0745
X-7.34 S0.9725
X-7.54 S1.0000
X-7.64 S0.9137
G0 X-10.94 S0.0000
G1 X-11.04 S0.0745
G0 Y8.29 S0.0000
G1 X-10.94 S0.0745
G0 X-7.64 S0.0000
G1 X-7.54 S0.4431
X-7.14 S1.0000
X-7.04 S0.2941
G0 X0.36 S0.0000
G1 X0.46 S0.0431
X0.66 S0.9098
X0.86 S0.9647
X1.06 S0.3725
X1.26 S1.0000
X1.46 S0.1922
X1.66 S0.0392
X1.86 S0.0510
X2.06 S1.0000
X2.26 S0.9333
X2.46 S0.4039
X2.66 S0.1961
X2.86 S0.1569
X3.06 S0.0157
X3.16 S0.0039
G0 X3.56 S0.0000
G1 X3.66 S0.4314
X3.86 S1.0000
X4.06 S0.5804
X4.26 S0.0235
X4.46 S0.8471
X4.86 S1.0000
X4.96 S0.4235
G0 X38.76 S0.0000
G1 X38.86 S0.5255
G0 X39.16 S0.0000
G1 X39.26 S0.0392
X39.36 S0.0235
G0 X39.76 S0.0000
G1 X39.86 S0.0824
X40.06 S0.2000
X40.26 S0.5294
X40.46 S0.0549
X40.66 S0.2471
X40.86 S0.4706
X41.06 S0.6980
X41.26 S0.0471
X41.46 S0.4863
X41.66 S0.6863
X41.86 S0.7137
X42.06 S0.4235
X42.26 S0.3137
X42.46 S0.5059
X42.56 S0.5412
G0 X43.16 S0.0000
G1 X43.26 S0.0196
X43.86 S0.2314
X44.06 S0.9333
X44.26 S0.8588
X44.46 S1.0000
X44.66 S0.3412
X44.86 S0.0078
X45.06 S0.0235
X45.26 S0.2196
X45.46 S0.1529
X45.66 S0.7020
X46.46 S1.0000
X46.66 S0.1294
X46.86 S0.9059
X47.06 S0.1922
X47.26 S0.7294
X47.56 S0.3059
G0 X47.96 S0.0000
G1 X48.06 S0.5843
X48.26 S0.9176
X48.46 S0.9412
X48.56 S0.0588
G0 X48.96 S0.0000
G1 X49.06 S0.0078
X49.16 S0.6275
G0 X50.56 S0.0000
G1 X50.66 S0.1373
X50.76 S0.0784
G0 X66.76 S0.0000
G1 X66.86 S0.0314
G0 X67.16 S0.0000
G1 X67.26 S0.0510
X67.46 S0.1294
X67.66 S0.2314
X67.76 S0.0784
G0 X68.76 S0.0000
G1 X68.86 S0.6824
X69.06 S0.6000
X69.46 S0.3137
X69.56 S0.0706
G0 X70.96 S0.0000
G1 X71.96 S0.0824
G0 X72.36 S0.0000
G1 X72.46 S0.1333
X72.66 S0.2863
X72.86 S0.9137
X73.06 S0.2314
X73.26 S0.2588
X73.36 S0.6510
G0 X73.76 S0.0000
G1 X73.86 S0.3765
X74.26 S0.0824
X74.46 S0.0118
X74.66 S0.2235
X74.86 S0.8980
X74.96 S0.6510
G0 X75.36 S0.0000
G1 X75.46 S0.0510
X75.66 S0.1961
X75.86 S0.4745
X75.96 S0.0275
G0 X94.36 S0.0000
G1 X94.46 S0.3725
X94.56 S0.0745
G0 X95.36 S0.0000
G1 X95.56 S0.0118
G0 X97.56 S0.0000
G1 X97.66 S0.4431
X97.86 S0.6824
X97.96 S0.4353
G0 X99.16 S0.0000
G1 X99.26 S0.0353
X99.46 S0.0824
X99.56 S0.0431
G0 X124.76 S0.0000
G1 X124.86 S0.1608
X125.06 S0.9804
X125.26 S1.0000
X125.36 S0.9725
G0 Y8.49 S0.0000
G1 X125.26 S0.6706
X124.86 S1.0000
X124.76 S0.3176
G0 X101.06 S0.0000
G1 X100.96 S0.0118
G0 X100.56 S0.0000
G1 X100.46 S0.0275
X100.36 S0.0118
G0 X99.96 S0.0000
G1 X99.86 S0.3686
X99.46 S0.7176
X99.36 S0.1686
G0 X98.66 S0.0000
G1 X98.56 S0.0196
G0 X97.96 S0.0000
G1 X97.86 S0.6745
X97.76 S0.6235
G0 X97.16 S0.0000
G1 X97.06 S0.0078
X96.96 S0.0275
G0 X95.26 S0.0000
G1 X95.16 S0.5255
G0 X94.76 S0.0000
G1 X94.66 S0.0745
X94.56 S0.0039
G0 X77.36 S0.0000
G1 X77.26 S0.0039
X77.06 S0.0118
X76.86 S0.2824
X76.76 S0.1765
G0 X76.36 S0.0000
G1 X76.26 S0.2588
X76.06 S0.6314
X75.96 S0.7176
G0 X75.36 S0.0000
G1 X75.26 S0.2431
X75.06 S0.0667
X74.96 S0.3020
G0 X74.56 S0.0000
G1 X74.46 S0.0431
X74.26 S0.9608
X74.06 S0.8235
X73.86 S0.5843
X73.66 S0.0549
X73.46 S0.1137
X73.36 S0.3529
G0 X72.56 S0.0000
G1 X72.46 S0.0314
X72.26 S0.0627
X72.06 S0.7176
X71.86 S0.8353
X71.46 S1.0000
X71.26 S0.9765
X71.06 S0.9882
X70.96 S0.1765
G0 X70.56 S0.0000
G1 X70.46 S0.0235
X70.26 S0.6824
X70.06 S0.7412
X69.86 S0.5451
X69.66 S0.0118
X69.46 S0.7529
X69.26 S0.6471
X68.86 S0.9725
X68.66 S0.7451
X68.46 S0.7843
X68.36 S0.0980
G0 X66.96 S0.0000
G1 X66.86 S0.6275
X66.66 S0.2510
X66.56 S0.0196
G0 X49.56 S0.0000
G1 X49.46 S0.2196
X49.36 S0.0039
G0 X48.36 S0.0000
G1 X48.26 S0.2314
X48.06 S0.3176
X47.86 S0.8275
X47.66 S0.2706
X47.46 S0.2392
X47.26 S0.7882
X47.06 S0.1529
X46.86 S0.0235
X46.66 S0.7176
X46.46 S0.0510
X46.26 S0.2588
X46.06 S0.3961
X45.86 S0.7176
X45.76 S0.5137
G0 X44.96 S0.0000
G1 X44.46 S0.0275
X44.36 S0.0196
G0 X43.76 S0.0000
G1 X43.66 S0.0118
X43.46 S0.8549
X43.26 S0.9922
X43.06 S0.9725
X42.86 S0.2549
X42.66 S0.0039
X42.46 S0.0275
X42.36 S0.0078
G0 X41.96 S0.0000
G1 X41.66 S0.7176
X41.56 S0.6824
G0 X40.96 S0.0000
G1 X40.86 S0.1098
X40.66 S0.7176
X40.46 S0.3059
X40.26 S0.2471
X40.06 S0.3804
X39.86 S0.1294
X39.66 S0.2157
X39.56 S0.3608
G0 X38.16 S0.0000
G1 X38.06 S0.7529
X37.86 S0.4157
X37.76 S0.0078
G0 X5.16 S0.0000
G1 X5.06 S0.0353
X4.86 S0.4235
X4.46 S1.0000
X4.26 S0.6588
X4.06 S0.0118
X3.86 S1.0000
X3.66 S0.9882
X3.56 S0.0235
G0 X3.16 S0.0000
G1 X3.06 S0.5765
X2.86 S0.9765
X2.66 S0.5176
X2.46 S0.7843
X2.06 S1.0000
X1.96 S0.9882
G0 X1.56 S0.0000
G1 X1.46 S0.3216
X1.26 S0.2431
X1.06 S0.0314
X0.86 S0.3686
X0.66 S1.0000
X0.56 S0.4431
G0 X-7.04 S0.0000
G1 X-7.14 S0.9255
X-7.44 S1.0000
G0 X-10.94 S0.0000
G1 X-11.04 S0.0745
G0 Y8.69 S0.0000
G1 X-10.94 S0.0745
G0 X-7.44 S0.0000
G1 X-7.14 S1.0000
X-7.04 S0.9020
G0 X0.76 S0.0000
G1 X0.86 S0.3647
X1.06 S0.2588
X1.26 S0.8980
X1.46 S0.9882
X1.66 S0.4196
X1.86 S0.1176
X2.06 S0.4941
X2.46 S1.0000
X2.66 S0.7843
X2.86 S0.5176
X3.06 S1.0000
X3.16 S0.2706
G0 X3.76 S0.0000
G1 X3.86 S0.5373
X4.06 S1.0000
X4.16 S0.5059
G0 X4.56 S0.0000
G1 X4.66 S0.7569
X4.86 S1.0000
X5.06 S0.3412
X5.16 S0.8235
G0 X37.76 S0.0000
G1 X37.86 S0.0078
X38.06 S0.1176
X38.16 S0.5137
G0 X38.56 S0.0000
G1 X38.66 S0.1333
X38.86 S0.0039
X39.06 S0.0353
X39.26 S0.3451
X39.46 S0.3882
X39.66 S0.0157
X39.86 S0.4824
X40.06 S0.4745
X40.26 S0.5765
X40.36 S0.1804
G0 X41.16 S0.0000
G1 X41.26 S0.1137
X41.36 S0.2471
G0 X42.36 S0.0000
G1 X42.46 S0.4784
X42.66 S0.4078
X42.86 S0.1922
X43.06 S0.6118
X43.26 S0.4902
X43.46 S0.8706
X43.66 S0.6078
X43.86 S0.6392
X44.06 S0.5490
X44.26 S0.0235
X44.46 S0.2627
X44.66 S0.8275
X44.86 S1.0000
X45.06 S0.8471
X45.46 S0.4667
X45.66 S0.6196
X45.86 S0.2863
X45.96 S0.0824
G0 X46.96 S0.0000
G1 X47.06 S0.6078
X47.46 S0.8471
X47.66 S0.7490
X47.86 S0.7333
X48.06 S0.8706
X48.26 S0.7882
X48.46 S0.8980
X48.56 S0.4667
G0 X48.96 S0.0000
G1 X49.06 S0.1529
X49.16 S0.0980
G0 X49.96 S0.0000
G1 X50.06 S0.4667
X50.26 S0.0941
X50.46 S0.4431
X50.56 S0.1686
G0 X66.56 S0.0000
G1 X66.66 S0.2627
G0 X67.16 S0.0000
G1 X67.26 S0.0627
X67.36 S0.0392
G0 X68.16 S0.0000
G1 X68.26 S0.1529
X68.46 S0.2745
X68.66 S0.0118
X68.76 S0.2941
G0 X69.36 S0.0000
G1 X69.46 S0.1804
X69.66 S0.0863
X69.86 S0.1843
X70.06 S0.6627
X70.26 S0.5333
X70.46 S0.9686
X70.66 S0.9725
X70.76 S0.6235
G0 X71.16 S0.0000
G1 X71.26 S0.2510
X71.46 S0.1804
X71.66 S0.4471
X71.86 S0.3804
X71.96 S0.1608
G0 X72.36 S0.0000
G1 X72.46 S0.3608
X72.66 S0.1922
X73.06 S0.1529
X73.16 S0.1490
G0 X73.56 S0.0000
G1 X73.66 S0.3529
X73.86 S0.7961
X74.06 S0.5961
X74.46 S0.5333
X74.66 S0.3686
X74.86 S0.0039
X75.06 S0.0196
X75.26 S0.7647
X75.46 S0.4745
X75.66 S0.5216
X75.76 S0.1529
G0 X76.76 S0.0000
G1 X76.86 S0.4627
X77.06 S0.3804
X77.26 S0.7294
X77.46 S0.1373
X77.66 S0.4667
X77.76 S0.1216
G0 X93.96 S0.0000
G1 X94.06 S0.1451
X94.26 S0.3725
X94.46 S0.1765
X94.66 S0.0392
X94.86 S0.0039
X95.06 S0.1529
X95.16 S0.1098
G0 X96.56 S0.0000
G1 X96.66 S0.0824
X96.86 S0.1804
X97.06 S1.0000
X97.26 S0.3922
X97.46 S0.1529
X97.56 S0.0549
G0 X98.36 S0.0000
G1 X98.46 S0.1098
X98.66 S0.4549
X98.86 S0.1529
X98.96 S0.0157
G0 X99.76 S0.0000
G1 X99.86 S0.0314
X100.06 S0.0157
X100.26 S0.5647
X100.46 S0.2392
X100.66 S0.3804
X100.86 S0.0078
X101.06 S0.2196
X101.26 S0.5059
X101.46 S0.1529
X101.56 S0.0314
G0 X124.56 S0.0000
G1 X124.66 S0.0078
X124.86 S0.6902
X125.26 S1.0000
X125.36 S0.3608
G0 Y8.89 S0.0000
G1 X125.26 S0.0196
X125.06 S0.8824
X124.86 S1.0000
X124.66 S0.9176
X124.56 S0.0784
G0 X101.76 S0.0000
G1 X101.66 S0.1490
X101.46 S0.4824
X101.26 S0.6941
X101.06 S0.2431
X100.86 S0.1765
X100.66 S0.5451
X100.46 S0.0745
X100.26 S0.4471
X100.06 S0.6549
X99.86 S0.8471
X99.76 S0.0902
G0 X98.96 S0.0000
G1 X98.86 S0.8039
X98.66 S0.4431
X98.46 S0.1608
X98.26 S0.1725
X97.66 S0.3412
X97.46 S0.0980
X97.26 S0.1059
X96.86 S0.4431
X96.66 S0.1020
X96.56 S0.0549
G0 X95.16 S0.0000
G1 X95.06 S0.0745
X94.86 S0.1020
X94.76 S0.5451
G0 X94.36 S0.0000
G1 X94.26 S0.0941
X94.06 S0.4667
X93.86 S0.4078
X93.66 S0.1373
X93.56 S0.0314
G0 X77.36 S0.0000
G1 X77.26 S0.0549
X77.06 S0.3843
X76.86 S0.0039
X76.66 S0.1059
X76.46 S0.3569
X76.36 S0.3373
G0 X75.96 S0.0000
G1 X75.86 S0.4706
X75.66 S0.9412
X75.46 S0.2745
X75.36 S0.2275
G0 X74.96 S0.0000
G1 X74.86 S0.1804
X74.66 S0.5843
X74.46 S0.8235
X74.26 S0.9490
X74.06 S0.6588
X73.86 S0.5490
X73.66 S0.1333
X73.46 S0.0627
X73.26 S0.7804
X73.06 S0.6549
X72.86 S0.5569
X72.66 S0.2941
X72.46 S0.4431
X72.26 S0.2902
X72.06 S0.0706
X71.66 S0.3412
X71.46 S0.3882
X71.26 S0.2314
X71.06 S0.0706
X70.86 S0.4235
X70.46 S0.4431
X70.26 S0.8863
X69.86 S0.6588
X69.66 S0.0039
X69.46 S0.2549
X69.06 S0.3412
X68.86 S0.0157
X68.66 S0.0235
X68.46 S0.8745
X68.26 S0.0627
X68.06 S0.6157
X67.86 S0.7490
X67.66 S0.4471
X67.46 S0.0039
X67.26 S0.0275
X67.06 S0.3686
X66.96 S0.3412
G0 X50.56 S0.0000
G1 X50.46 S0.1529
X50.36 S0.4510
G0 X49.76 S0.0000
G1 X49.66 S0.1843
X49.46 S0.2235
X49.26 S0.8902
X49.06 S0.6510
X48.96 S0.0078
G0 X48.56 S0.0000
G1 X48.46 S0.0471
X48.26 S0.6392
X48.06 S0.4078
X47.86 S0.3490
X47.76 S0.0784
G0 X46.96 S0.0000
G1 X46.86 S0.0039
X46.26 S0.3412
X46.06 S0.0588
X45.86 S0.2392
X45.66 S0.6000
X45.46 S1.0000
X44.86 S0.8980
X44.66 S1.0000
X44.46 S0.8824
X44.26 S0.3882
X44.06 S0.1020
X43.66 S0.6588
X43.46 S0.7137
X43.26 S1.0000
X43.06 S0.9137
X42.86 S0.9922
X42.66 S0.4431
X42.56 S0.3216
G0 X41.96 S0.0000
G1 X41.86 S0.3412
X41.66 S0.2863
X41.46 S0.5569
X41.26 S0.0667
X41.06 S0.3216
X40.86 S0.3412
X40.76 S0.1490
G0 X40.16 S0.0000
G1 X40.06 S0.1961
X39.86 S0.5569
X39.66 S0.0745
X39.46 S0.0118
X39.26 S0.5569
X39.06 S0.3922
X38.86 S0.3647
X38.66 S0.4275
X38.46 S0.0902
X38.26 S0.1569
X38.06 S0.6549
X37.86 S0.1098
X37.66 S0.0078
X37.46 S0.4471
X37.36 S0.0353
G0 X5.16 S0.0000
G1 X5.06 S0.8863
X4.66 S1.0000
X4.46 S0.0667
X4.26 S0.3373
X4.06 S0.9882
X3.86 S0.9647
X3.76 S0.0902
G0 X3.16 S0.0000
G1 X3.06 S0.6078
X2.86 S1.0000
X2.66 S0.5176
X2.46 S0.7843
X2.06 S1.0000
X1.86 S0.1294
X1.66 S0.7725
X1.46 S0.4784
X1.26 S1.0000
X1.06 S0.9922
X0.96 S0.2392
G0 X-6.84 S0.0000
G1 X-6.94 S0.0196
X-7.14 S0.9451
X-7.44 S1.0000
G0 X-10.94 S0.0000
G1 X-11.04 S0.0745
G0 Y9.09 S0.0000
G1 X-10.94 S0.0745
G0 X-7.44 S0.0000
G1 X-7.34 S0.6314
X-6.94 S1.0000
X-6.84 S0.4000
G0 X0.76 S0.0000
G1 X0.86 S0.0039
X1.06 S0.0118
X1.26 S0.9569
X1.46 S1.0000
X1.66 S0.7529
X1.76 S0.7490
G0 X2.36 S0.0000
G1 X2.46 S0.3961
X2.66 S0.1216
X2.86 S0.1059
X3.06 S0.5098
X3.26 S0.2471
X3.36 S0.1373
G0 X3.96 S0.0000
G1 X4.06 S0.2784
X4.26 S1.0000
X4.46 S0.8667
X4.66 S0.0157
X4.86 S0.8353
X5.06 S1.0000
X5.26 S0.9843
X5.36 S0.0627
G0 X36.76 S0.0000
G1 X36.86 S0.0902
X36.96 S0.6392
G0 X37.76 S0.0000
G1 X37.86 S0.0431
X37.96 S0.2784
G0 X38.36 S0.0000
G1 X38.46 S0.1569
X38.66 S0.5020
X38.86 S0.5137
X39.06 S0.3098
X39.26 S0.0078
X39.46 S0.0039
X40.06 S0.1059
X40.16 S0.0275
G0 X40.56 S0.0000
G1 X40.66 S0.0431
X40.86 S0.5020
X41.06 S0.1098
X41.26 S0.4902
X41.46 S0.5451
X41.66 S0.5098
X41.86 S0.9490
X41.96 S0.3451
G0 X42.36 S0.0000
G1 X42.46 S0.1059
X42.66 S0.5647
X42.86 S0.4980
X43.06 S0.5961
X43.26 S0.9922
X43.46 S0.6314
X43.66 S0.9137
X43.86 S0.4745
X44.06 S0.4039
X44.26 S0.0627
X44.46 S0.6196
X44.66 S0.9843
X45.06 S1.0000
X45.26 S0.8941
X45.46 S0.5490
X45.66 S0.4902
X45.76 S0.1373
G0 X46.16 S0.0000
G1 X46.26 S0.5765
X47.06 S1.0000
X47.26 S0.5059
X47.46 S0.1059
X47.56 S0.0784
G0 X48.36 S0.0000
G1 X48.46 S0.4902
X48.66 S0.3373
X48.86 S0.1059
X49.06 S0.1098
X49.26 S0.5569
X49.46 S0.1059
X49.66 S0.4784
X49.86 S0.4706
X50.06 S0.1059
X50.26 S0.0196
X50.46 S0.0667
X50.66 S0.2431
X50.86 S0.2745
X50.96 S0.0039
G0 X65.36 S0.0000
G1 X65.46 S0.4588
G0 X65.96 S0.0000
G1 X66.06 S0.4471
X66.16 S0.1451
G0 X66.56 S0.0000
G1 X66.66 S0.2000
X66.86 S0.6667
X67.06 S0.6078
X67.16 S0.6667
G0 X67.56 S0.0000
G1 X67.66 S0.0510
X67.86 S0.6588
X68.06 S0.4980
X68.26 S0.5098
X68.46 S0.6431
X68.66 S0.4196
X68.86 S0.0353
X69.06 S0.5098
X69.26 S0.5882
X69.46 S0.6196
X69.66 S0.7686
X69.86 S0.5098
X69.96 S0.0824
G0 X70.56 S0.0000
G1 X70.66 S0.0431
X70.86 S0.0902
X71.06 S0.0078
X71.26 S0.4157
X71.86 S0.5098
X72.06 S1.0000
X72.26 S0.5137
X72.36 S0.0471
G0 X72.76 S0.0000
G1 X72.86 S0.4000
X73.06 S0.4118
X73.26 S0.6667
X73.46 S1.0000
X73.66 S0.8549
X73.86 S0.2627
X73.96 S0.1765
G0 X74.56 S0.0000
G1 X74.66 S0.2588
X74.86 S0.9725
X75.06 S0.5647
X75.26 S0.0157
X75.46 S0.0627
X75.66 S0.3412
X75.86 S0.9137
X76.06 S0.7373
X76.26 S0.3922
X76.46 S0.4000
X76.66 S0.8745
X76.76 S0.6588
G0 X77.36 S0.0000
G1 X77.46 S0.7725
X77.66 S0.8745
X77.86 S0.2314
X77.96 S0.0078
G0 X92.96 S0.0000
G1 X93.06 S0.1098
X93.16 S0.2392
G0 X94.76 S0.0000
G1 X94.86 S0.2588
X94.96 S0.4902
G0 X95.76 S0.0000
G1 X95.86 S0.0235
X96.06 S0.3098
X96.26 S0.4157
X96.46 S0.5765
X96.56 S0.4902
G0 X97.56 S0.0000
G1 X97.86 S0.4902
X98.06 S0.8706
X98.26 S0.2392
X98.36 S0.0157
G0 X98.96 S0.0000
G1 X99.06 S0.0157
X99.26 S0.2431
X99.46 S0.6745
X99.56 S0.4902
G0 X99.96 S0.0000
G1 X100.06 S0.4157
X100.26 S0.5059
X100.46 S0.4353
X100.56 S0.1059
G0 X100.96 S0.0000
G1 X101.06 S0.2902
X101.26 S0.3922
X101.46 S0.2588
X101.66 S0.8941
X101.86 S0.6000
X102.06 S0.0941
X102.26 S0.7294
X102.46 S0.9529
X102.66 S0.4784
X102.86 S0.2078
X102.96 S0.1020
G0 X124.56 S0.0000
G1 X124.66 S0.1608
X124.86 S0.9686
X125.06 S1.0000
X125.16 S0.8235
G0 Y9.29 S0.0000
G1 X125.06 S0.4314
X124.66 S1.0000
X124.56 S0.4235
G0 X103.36 S0.0000
G1 X103.26 S0.2314
X103.06 S0.7451
X102.86 S0.9961
X102.66 S1.0000
X102.46 S0.1961
X102.26 S0.5098
X102.06 S0.8510
X101.86 S0.0784
X101.76 S0.1843
G0 X101.16 S0.0000
G1 X101.06 S0.0784
X100.86 S0.3451
X100.76 S0.0078
G0 X100.36 S0.0000
G1 X100.26 S0.2863
X100.06 S0.2039
X99.96 S0.0902
G0 X99.56 S0.0000
G1 X99.46 S0.0039
X99.26 S0.5843
X99.06 S0.4471
X98.96 S0.0314
G0 X98.16 S0.0000
G1 X98.06 S0.3020
X97.86 S0.4667
X97.76 S0.1922
G0 X96.76 S0.0000
G1 X96.66 S0.7922
X96.46 S0.8118
X96.26 S0.8745
X96.06 S0.1882
X95.86 S0.2980
X95.76 S0.2078
G0 X95.16 S0.0000
G1 X95.06 S0.6863
X94.86 S0.5059
X94.76 S0.8863
G0 X94.16 S0.0000
G1 X94.06 S0.0706
X93.96 S0.1333
G0 X93.36 S0.0000
G1 X93.26 S0.6392
X93.06 S0.4314
X92.86 S0.6314
X92.76 S0.6588
G0 X92.46 S0.0000
G1 X92.36 S0.3725
G0 X79.06 S0.0000
G1 X78.96 S0.0275
G0 X78.56 S0.0000
G1 X78.46 S0.0039
X78.26 S0.5569
X78.06 S0.0745
X77.86 S0.3882
X77.66 S0.4745
X77.46 S0.2353
X77.26 S0.0431
X77.06 S0.3137
X76.86 S0.4667
X76.66 S0.6784
X76.46 S0.6157
X76.26 S0.0824
X76.06 S0.7216
X75.86 S0.5529
X75.66 S0.0824
X75.46 S0.1059
X75.26 S0.6941
X75.06 S0.0902
X74.86 S0.9686
X74.66 S0.2392
X74.46 S0.1255
X74.26 S0.6824
X74.06 S0.8118
X73.86 S0.6353
X73.66 S0.0706
X73.46 S0.6549
X73.26 S0.4941
X73.06 S0.1882
X72.86 S0.0157
X72.66 S0.0078
X72.46 S0.0627
X72.26 S0.6275
X71.66 S1.0000
X71.46 S0.5843
X71.26 S0.1882
X71.06 S0.0196
X70.86 S0.4588
X70.66 S0.5333
X70.46 S0.8902
X70.26 S0.3843
X70.06 S0.1765
X69.86 S0.1451
X69.66 S0.8157
X69.46 S0.4667
X69.26 S0.6392
X69.06 S0.5098
X68.86 S0.8549
X68.76 S0.5059
G0 X68.16 S0.0000
G1 X68.06 S0.1725
X67.86 S0.0824
X67.66 S0.1765
X67.46 S0.0745
X67.36 S0.0863
G0 X66.96 S0.0000
G1 X66.86 S0.1725
X66.66 S0.5765
X66.56 S0.8824
G0 X66.16 S0.0000
G1 X66.06 S0.1255
X65.86 S0.4431
X65.66 S0.3608
X65.56 S0.2863
G0 X51.76 S0.0000
G1 X51.66 S0.1216
X51.56 S0.4235
G0 X51.16 S0.0000
G1 X51.06 S0.2824
X50.86 S0.0078
X50.66 S0.2902
X50.46 S0.2706
X50.26 S0.1176
X50.06 S0.1059
X49.86 S0.8157
X49.66 S0.3176
X49.46 S0.1412
X49.26 S0.6941
X49.06 S0.8078
X48.86 S0.8784
X48.66 S0.5333
X48.46 S0.7451
X48.26 S0.7333
X48.06 S0.0157
X47.86 S0.2627
X47.66 S0.2353
X47.46 S0.6549
X47.26 S1.0000
X47.06 S0.6118
X46.46 S0.5333
X46.26 S0.7451
X46.06 S0.3765
X45.06 S0.3451
X44.86 S0.5333
X44.66 S0.4196
X44.56 S0.1608
G0 X44.16 S0.0000
G1 X44.06 S0.2824
X43.86 S0.0706
X43.66 S0.1176
X43.46 S0.1882
X43.26 S0.0078
X43.06 S0.6392
X42.86 S0.6510
X42.66 S0.4392
X42.26 S0.1882
X42.06 S0.0039
X41.86 S0.0353
X41.66 S0.4902
X41.46 S0.6196
X41.26 S0.5882
X41.06 S0.7176
X40.86 S0.5333
X40.76 S0.3255
G0 X40.36 S0.0000
G1 X40.26 S0.0275
X40.06 S0.6275
X39.66 S0.5333
X39.46 S0.6431
X39.26 S0.7608
X39.16 S0.2471
G0 X38.56 S0.0000
G1 X38.46 S0.0235
X38.36 S0.1882
G0 X37.96 S0.0000
G1 X37.86 S0.1490
X37.66 S0.5333
X37.56 S0.0941
G0 X36.36 S0.0000
G1 X36.26 S0.0784
X36.16 S0.0431
G0 X5.36 S0.0000
G1 X5.26 S0.7176
X5.06 S1.0000
X4.86 S0.9529
X4.66 S0.0431
X4.46 S0.5255
X4.26 S1.0000
X4.16 S0.8471
G0 X3.36 S0.0000
G1 X3.26 S0.8118
X3.06 S0.6706
X2.86 S0.9804
X2.66 S0.7922
X2.56 S0.0392
G0 X1.76 S0.0000
G1 X1.66 S0.0863
X1.46 S0.9843
X1.26 S1.0000
X1.06 S0.4863
X0.86 S0.2510
X0.76 S0.3647
G0 X-6.84 S0.0000
G1 X-6.94 S0.7686
X-7.14 S1.0000
X-7.34 S0.9569
X-7.44 S0.0863
G0 X-10.94 S0.0000
G1 X-11.04 S0.0745
G0 Y9.49 S0.0000
G1 X-10.94 S0.0745
G0 X-7.24 S0.0000
G1 X-7.14 S0.8706
X-6.94 S1.0000
X-6.74 S0.9608
X-6.64 S0.0392
G0 X0.76 S0.0000
G1 X0.86 S0.4706
X0.96 S0.5412
G0 X1.36 S0.0000
G1 X1.66 S1.0000
X1.86 S0.1059
X2.06 S0.0549
X2.16 S0.4706
G0 X2.76 S0.0000
G1 X2.86 S0.1804
X3.06 S1.0000
X3.26 S0.4275
X3.46 S1.0000
X3.56 S0.4824
G0 X4.16 S0.0000
G1 X4.26 S0.1137
X4.66 S1.0000
X4.86 S0.1137
X5.06 S0.5843
X5.46 S1.0000
X5.56 S0.6353
G0 X37.16 S0.0000
G1 X37.26 S0.6078
G0 X37.76 S0.0000
G1 X37.86 S0.2667
X37.96 S0.5137
G0 X39.16 S0.0000
G1 X39.26 S0.0510
X39.46 S0.7294
X39.66 S0.9098
X39.86 S0.3490
X40.06 S0.8392
X40.26 S0.6784
X40.36 S0.6510
G0 X40.76 S0.0000
G1 X40.86 S0.1686
X41.06 S0.5765
X41.26 S0.6784
X41.46 S0.8980
X41.66 S0.3294
X41.76 S0.1647
G0 X42.16 S0.0000
G1 X42.46 S0.6510
X42.56 S0.0392
G0 X43.56 S0.0000
G1 X43.66 S0.0549
X43.86 S0.3216
X44.06 S0.4196
X44.26 S0.8471
X44.46 S0.2000
X44.66 S0.0980
X44.86 S0.7725
X45.06 S0.9373
X45.26 S0.3490
X45.46 S0.0745
X46.06 S0.0275
X46.46 S0.7059
X46.66 S0.8667
X46.86 S0.8941
X47.06 S0.9882
X47.26 S0.0275
X47.46 S0.2039
X47.66 S0.0471
X47.86 S0.6039
X48.06 S0.1098
X48.26 S0.9451
X48.46 S0.9922
X48.66 S0.8353
X48.86 S0.9647
X49.06 S0.3490
X49.26 S0.9922
X49.46 S0.6784
X49.56 S0.5686
G0 X49.96 S0.0000
G1 X50.06 S0.0157
X50.26 S0.1098
X50.46 S0.0118
X50.56 S0.0039
G0 X50.96 S0.0000
G1 X51.06 S0.6392
G0 X51.56 S0.0000
G1 X51.76 S0.0078
G0 X64.56 S0.0000
G1 X64.66 S0.3373
X64.86 S0.2980
X64.96 S0.1059
G0 X65.36 S0.0000
G1 X65.46 S0.0078
X65.66 S0.7451
X65.76 S0.2275
G0 X66.16 S0.0000
G1 X66.26 S0.2196
X66.46 S0.5294
X66.56 S0.0588
G0 X67.16 S0.0000
G1 X67.26 S0.2706
X67.36 S0.1647
G0 X67.76 S0.0000
G1 X67.86 S0.0078
G0 X68.96 S0.0000
G1 X69.06 S0.1882
X69.16 S0.0235
G0 X69.76 S0.0000
G1 X69.86 S0.0118
X70.06 S0.0745
X70.26 S0.5020
X70.46 S0.6784
X70.66 S0.8118
X70.86 S0.9804
X71.26 S0.9725
X71.46 S0.0667
X71.86 S0.0275
X72.06 S0.3490
X72.26 S0.8353
X72.46 S0.3490
X72.66 S0.5843
X72.86 S0.7961
X72.96 S0.7098
G0 X73.76 S0.0000
G1 X73.86 S0.5137
X74.06 S0.5686
X74.46 S1.0000
X74.66 S0.9843
X74.86 S0.6118
X75.06 S0.0275
X75.26 S0.1608
X75.46 S0.9843
X75.66 S0.9137
X75.86 S0.0431
X76.06 S0.2431
X76.26 S0.0549
X76.36 S0.0078
G0 X76.76 S0.0000
G1 X76.86 S0.6745
X77.06 S0.9725
X77.26 S0.8431
X77.36 S0.8980
G0 X77.76 S0.0000
G1 X77.86 S0.0118
X78.06 S0.0157
X78.26 S0.0510
X78.46 S0.4706
X78.66 S0.6902
X78.86 S0.0980
X78.96 S0.0039
G0 X91.76 S0.0000
G1 X91.86 S0.3098
X92.06 S0.2314
X92.16 S0.0392
G0 X92.56 S0.0000
G1 X92.66 S0.1961
X92.86 S0.0667
X93.06 S0.8667
X93.26 S0.6235
X93.46 S0.0745
X93.66 S0.3529
X93.86 S0.9725
X94.06 S0.9843
X94.26 S0.6549
X94.36 S0.3451
G0 X94.76 S0.0000
G1 X94.86 S0.0235
X95.06 S0.3255
X95.16 S0.0275
G0 X95.56 S0.0000
G1 X95.66 S0.6000
X95.86 S0.3373
X96.06 S0.7647
X96.26 S0.6510
X96.46 S0.0235
X96.66 S0.0275
X96.86 S0.3294
X97.06 S0.0510
X97.26 S0.9725
X97.46 S0.3255
X97.56 S0.8000
G0 X98.16 S0.0000
G1 X98.26 S0.6745
X98.46 S0.9725
X98.66 S0.9176
X98.76 S0.6196
G0 X99.16 S0.0000
G1 X99.26 S0.3216
X99.46 S0.1882
X99.56 S0.1686
G0 X100.36 S0.0000
G1 X100.46 S0.2510
X100.56 S0.0078
G0 X100.96 S0.0000
G1 X101.06 S0.1843
X101.16 S0.0039
G0 X101.96 S0.0000
G1 X102.06 S0.2549
X102.26 S0.7725
X102.46 S0.9294
X102.66 S0.0078
X102.86 S0.5647
X103.06 S0.3686
X103.26 S0.7961
X103.46 S0.7451
X103.56 S0.1294
G0 X124.56 S0.0000
G1 X124.66 S0.7098
X125.06 S1.0000
X125.16 S0.1490
G0 X124.96 Y9.69 S0.0000
G1 X124.86 S0.7882
X124.66 S1.0000
X124.46 S0.9882
X124.36 S0.1451
G0 X104.16 S0.0000
G1 X104.06 S0.0980
X103.86 S0.6431
X103.76 S0.2039
G0 X103.36 S0.0000
G1 X103.26 S0.9882
X103.06 S0.9059
X102.86 S1.0000
X102.66 S0.0118
X102.46 S0.1059
X102.26 S0.9725
X102.06 S0.7137
X101.86 S0.0353
X101.66 S0.1137
X101.26 S0.8510
X101.06 S0.2118
X100.86 S0.2510
X100.66 S0.9647
X100.46 S0.3843
X100.26 S0.1255
X100.06 S0.8824
X99.86 S0.9020
X99.76 S0.8902
G0 X99.16 S0.0000
G1 X99.06 S0.2196
X98.86 S0.5412
X98.46 S0.8510
X98.26 S0.8431
X98.16 S0.2157
G0 X97.76 S0.0000
G1 X97.66 S0.7020
X97.06 S0.7647
X96.96 S0.6706
G0 X96.36 S0.0000
G1 X96.26 S0.1020
X96.06 S0.8588
X95.66 S1.0000
X95.46 S0.9647
X95.36 S0.3843
G0 X94.96 S0.0000
G1 X94.86 S0.2118
X94.66 S0.2353
X94.46 S0.0157
X94.36 S0.0706
G0 X93.96 S0.0000
G1 X93.86 S0.1490
X93.76 S0.0392
G0 X92.96 S0.0000
G1 X92.86 S0.1490
X92.66 S0.0471
X92.46 S0.1725
X92.26 S0.5412
X92.16 S0.2078
G0 X91.56 S0.0000
G1 X91.46 S0.0706
X91.36 S0.0118
G0 X78.56 S0.0000
G1 X78.46 S0.4471
X78.26 S0.0706
X78.06 S0.1412
X77.86 S0.5294
X77.76 S0.5176
G0 X77.36 S0.0000
G1 X77.26 S0.5765
X77.06 S1.0000
X76.86 S0.2392
X76.66 S0.0039
X76.46 S0.2353
X76.36 S0.8431
G0 X75.96 S0.0000
G1 X75.86 S0.3961
X75.26 S1.0000
X75.06 S0.1961
X74.86 S0.2235
X74.66 S0.9882
X74.46 S0.9961
X74.26 S0.8510
X74.06 S0.7647
X73.86 S0.6588
X73.66 S0.1843
X73.46 S0.6471
X72.86 S1.0000
X72.66 S0.9843
X72.46 S0.1333
X71.86 S0.2353
X71.66 S0.3608
X71.46 S0.3059
X71.26 S0.1529
X71.06 S0.8549
X70.26 S1.0000
X70.06 S0.4588
X69.86 S0.1725
X69.66 S0.2353
X69.46 S0.6941
X69.26 S0.2902
X69.06 S0.1529
X68.86 S0.3529
X68.66 S0.9686
X68.06 S1.0000
X67.86 S0.5059
X67.66 S0.0471
X67.46 S0.1451
X67.26 S0.7529
X67.06 S0.9490
X66.86 S0.2706
X66.76 S0.6941
G0 X66.36 S0.0000
G1 X66.26 S0.0078
X66.16 S0.1961
G0 X65.76 S0.0000
G1 X65.66 S0.2039
X65.46 S0.0941
X65.26 S0.0039
X65.06 S0.4353
X64.96 S0.0549
G0 X64.66 S0.0000
G1 X64.56 S0.0980
G0 X64.26 S0.0000
G1 X64.16 S0.1373
G0 X52.96 S0.0000
G1 X52.86 S0.1333
X52.66 S0.3176
X52.46 S0.2706
X52.26 S0.0549
X52.06 S0.0784
X51.86 S0.3373
X51.66 S0.6824
X51.46 S0.3686
X51.26 S0.7569
X51.06 S0.8588
X50.86 S0.9843
X50.66 S0.5020
X50.56 S0.0314
G0 X49.96 S0.0000
G1 X49.86 S0.4745
X49.66 S0.2039
X49.46 S0.1255
X49.26 S0.4941
X49.06 S0.7529
X48.86 S0.9961
X48.46 S0.7647
X48.26 S0.6235
X48.06 S0.1529
X47.86 S0.6824
X47.66 S0.8510
X47.46 S0.8196
X47.26 S0.6157
X47.06 S0.0078
X46.86 S0.6078
X46.46 S0.6157
X46.26 S0.0275
X46.06 S0.5490
X45.86 S0.6941
X45.66 S0.7647
X45.46 S0.6745
X45.26 S0.1922
X45.16 S0.3059
G0 X44.76 S0.0000
G1 X44.66 S0.0980
X44.46 S0.6118
X43.66 S1.0000
X43.46 S0.7569
X43.26 S0.2353
X43.06 S0.3490
X42.86 S0.1451
X42.66 S0.0627
X42.46 S0.9412
X42.26 S0.8824
X42.06 S0.8549
X41.86 S0.2863
X41.66 S0.4039
X41.56 S0.5882
G0 X40.96 S0.0000
G1 X40.86 S0.1490
X40.76 S0.0667
G0 X40.16 S0.0000
G1 X40.06 S0.3412
X39.86 S0.1490
X39.66 S0.6000
X39.46 S0.8431
X39.26 S0.8353
X39.06 S0.3843
X38.96 S0.7020
G0 X38.56 S0.0000
G1 X38.46 S0.0941
X38.26 S0.6980
X38.06 S0.3412
X37.86 S0.6902
X37.66 S0.9961
X37.46 S0.8275
X37.36 S0.1725
G0 X36.96 S0.0000
G1 X36.86 S0.1608
X36.66 S0.1647
X36.56 S0.1608
G0 X5.56 S0.0000
G1 X5.46 S0.7961
X5.26 S1.0000
X5.06 S0.9725
X4.86 S0.0118
X4.66 S0.3686
X4.46 S1.0000
X4.36 S0.6902
G0 X3.76 S0.0000
G1 X3.66 S0.0941
X3.46 S0.9490
X3.26 S0.9451
X3.06 S0.3882
X2.96 S0.8863
G0 X2.16 S0.0000
G1 X2.06 S0.7216
X1.86 S0.4941
X1.66 S0.1059
X1.26 S1.0000
X1.06 S0.0196
X0.86 S0.5961
X0.76 S0.3176
G0 X-6.64 S0.0000
G1 X-6.74 S0.5176
X-7.14 S0.9961
X-7.24 S0.3216
G0 X-10.94 S0.0000
G1 X-11.04 S0.0745
G0 Y9.89 S0.0000
G1 X-10.94 S0.0745
G0 X-7.04 S0.0000
G1 X-6.94 S0.9843
X-6.74 S0.9882
X-6.64 S0.8196
G0 X0.76 S0.0000
G1 X0.86 S0.7059
X1.06 S0.7843
X1.26 S0.2314
X1.46 S0.5137
X1.66 S1.0000
X1.86 S0.7451
X2.06 S0.6235
X2.16 S0.1176
G0 X2.96 S0.0000
G1 X3.06 S0.8627
X3.26 S0.3725
X3.46 S0.7686
X3.66 S1.0000
X3.76 S0.5608
G0 X4.36 S0.0000
G1 X4.46 S0.0157
X4.66 S0.9765
X4.86 S1.0000
X5.06 S0.0549
X5.26 S0.0627
X5.46 S1.0000
X5.66 S0.9647
X5.76 S0.5725
G0 X34.96 S0.0000
G1 X35.06 S0.0275
X35.16 S0.2078
G0 X36.16 S0.0000
G1 X36.26 S0.3725
X36.46 S0.3804
X36.66 S0.0314
X36.76 S0.0039
G0 X37.16 S0.0000
G1 X37.26 S0.0392
X37.46 S0.6392
X37.66 S0.9882
X37.86 S0.6353
X38.06 S0.4510
X38.26 S0.7725
X38.46 S0.8039
X38.66 S0.0431
X38.86 S0.4549
X39.06 S0.9647
X39.26 S1.0000
X39.46 S0.6510
X39.56 S0.0392
G0 X40.16 S0.0000
G1 X40.26 S0.4392
X40.96 S0.5922
G0 X41.56 S0.0000
G1 X41.66 S0.9137
X41.86 S0.7216
X42.66 S1.0000
X42.76 S0.3882
G0 X43.16 S0.0000
G1 X43.26 S0.4902
X44.26 S1.0000
X44.46 S0.5882
X44.56 S0.2824
G0 X44.96 S0.0000
G1 X45.06 S0.0353
X45.46 S0.3647
X45.66 S0.6118
X46.06 S0.9569
X46.26 S0.9647
X46.36 S0.7961
G0 X46.76 S0.0000
G1 X47.06 S0.5922
X47.16 S0.5843
G0 X47.56 S0.0000
G1 X47.66 S0.0392
X47.86 S0.4078
X48.06 S0.8549
X48.26 S0.9569
X48.46 S0.6745
X48.56 S0.2902
G0 X48.96 S0.0000
G1 X49.06 S0.0431
G0 X49.76 S0.0000
G1 X49.86 S0.3176
X50.06 S0.8431
X50.26 S0.7608
X50.36 S0.3647
G0 X50.76 S0.0000
G1 X50.86 S0.2196
X51.06 S0.6275
X51.26 S0.7765
X51.46 S0.7294
X51.66 S0.4039
X51.86 S0.7490
X52.06 S0.6353
X52.26 S0.2471
X52.46 S0.2275
X52.66 S0.7725
X52.86 S0.2275
X53.06 S0.2784
X53.16 S0.0157
G0 X63.96 S0.0000
G1 X64.06 S0.4549
X64.26 S0.5333
X64.46 S0.5490
X64.66 S0.0431
X64.86 S0.3333
X65.06 S0.1176
X65.26 S0.0118
X65.46 S0.5294
X65.66 S0.8314
X65.86 S0.1647
X66.06 S0.7725
X66.26 S0.2784
X66.46 S0.5686
X66.66 S0.0392
X66.86 S0.5608
X67.06 S0.4784
X67.26 S0.6235
X67.46 S0.3843
X67.66 S0.0275
X67.86 S0.6471
X68.06 S1.0000
X68.26 S0.9529
X68.46 S0.7843
X68.66 S0.9922
X68.86 S0.8824
X69.06 S0.0196
X69.26 S0.9020
X69.86 S1.0000
X70.06 S0.9686
X70.26 S0.0902
X70.46 S0.3333
X70.66 S0.4078
X70.86 S0.1137
X71.06 S0.0510
X71.26 S0.1569
X71.46 S0.6471
X72.46 S1.0000
X72.66 S0.6314
X72.86 S0.0588
X73.66 S1.0000
X73.86 S0.9725
X74.06 S0.4314
X74.26 S0.3608
X74.86 S1.0000
X75.06 S0.9961
X75.26 S0.5608
X75.46 S0.4235
X75.86 S1.0000
X75.96 S0.6549
G0 X76.36 S0.0000
G1 X76.46 S0.9922
X76.66 S1.0000
X76.76 S0.7020
G0 X77.16 S0.0000
G1 X77.26 S0.0784
X77.46 S0.8941
X77.66 S0.7059
X77.86 S0.0118
X78.06 S0.6980
X78.26 S0.7059
X78.46 S0.0549
X78.66 S0.3569
X78.86 S0.7725
X78.96 S0.5451
G0 X91.36 S0.0000
G1 X91.46 S0.0039
X91.56 S0.0118
G0 X91.96 S0.0000
G1 X92.06 S0.7647
X92.26 S0.2431
X92.46 S0.4824
X92.66 S0.2392
X92.86 S0.3882
X92.96 S0.3020
G0 X93.56 S0.0000
G1 X93.66 S0.6118
X93.86 S0.5098
X94.06 S0.5765
X94.26 S0.4980
X94.46 S0.2902
X94.66 S0.9137
X94.86 S0.9922
X95.06 S0.6314
X95.26 S0.5882
X95.46 S0.1373
X95.66 S0.9922
X96.06 S1.0000
X96.26 S0.6235
X96.46 S0.1020
X97.06 S0.5922
X97.16 S0.4863
G0 X97.56 S0.0000
G1 X97.66 S0.1059
X97.86 S0.5922
X98.06 S0.8431
X98.26 S0.6431
X98.46 S0.0627
X98.66 S0.0431
X98.86 S0.3725
X99.06 S0.5961
X99.26 S0.9961
X99.46 S0.2392
X99.66 S0.3608
X99.86 S0.9882
X100.06 S0.9804
X100.26 S1.0000
X100.46 S0.0824
X100.66 S0.3294
X100.86 S1.0000
X101.06 S0.9176
X101.26 S0.4549
X101.46 S0.7137
X101.66 S0.3608
X101.86 S0.3843
X101.96 S0.2157
G0 X102.36 S0.0000
G1 X102.46 S0.0392
X102.56 S0.3373
G0 X102.96 S0.0000
G1 X103.06 S0.0431
X103.26 S0.2196
X103.36 S0.0431
G0 X103.76 S0.0000
G1 X103.86 S0.0157
X104.06 S0.2824
X104.26 S0.5137
X104.36 S0.2510
G0 X124.36 S0.0000
G1 X124.46 S0.5333
X124.66 S0.8275
X124.86 S1.0000
X124.96 S0.8980
G0 Y10.09 S0.0000
G1 X124.86 S0.7451
X124.46 S1.0000
X124.26 S0.9529
X124.16 S0.0706
G0 X104.36 S0.0000
G1 X104.26 S0.3882
X104.16 S0.2510
G0 X103.76 S0.0000
G1 X103.66 S0.0118
X103.56 S0.8784
G0 X102.96 S0.0000
G1 X102.86 S0.9686
X102.66 S0.0824
X102.46 S0.9882
X102.36 S0.0471
G0 X101.96 S0.0000
G1 X101.86 S0.7569
X101.66 S0.4431
X101.56 S0.7725
G0 X101.16 S0.0000
G1 X101.06 S0.1020
X100.86 S1.0000
X100.76 S0.9882
G0 X99.76 S0.0000
G1 X99.66 S0.4980
X99.46 S0.0196
X99.26 S0.7529
X99.06 S0.9255
X98.86 S0.1569
X98.76 S0.0039
G0 X98.36 S0.0000
G1 X98.26 S0.3020
X98.06 S0.3608
X97.86 S0.3137
X97.66 S1.0000
X97.46 S0.1765
X97.26 S0.6353
X96.46 S1.0000
X96.36 S0.1725
G0 X95.16 S0.0000
G1 X95.06 S0.7333
X94.46 S1.0000
X94.26 S0.4980
X94.06 S0.8353
X93.86 S0.9294
X93.66 S0.2510
X93.46 S0.9961
X93.26 S0.0039
X93.06 S0.8863
X92.86 S0.0157
X92.76 S0.6275
G0 X92.16 S0.0000
G1 X92.06 S0.5529
X91.86 S0.1451
X91.66 S0.0706
X91.46 S0.9922
X91.36 S0.0510
G0 X79.16 S0.0000
G1 X79.06 S0.2196
X78.86 S0.9098
X78.66 S0.0118
X78.46 S0.0078
X78.06 S1.0000
X77.96 S0.0118
G0 X77.56 S0.0000
G1 X77.46 S0.9294
X77.26 S0.2353
X77.06 S0.0078
X76.86 S0.9922
X76.66 S1.0000
X76.46 S0.9216
X76.26 S0.0118
X75.66 S1.0000
X75.56 S0.2157
G0 X75.16 S0.0000
G1 X74.46 S1.0000
X74.36 S0.8471
G0 X73.96 S0.0000
G1 X73.86 S0.6196
X73.26 S1.0000
X73.16 S0.3176
G0 X72.76 S0.0000
G1 X72.66 S0.5608
X72.46 S1.0000
X71.86 S0.9882
X71.66 S0.9922
X71.46 S1.0000
X71.36 S0.2667
G0 X70.96 S0.0000
G1 X70.86 S0.7569
X70.46 S1.0000
X70.26 S0.0902
X70.06 S0.4863
X68.86 S1.0000
X68.66 S0.0039
X68.46 S0.9725
X68.26 S0.6196
X68.06 S0.9922
X67.86 S0.0118
X67.66 S0.7961
X67.56 S0.0118
G0 X66.96 S0.0000
G1 X66.86 S0.0549
X66.66 S0.5686
X66.46 S0.1137
X66.26 S0.9529
X66.06 S0.0118
X65.86 S0.9098
X65.66 S0.1373
X65.46 S0.6157
X65.36 S0.9765
G0 X53.16 S0.0000
G1 X53.06 S0.8824
X52.96 S0.9882
G0 X52.56 S0.0000
G1 X52.46 S0.0078
X52.26 S0.4745
X52.06 S0.3373
X51.86 S0.9922
X51.66 S1.0000
X51.56 S0.0196
G0 X50.56 S0.0000
G1 X50.46 S0.8000
X50.26 S0.9882
X50.06 S0.3333
X49.86 S0.9176
X49.66 S0.9882
X49.26 S1.0000
X49.06 S0.9882
X48.96 S0.0118
G0 X48.56 S0.0000
G1 X48.46 S0.0824
X48.06 S0.9961
X47.86 S0.2745
X47.66 S0.0118
X47.46 S0.1490
X46.86 S1.0000
X46.76 S0.9216
G0 X46.36 S0.0000
G1 X46.26 S0.5412
X45.26 S1.0000
X45.06 S0.9961
X44.66 S0.9882
X44.56 S0.3020
G0 X43.56 S0.0000
G1 X43.46 S0.3176
X43.36 S0.9882
G0 X42.56 S0.0000
G1 X42.46 S0.0588
X41.86 S1.0000
X41.66 S0.5686
X41.46 S0.7373
X41.36 S0.6392
G0 X40.96 S0.0000
G1 X40.86 S1.0000
X40.66 S0.9922
X40.46 S1.0000
X40.26 S0.0118
X40.06 S0.7529
X39.86 S0.9961
X39.66 S0.2745
X39.56 S0.0039
G0 X38.16 S0.0000
G1 X38.06 S0.5451
X37.86 S0.9961
X37.66 S0.4118
X37.46 S0.8000
X37.26 S0.9961
X37.16 S1.0000
G0 X36.36 S0.0000
G1 X36.26 S0.1725
X36.06 S0.0980
X35.86 S0.6118
X35.76 S0.1725
G0 X35.06 S0.0000
G1 X34.96 S0.9882
G0 X34.66 S0.0000
G1 X34.56 S0.6039
G0 X6.16 S0.0000
G1 X6.06 S0.1020
X5.46 S1.0000
X5.36 S0.4157
G0 X4.96 S0.0000
G1 X4.86 S0.4314
X4.66 S1.0000
X4.56 S0.6157
G0 X3.96 S0.0000
G1 X3.86 S0.1098
X3.66 S1.0000
X3.46 S0.2667
X3.26 S0.0627
X3.06 S0.6078
X2.96 S0.8549
G0 X2.26 S0.0000
G1 X2.16 S0.0039
G0 X1.76 S0.0000
G1 X1.66 S0.7765
X1.46 S1.0000
X1.26 S0.1765
X1.06 S0.2353
X0.86 S0.5412
X0.76 S0.9490
G0 X-6.64 S0.0000
G1 X-6.74 S0.9922
X-6.94 S1.0000
X-7.04 S0.7686
G0 X-10.94 S0.0000
G1 X-11.04 S0.0745
G0 Y10.29 S0.0000
G1 X-10.94 S0.0745
G0 X-6.84 S0.0000
G1 X-6.54 S1.0000
X-6.44 S0.5725
G0 X0.76 S0.0000
G1 X0.86 S0.3922
X1.06 S0.9451
X1.26 S0.7647
X1.46 S0.0118
X1.86 S1.0000
X2.06 S0.0745
X2.26 S0.1333
X2.46 S0.2549
X2.66 S0.0118
X2.86 S0.5412
X3.06 S0.9804
X3.26 S0.2784
X3.46 S0.4627
X4.06 S1.0000
X4.16 S0.4667
G0 X4.76 S0.0000
G1 X4.86 S0.7961
X5.06 S0.8588
X5.16 S0.0353
G0 X5.56 S0.0000
G1 X5.66 S0.7255
X6.26 S1.0000
X6.36 S0.0196
G0 X33.96 S0.0000
G1 X34.06 S0.0235
G0 X35.56 S0.0000
G1 X35.66 S0.0157
X35.86 S0.3451
X36.06 S0.4431
X36.26 S0.4000
X36.46 S0.2667
X36.56 S0.0118
G0 X37.36 S0.0000
G1 X37.46 S0.0275
G0 X37.76 S0.0000
G1 X37.86 S0.2314
X38.06 S0.4510
X38.26 S0.0235
X38.46 S0.3216
X38.66 S0.4078
X38.86 S0.8157
X39.06 S0.6314
X39.26 S0.6235
X39.46 S0.0980
X39.66 S0.5412
X39.86 S0.3373
X40.06 S0.9451
X40.26 S0.6235
X40.46 S0.2980
X40.66 S0.4863
X40.86 S0.9765
X41.06 S0.1490
X41.26 S0.1020
X41.46 S0.7804
X41.66 S0.8980
X41.86 S0.9216
X42.06 S0.3765
X42.26 S0.5725
X42.46 S0.4275
X42.66 S0.4039
X43.26 S1.0000
X43.46 S0.8039
X43.66 S0.8157
X44.26 S1.0000
X44.46 S0.4235
X44.66 S0.0078
X44.86 S0.5529
X45.06 S0.9137
X45.26 S0.7608
X45.66 S0.9490
X45.86 S0.6784
X46.06 S0.5725
X46.16 S0.4745
G0 X46.56 S0.0000
G1 X46.66 S0.3020
X46.86 S0.9686
X47.06 S0.9882
X47.66 S1.0000
X47.76 S0.9059
G0 X48.16 S0.0000
G1 X48.26 S0.0275
X48.86 S0.6235
X48.96 S0.3725
G0 X49.36 S0.0000
G1 X49.46 S0.2471
X49.66 S0.9804
X49.86 S1.0000
X50.06 S0.9686
X50.26 S0.6235
X50.46 S0.5765
X50.66 S0.4667
X50.86 S0.8314
X50.96 S0.4431
G0 X51.96 S0.0000
G1 X52.06 S0.5059
X52.26 S0.0510
X52.46 S0.1294
X52.66 S0.5529
X52.76 S0.3765
G0 X53.16 S0.0000
G1 X53.26 S0.6392
X53.46 S0.5176
X53.66 S0.2431
X53.86 S0.0275
X54.06 S0.0118
X54.16 S0.0039
G0 X63.56 S0.0000
G1 X63.66 S0.1490
X63.76 S0.1804
G0 X64.16 S0.0000
G1 X64.26 S0.4510
G0 X64.76 S0.0000
G1 X64.86 S0.3961
X65.06 S0.9412
X65.26 S0.3216
X65.46 S0.2824
X65.66 S0.0902
X65.86 S0.3882
X66.06 S0.4235
X66.26 S0.4588
X66.36 S0.3255
G0 X66.76 S0.0000
G1 X66.86 S0.0471
G0 X67.16 S0.0000
G1 X67.26 S0.0510
X67.46 S0.0118
X67.56 S0.0471
G0 X68.16 S0.0000
G1 X68.26 S0.0471
X68.36 S0.0745
G0 X68.76 S0.0000
G1 X68.86 S0.1137
X69.06 S0.7294
X69.26 S0.6353
X69.46 S0.6157
X69.86 S0.5725
X70.06 S0.4431
X70.26 S0.2157
X70.46 S0.5451
X70.66 S0.7176
X71.06 S0.4275
X71.26 S0.2078
X71.46 S0.8588
X71.66 S0.7804
X71.86 S0.8314
X72.06 S0.5725
X72.26 S0.6667
X72.46 S0.4196
X72.66 S0.9098
X72.86 S0.5961
X73.06 S0.4667
X73.26 S0.0510
X73.36 S0.0157
G0 X73.96 S0.0000
G1 X74.06 S0.0392
G0 X74.36 S0.0000
G1 X74.46 S0.1961
X74.66 S0.3882
X74.86 S0.5961
X75.06 S0.9490
X75.26 S0.8902
